;Generated by Cura LulzBot Edition GCodeWriter Version: 2.6.69
;FLAVOR:RepRap
;TIME:14315
;Filament used: 15.022m
;Layer height: 0.38
;Generated with Cura_SteamEngine 2.6.69
;This G-Code has been generated specifically for the LulzBot TAZ 6 with standard extruder
G26 ; clear potential 'probe fail' condition
G21 ; set units to Millimetres
M107 ; disable fans
G90 ; absolute positioning
M82 ; set extruder to absolute mode
G92 E0 ; set extruder position to 0
M140 S110 ; start bed heating up
G28 XY ; home X and Y
G1 X-19 Y258 F1000 ; move to safe homing position
M109 R175 ; soften filament before homing Z
G28 Z ; home Z
G1 E-30 F100 ; retract filament
M109 R170 ; wait for extruder to reach wiping temp
G1 X-15 Y100 F3000 ; move above wiper pad
G1 Z1 ; push nozzle into wiper
G1 X-17 Y95 F1000 ; slow wipe
G1 X-17 Y90 F1000 ; slow wipe
G1 X-17 Y85 F1000 ; slow wipe
G1 X-15 Y90 F1000 ; slow wipe
G1 X-17 Y80 F1000 ; slow wipe
G1 X-15 Y95 F1000 ; slow wipe
G1 X-17 Y75 F2000 ; fast wipe
G1 X-15 Y65 F2000 ; fast wipe
G1 X-17 Y70 F2000 ; fast wipe
G1 X-15 Y60 F2000 ; fast wipe
G1 X-17 Y55 F2000 ; fast wipe
G1 X-15 Y50 F2000 ; fast wipe
G1 X-17 Y40 F2000 ; fast wipe
G1 X-15 Y45 F2000 ; fast wipe
G1 X-17 Y35 F2000 ; fast wipe
G1 X-15 Y40 F2000 ; fast wipe
G1 X-17 Y70 F2000 ; fast wipe
G1 X-15 Y30 Z2 F2000 ; fast wipe
G1 X-17 Y35 F2000 ; fast wipe
G1 X-15 Y25 F2000 ; fast wipe
G1 X-17 Y30 F2000 ; fast wipe
G1 X-15 Y25 Z1.5 F1000 ; slow wipe
G1 X-17 Y23 F1000 ; slow wipe
G1 Z10 ; raise extruder
M109 R170 ; wait for extruder to reach probe temp
G1 X-9 Y-9 ; move above first probe point
M204 S100 ; set probing acceleration
G29 ; start auto-leveling sequence
M204 S500 ; restore standard acceleration
G1 X0 Y0 Z15 F5000 ; move up off last probe point
G4 S1 ; pause
M400 ; wait for moves to finish
M117 Heating... ; progress indicator message on LCD
M109 R240 ; wait for extruder to reach printing temp
M190 S110 ; wait for bed to reach printing temp
G1 Z2 E0 F75 ; prime tiny bit of filament into the nozzle
M117 TAZ 6 Printing... ; progress indicator message on LCD

M221 S100
;LAYER_COUNT:98
;LAYER:-5
M107
G0 F2625 X25.08 Y99.135 Z0.51
G1 F1350 X100.366 Y78.967 E6.23095
G1 X100.573 Y78.92 E6.24792
G1 X100.573 Y78.919 E6.248
G1 X100.957 Y78.847 E6.27923
G1 X101.425 Y78.798 E6.31685
G1 X101.873 Y78.788 E6.35267
G1 X102.194 Y78.801 E6.37836
G1 X102.261 Y78.807 E6.38373
G1 X102.304 Y78.812 E6.3872
G1 X102.738 Y78.865 E6.42215
G1 X103.174 Y78.955 E6.45774
G1 X103.567 Y79.07 E6.49048
G1 X103.749 Y79.129 E6.50577
G1 X103.764 Y79.134 E6.50704
G1 X103.984 Y79.228 E6.52616
G1 X104.432 Y79.442 E6.56585
G1 X104.821 Y79.666 E6.60174
G1 X105.187 Y79.92 E6.63735
G1 X105.277 Y79.985 E6.64623
G1 X105.311 Y80.011 E6.64965
G1 X105.538 Y80.204 E6.67347
G1 X105.884 Y80.531 E6.71153
G1 X106.161 Y80.838 E6.74459
G1 X106.433 Y81.192 E6.78028
G1 X106.531 Y81.33 E6.79381
G1 X106.564 Y81.379 E6.79853
G1 X106.678 Y81.57 E6.81631
G1 X106.895 Y81.969 E6.85262
G1 X107.065 Y82.353 E6.8862
G1 X107.213 Y82.778 E6.92218
G1 X107.257 Y82.919 E6.93398
G1 X129.132 Y164.57 E13.69176
G1 X129.266 Y165.027 E13.72983
G1 X129.267 Y165.027 E13.72991
G1 X129.281 Y165.079 E13.73422
G1 X129.442 Y165.681 E13.78404
G1 X129.519 Y166.098 E13.81794
G1 X129.53 Y166.786 E13.87295
G1 X140.272 Y206.886 E17.19177
G1 X140.329 Y207.139 E17.2125
G1 X140.344 Y207.209 E17.21822
G1 X140.349 Y207.232 E17.2201
G1 X140.368 Y207.346 E17.22934
G1 X140.367 Y207.346 E17.22942
G1 X140.397 Y207.555 E17.2463
G1 X140.41 Y207.656 E17.25445
G1 X140.418 Y207.756 E17.26247
G1 X140.433 Y207.972 E17.27977
G1 X140.439 Y208.133 E17.29265
G1 X140.437 Y208.252 E17.30217
G1 X140.426 Y208.594 E17.32952
G1 X140.409 Y208.767 E17.34342
G1 X140.43 Y208.89 E17.3534
G1 X140.454 Y209.323 E17.38807
G1 X140.379 Y209.883 E17.43324
G1 X140.367 Y209.927 E17.43688
G1 X140.253 Y210.29 E17.4673
G1 X140.247 Y210.305 E17.46859
G1 X140.157 Y210.509 E17.48642
G1 X139.906 Y211.015 E17.53157
G1 X139.686 Y211.381 E17.56571
G1 X139.427 Y211.687 E17.59776
G1 X139.243 Y211.854 E17.61763
G1 X139.119 Y211.957 E17.63051
G1 X138.773 Y212.2 E17.66431
G1 X138.396 Y212.382 E17.69778
G1 X138.153 Y212.461 E17.71821
G1 X109.987 Y220.008 E20.04937
G1 X109.656 Y220.458 E20.09403
G1 X109.368 Y220.739 E20.12619
G1 X109.035 Y220.971 E20.15864
G1 X108.653 Y221.154 E20.1925
G1 X108.417 Y221.23 E20.21232
G1 X89.267 Y226.36 E21.79725
G1 X88.855 Y226.436 E21.83074
G1 X88.446 Y226.442 E21.86344
G1 X88.037 Y226.381 E21.8965
G1 X87.199 Y226.114 E21.96681
G1 X59.137 Y233.634 E24.28938
G1 X58.723 Y233.708 E24.323
G1 X58.229 Y233.711 E24.3625
G1 X58.119 Y233.701 E24.37133
G1 X57.697 Y233.629 E24.40555
G1 X57.221 Y233.457 E24.44601
G1 X57.132 Y233.415 E24.45388
G1 X57.018 Y233.358 E24.46407
G1 X57.011 Y233.355 E24.46468
G1 X56.74 Y233.192 E24.48996
G1 X56.291 Y232.882 E24.53358
G1 X55.964 Y232.615 E24.56733
G1 X55.693 Y232.306 E24.60019
G1 X55.476 Y231.961 E24.63277
G1 X55.322 Y231.594 E24.66459
G1 X55.195 Y231.418 E24.68194
G1 X55.008 Y231.112 E24.71061
G1 X55.004 Y231.105 E24.71125
G1 X54.889 Y230.896 E24.73032
G1 X54.649 Y230.407 E24.77387
G1 X54.467 Y229.821 E24.82293
G1 X43.706 Y189.664 E28.14654
G1 X43.523 Y189.401 E28.17216
G1 X43.345 Y189.028 E28.2052
G1 X43.259 Y188.762 E28.22755
G1 X43.118 Y188.227 E28.27178
G1 X21.104 Y106.069 E35.07158
G1 X21.051 Y105.828 E35.09131
G1 X20.977 Y105.41 E35.12525
G1 X20.939 Y105.103 E35.14998
G1 X20.929 Y104.947 E35.16247
G1 X20.926 Y104.858 E35.16959
G1 X20.919 Y104.558 E35.19358
G1 X20.94 Y104.158 E35.2256
G1 X21.006 Y103.643 E35.26711
G1 X21.042 Y103.437 E35.28383
G1 X21.051 Y103.392 E35.2875
G1 X21.099 Y103.202 E35.30317
G1 X21.199 Y102.854 E35.33211
G1 X21.262 Y102.661 E35.34834
G1 X21.274 Y102.629 E35.35108
G1 X21.37 Y102.399 E35.371
G1 X21.569 Y101.984 E35.40779
G1 X21.78 Y101.618 E35.44157
G1 X22.085 Y101.175 E35.48457
G1 X22.333 Y100.867 E35.51618
G1 X22.613 Y100.568 E35.54893
G1 X22.974 Y100.245 E35.58765
G1 X22.991 Y100.233 E35.58932
G1 X23.304 Y99.993 E35.62085
G1 X23.454 Y99.886 E35.63558
G1 X23.557 Y99.818 E35.64545
G1 X23.783 Y99.681 E35.66657
G1 X24.089 Y99.516 E35.69437
G1 X24.461 Y99.35 E35.72693
G1 X24.867 Y99.202 E35.76148
G1 X25.08 Y99.135 E35.77933
G0 F2625 X26 Y98.888
G1 F1350 X26 Y124.341 E37.81417
G0 F2625 X24 Y116.877
G1 F1350 X24 Y99.563 E39.19833
G0 F2625 X22 Y101.298
G1 F1350 X22 Y109.412 E39.847
G0 F2625 X28 Y98.352
G1 F1350 X28 Y131.805 E42.5214
G0 F2625 X30 Y139.269
G1 F1350 X30 Y97.817 E45.83527
G0 F2625 X32 Y97.281
G1 F1350 X32 Y146.733 E49.78871
G0 F2625 X34 Y154.197
G1 F1350 X34 Y96.745 E54.3817
G0 F2625 X36 Y96.209
G1 F1350 X36 Y161.662 E59.61433
G0 F2625 X38 Y169.126
G1 F1350 X38 Y95.673 E65.48652
G0 F2625 X40 Y95.138
G1 F1350 X40 Y176.59 E71.99819
G0 F2625 X42 Y184.054
G1 F1350 X42 Y94.602 E79.14942
G0 F2625 X44 Y94.066
G1 F1350 X44 Y190.761 E86.87969
G0 F2625 X46 Y198.224
G1 F1350 X46 Y93.53 E95.24944
G0 F2625 X48 Y92.995
G1 F1350 X48 Y205.687 E104.25858
G0 F2625 X50 Y213.151
G1 F1350 X50 Y92.459 E113.90729
G0 F2625 X52 Y91.923
G1 F1350 X52 Y220.614 E124.19547
G0 F2625 X54 Y228.078
G1 F1350 X54 Y91.387 E135.12322
G0 F2625 X56 Y90.851
G1 F1350 X56 Y232.644 E146.45884
G0 F2625 X58 Y233.68
G1 F1350 X58 Y90.316 E157.92005
G0 F2625 X60 Y89.78
G1 F1350 X60 Y233.403 E169.40198
G0 F2625 X62 Y232.867
G1 F1350 X62 Y89.244 E180.8839
G0 F2625 X64 Y88.708
G1 F1350 X64 Y232.331 E192.36582
G0 F2625 X66 Y231.795
G1 F1350 X66 Y88.173 E203.84766
G0 F2625 X68 Y87.637
G1 F1350 X68 Y231.259 E215.3295
G0 F2625 X70 Y230.723
G1 F1350 X70 Y87.101 E226.81134
G0 F2625 X72 Y86.565
G1 F1350 X72 Y230.187 E238.29318
G0 F2625 X74 Y229.652
G1 F1350 X74 Y86.03 E249.77503
G0 F2625 X76 Y85.494
G1 F1350 X76 Y229.116 E261.25687
G0 F2625 X78 Y228.58
G1 F1350 X78 Y84.958 E272.73871
G0 F2625 X80 Y84.422
G1 F1350 X80 Y228.044 E284.22055
G0 F2625 X82 Y227.508
G1 F1350 X82 Y83.886 E295.70239
G0 F2625 X84 Y83.351
G1 F1350 X84 Y226.972 E307.18415
G0 F2625 X86 Y226.436
G1 F1350 X86 Y82.815 E318.66591
G0 F2625 X88 Y82.279
G1 F1350 X88 Y226.369 E330.18517
G0 F2625 X90 Y226.164
G1 F1350 X90 Y81.743 E341.73089
G0 F2625 X92 Y81.208
G1 F1350 X92 Y225.628 E353.27652
G0 F2625 X94 Y225.093
G1 F1350 X94 Y80.672 E364.82224
G0 F2625 X96 Y80.136
G1 F1350 X96 Y224.557 E376.36796
G0 F2625 X98 Y224.021
G1 F1350 X98 Y79.6 E387.91368
G0 F2625 X100 Y79.065
G1 F1350 X100 Y223.485 E399.45931
G0 F2625 X102 Y222.95
G1 F1350 X102 Y78.794 E410.98385
G0 F2625 X104 Y79.236
G1 F1350 X104 Y222.414 E422.43019
G0 F2625 X106 Y221.878
G1 F1350 X106 Y80.66 E433.71985
G0 F2625 X108 Y85.693
G1 F1350 X108 Y221.342 E444.56429
G0 F2625 X110 Y220.005
G1 F1350 X110 Y93.158 E454.70505
G0 F2625 X112 Y100.623
G1 F1350 X112 Y219.469 E464.20618
G0 F2625 X114 Y218.933
G1 F1350 X114 Y108.089 E473.06759
G0 F2625 X116 Y115.554
G1 F1350 X116 Y218.397 E481.28936
G0 F2625 X118 Y217.861
G1 F1350 X118 Y123.019 E488.87149
G0 F2625 X120 Y130.484
G1 F1350 X120 Y217.326 E495.81406
G0 F2625 X122 Y216.79
G1 F1350 X122 Y137.949 E502.117
G0 F2625 X124 Y145.415
G1 F1350 X124 Y216.254 E507.78021
G0 F2625 X126 Y215.718
G1 F1350 X126 Y152.88 E512.80379
G0 F2625 X128 Y160.345
G1 F1350 X128 Y215.182 E517.18772
G0 F2625 X130 Y214.646
G1 F1350 X130 Y168.541 E520.87358
G0 F2625 X132 Y176.007
G1 F1350 X132 Y214.11 E523.91972
G0 F2625 X134 Y213.574
G1 F1350 X134 Y183.473 E526.32614
G0 F2625 X136 Y190.939
G1 F1350 X136 Y213.038 E528.09284
G0 F2625 X138 Y212.502
M104 S240
G1 F1350 X138 Y198.405 E529.21982
G0 F2625 X140 Y205.871
G1 F1350 X140 Y210.826 E529.61595
G0 F2625 X25.98 Y98.893
;TIME_ELAPSED:308.618979
;LAYER:-4
M140 S110
M221 S100
G0 X25.98 Y98.893 Z1.08
;TYPE:SUPPORT
G1 F1350 X25.08 Y99.134 E529.6992
G1 X24.867 Y99.201 E529.71915
G1 X24.666 Y99.274 E529.73826
G1 X137.915 Y212.523 E544.04842
G1 X136.577 Y212.881 E544.17218
G1 X23.531 Y99.834 E558.45675
G1 X23.454 Y99.885 E558.46501
G1 X23.304 Y99.992 E558.48147
G1 X22.99 Y100.232 E558.51678
G1 X22.973 Y100.243 E558.51859
G1 X22.613 Y100.567 E558.56187
G1 X22.591 Y100.59 E558.56471
G1 X135.24 Y213.24 E572.79912
G1 X133.903 Y213.598 E572.92279
G1 X21.837 Y101.532 E587.08347
G1 X21.78 Y101.616 E587.09254
G1 X21.569 Y101.983 E587.13037
G1 X21.369 Y102.398 E587.17153
G1 X21.274 Y102.628 E587.19376
G1 X21.263 Y102.654 E587.19629
G1 X132.566 Y213.957 E601.26055
G1 X131.228 Y214.314 E601.38429
G1 X20.954 Y104.04 E615.31853
G1 X20.939 Y104.157 E615.32907
G1 X20.919 Y104.557 E615.36485
G1 X20.926 Y104.856 E615.39158
G1 X20.928 Y104.945 E615.39953
G1 X20.939 Y105.102 E615.41359
G1 X20.977 Y105.409 E615.44123
G1 X21.051 Y105.827 E615.47916
G0 F2625 X21.052 Y105.834
G1 F1350 X129.891 Y214.673 E629.23208
G1 X128.554 Y215.031 E629.35575
G1 X21.657 Y108.135 E642.86321
G1 X22.278 Y110.451 E643.07745
G1 X127.216 Y215.39 E656.3375
G1 X125.879 Y215.748 E656.46117
G1 X22.898 Y112.767 E669.47387
G1 X23.519 Y115.083 E669.68811
G1 X124.542 Y216.106 E682.4534
G1 X123.204 Y216.465 E682.57718
G1 X24.139 Y117.4 E695.09505
G1 X24.76 Y119.716 E695.30929
G1 X121.867 Y216.823 E707.57975
G1 X120.529 Y217.181 E707.70351
G1 X25.38 Y122.032 E719.72655
G1 X26.001 Y124.348 E719.9408
G1 X119.192 Y217.539 E731.71643
G1 X117.855 Y217.898 E731.84012
G1 X26.622 Y126.665 E743.36834
G1 X27.242 Y128.981 E743.58256
G1 X116.518 Y218.256 E754.86343
G1 X115.18 Y218.614 E754.98719
G1 X27.863 Y131.297 E766.02058
G1 X28.484 Y133.614 E766.23491
G1 X113.843 Y218.973 E777.02089
G1 X112.506 Y219.331 E777.14456
G1 X29.105 Y135.93 E787.68313
G1 X29.725 Y138.246 E787.89735
G1 X111.168 Y219.689 E798.1885
G1 X109.986 Y220.007 E798.29787
G1 X109.904 Y220.12 E798.31034
G1 X30.346 Y140.562 E808.36331
G1 X30.967 Y142.879 E808.57764
G1 X109.047 Y220.96 E818.4439
G1 X109.035 Y220.97 E818.4453
G1 X108.652 Y221.153 E818.48323
G1 X108.417 Y221.228 E818.50527
G1 X107.788 Y221.396 E818.56344
G1 X31.587 Y145.195 E828.19221
G1 X32.208 Y147.511 E828.40645
G1 X106.451 Y221.755 E837.78788
G1 X105.114 Y222.113 E837.91155
G1 X32.828 Y149.828 E847.04556
G1 X33.449 Y152.144 E847.2598
G1 X103.776 Y222.471 E856.14633
G1 X102.439 Y222.829 E856.27
G1 X34.07 Y154.461 E864.90906
G1 X34.69 Y156.776 E865.12319
G1 X101.102 Y223.188 E873.51503
G1 X99.764 Y223.546 E873.63878
G1 X35.311 Y159.093 E881.78308
G1 X35.932 Y161.409 E881.99732
G1 X98.427 Y223.904 E889.8942
G1 X97.09 Y224.263 E890.01789
G1 X36.553 Y163.726 E897.66736
G1 X37.173 Y166.042 E897.88158
G1 X95.752 Y224.62 E905.28357
G1 X94.415 Y224.979 E905.40726
G1 X37.794 Y168.358 E912.5619
G1 X38.414 Y170.675 E912.77621
G1 X93.077 Y225.337 E919.68338
G1 X91.74 Y225.695 E919.80704
G1 X39.035 Y172.99 E926.46686
G1 X39.655 Y175.307 E926.68117
G1 X90.402 Y226.054 E933.09357
G1 X89.266 Y226.359 E933.19866
G1 X89.051 Y226.398 E933.21819
G1 X40.276 Y177.623 E939.3814
G1 X40.897 Y179.94 E939.59574
G1 X87.097 Y226.139 E945.43351
G1 X85.76 Y226.498 E945.55721
G1 X41.517 Y182.256 E951.1477
G1 X42.138 Y184.572 E951.36194
G1 X84.422 Y226.856 E956.70496
G1 X83.085 Y227.214 E956.82862
G1 X42.759 Y186.889 E961.92416
G1 X43.117 Y188.226 E962.04783
G1 X43.258 Y188.761 E962.09727
G1 X43.344 Y189.027 E962.12225
G1 X43.475 Y189.3 E962.1493
G1 X81.747 Y227.573 E966.98542
G1 X80.41 Y227.931 E967.10909
G1 X44.278 Y191.799 E971.67474
G1 X44.899 Y194.115 E971.88898
G1 X79.073 Y228.29 E976.20728
G1 X77.736 Y228.648 E976.33095
G1 X45.519 Y196.432 E980.40183
G1 X46.14 Y198.747 E980.61599
G1 X76.399 Y229.007 E984.43958
G1 X75.062 Y229.365 E984.56325
G1 X46.76 Y201.064 E988.13944
G1 X47.381 Y203.38 E988.35368
G1 X73.724 Y229.723 E991.68239
G1 X72.387 Y230.081 E991.80606
G1 X48.001 Y205.696 E994.88741
G1 X48.622 Y208.013 E995.10174
G1 X71.05 Y230.44 E997.93569
G1 X69.712 Y230.798 E998.05944
G1 X49.243 Y210.329 E1000.64591
G1 X49.864 Y212.646 E1000.86024
G1 X68.375 Y231.157 E1003.19929
G1 X67.038 Y231.515 E1003.32296
G1 X50.484 Y214.961 E1005.41473
G1 X51.105 Y217.278 E1005.62906
G1 X65.7 Y231.873 E1007.47329
G1 X64.363 Y232.232 E1007.59698
G1 X51.726 Y219.594 E1009.19386
G1 X52.347 Y221.911 E1009.40819
G1 X63.026 Y232.59 E1010.75759
G1 X61.689 Y232.949 E1010.88128
G1 X52.967 Y224.227 E1011.9834
G1 X53.588 Y226.543 E1012.19764
G1 X60.352 Y233.307 E1013.05234
G1 X59.136 Y233.633 E1013.16483
G1 X59.005 Y233.656 E1013.17671
G1 X54.208 Y228.86 E1013.7828
G1 X54.466 Y229.82 E1013.87162
G1 X54.649 Y230.406 E1013.92647
G1 X54.889 Y230.895 E1013.97514
G1 X55.003 Y231.104 E1013.99641
G1 X55.007 Y231.111 E1013.99713
G1 X55.194 Y231.416 E1014.0291
G1 X55.321 Y231.593 E1014.04856
G1 X55.376 Y231.723 E1014.06118
G1 X57.002 Y233.349 E1014.26664
G0 F2625 X139.074 Y211.987
G1 F1350 X139.119 Y211.956 E1014.27152
G1 X139.243 Y211.853 E1014.28592
G1 X139.427 Y211.686 E1014.30813
G1 X139.685 Y211.38 E1014.34389
G1 X139.865 Y211.082 E1014.375
G1 X27.318 Y98.535 E1028.59645
G1 X28.655 Y98.176 E1028.72015
G1 X140.375 Y209.896 E1042.83711
G1 X140.379 Y209.882 E1042.83841
G1 X140.454 Y209.321 E1042.88898
G1 X140.429 Y208.889 E1042.92764
G1 X140.408 Y208.766 E1042.93879
G1 X140.425 Y208.593 E1042.95432
G1 X140.437 Y208.262 E1042.98392
G1 X29.993 Y97.819 E1056.93958
G1 X31.33 Y97.46 E1057.06327
G1 X140.094 Y206.224 E1070.80671
G1 X139.474 Y203.909 E1071.02085
G1 X32.667 Y97.102 E1084.517
G1 X34.005 Y96.744 E1084.64076
G1 X138.854 Y201.593 E1097.88949
G1 X138.233 Y199.276 E1098.10383
G1 X35.342 Y96.385 E1111.10515
G1 X36.679 Y96.027 E1111.22882
G1 X137.613 Y196.961 E1123.98286
G1 X136.993 Y194.645 E1124.19708
G1 X38.017 Y95.669 E1136.70371
G1 X39.354 Y95.31 E1136.8274
G1 X136.372 Y192.328 E1149.08661
G1 X135.752 Y190.013 E1149.30075
G1 X40.691 Y94.952 E1161.31267
G1 X42.029 Y94.594 E1161.43643
G1 X135.132 Y187.697 E1173.20094
G1 X134.512 Y185.381 E1173.41516
G1 X43.366 Y94.236 E1184.93232
G1 X44.703 Y93.877 E1185.05602
G1 X133.891 Y183.064 E1196.32577
G1 X133.271 Y180.749 E1196.5399
G1 X46.041 Y93.519 E1207.5623
G1 X47.378 Y93.161 E1207.68597
G1 X132.651 Y178.433 E1218.46102
G1 X132.03 Y176.116 E1218.67535
G1 X48.716 Y92.802 E1229.20292
G1 X50.053 Y92.445 E1229.32657
G1 X131.41 Y173.801 E1239.60679
G1 X130.79 Y171.485 E1239.82101
G1 X51.391 Y92.086 E1249.85389
G1 X52.728 Y91.728 E1249.97755
G1 X130.169 Y169.168 E1259.76295
