;Generated by Cura LulzBot Edition GCodeWriter Version: 2.6.69
;FLAVOR:RepRap
;TIME:16130
;Filament used: 17.4423m
;Layer height: 0.38
;Generated with Cura_SteamEngine 2.6.69
;This G-Code has been generated specifically for the LulzBot TAZ 6 with standard extruder
G26 ; clear potential 'probe fail' condition
G21 ; set units to Millimetres
M107 ; disable fans
G90 ; absolute positioning
M82 ; set extruder to absolute mode
G92 E0 ; set extruder position to 0
M140 S110 ; start bed heating up
G28 XY ; home X and Y
G1 X-19 Y258 F1000 ; move to safe homing position
M109 R175 ; soften filament before homing Z
G28 Z ; home Z
G1 E-30 F100 ; retract filament
M109 R170 ; wait for extruder to reach wiping temp
G1 X-15 Y100 F3000 ; move above wiper pad
G1 Z1 ; push nozzle into wiper
G1 X-17 Y95 F1000 ; slow wipe
G1 X-17 Y90 F1000 ; slow wipe
G1 X-17 Y85 F1000 ; slow wipe
G1 X-15 Y90 F1000 ; slow wipe
G1 X-17 Y80 F1000 ; slow wipe
G1 X-15 Y95 F1000 ; slow wipe
G1 X-17 Y75 F2000 ; fast wipe
G1 X-15 Y65 F2000 ; fast wipe
G1 X-17 Y70 F2000 ; fast wipe
G1 X-15 Y60 F2000 ; fast wipe
G1 X-17 Y55 F2000 ; fast wipe
G1 X-15 Y50 F2000 ; fast wipe
G1 X-17 Y40 F2000 ; fast wipe
G1 X-15 Y45 F2000 ; fast wipe
G1 X-17 Y35 F2000 ; fast wipe
G1 X-15 Y40 F2000 ; fast wipe
G1 X-17 Y70 F2000 ; fast wipe
G1 X-15 Y30 Z2 F2000 ; fast wipe
G1 X-17 Y35 F2000 ; fast wipe
G1 X-15 Y25 F2000 ; fast wipe
G1 X-17 Y30 F2000 ; fast wipe
G1 X-15 Y25 Z1.5 F1000 ; slow wipe
G1 X-17 Y23 F1000 ; slow wipe
G1 Z10 ; raise extruder
M109 R170 ; wait for extruder to reach probe temp
G1 X-9 Y-9 ; move above first probe point
M204 S100 ; set probing acceleration
G29 ; start auto-leveling sequence
M204 S500 ; restore standard acceleration
G1 X0 Y0 Z15 F5000 ; move up off last probe point
G4 S1 ; pause
M400 ; wait for moves to finish
M117 Heating... ; progress indicator message on LCD
M109 R240 ; wait for extruder to reach printing temp
M190 S110 ; wait for bed to reach printing temp
G1 Z2 E0 F75 ; prime tiny bit of filament into the nozzle
M117 TAZ 6 Printing... ; progress indicator message on LCD

M221 S100
;LAYER_COUNT:98
;LAYER:-5
M107
G0 F2625 X40.533 Y103.993 Z0.51
G1 F1350 X40.583 Y103.973 E0.00431
G1 X40.923 Y103.852 E0.03316
G1 X41.136 Y103.786 E0.05098
G1 X122.063 Y82.104 E6.74886
G1 X122.273 Y82.055 E6.7661
G1 X122.661 Y81.979 E6.79771
G1 X122.933 Y81.94 E6.81967
G1 X123.131 Y81.928 E6.83553
G1 X123.567 Y81.919 E6.8704
G1 X123.872 Y81.932 E6.8948
G1 X123.912 Y81.935 E6.89801
G1 X123.912 Y81.936 E6.89809
G1 X123.982 Y81.943 E6.90371
G1 X123.982 Y81.942 E6.90379
G1 X124.461 Y82 E6.94237
G1 X124.894 Y82.09 E6.97772
G1 X125.262 Y82.198 E7.00838
G1 X125.467 Y82.265 E7.02562
G1 X125.736 Y82.379 E7.04898
G1 X126.165 Y82.587 E7.0871
G1 X126.51 Y82.788 E7.11902
G1 X126.881 Y83.043 E7.15501
G1 X126.881 Y83.044 E7.15509
G1 X127.003 Y83.132 E7.16711
G1 X127.02 Y83.144 E7.16877
G1 X127.244 Y83.336 E7.19236
G1 X127.593 Y83.664 E7.23065
G1 X127.869 Y83.971 E7.26365
G1 X128.141 Y84.325 E7.29934
G1 X128.239 Y84.463 E7.31287
G1 X128.272 Y84.512 E7.3176
G1 X128.386 Y84.703 E7.33538
G1 X128.603 Y85.102 E7.37169
G1 X128.773 Y85.486 E7.40526
G1 X128.921 Y85.911 E7.44124
G1 X128.965 Y86.052 E7.45305
G1 X150.84 Y167.702 E14.21075
G1 X150.974 Y168.159 E14.24882
G1 X150.975 Y168.159 E14.2489
G1 X150.989 Y168.211 E14.25321
G1 X151.15 Y168.813 E14.30302
G1 X151.227 Y169.23 E14.33693
G1 X151.238 Y169.918 E14.39193
G1 X161.979 Y210.015 E17.7105
G1 X162.035 Y210.261 E17.73067
G1 X162.048 Y210.322 E17.73566
G1 X162.082 Y210.52 E17.75172
G1 X162.108 Y210.703 E17.7665
G1 X162.118 Y210.789 E17.77342
G1 X162.126 Y210.889 E17.78144
G1 X162.141 Y211.105 E17.79875
G1 X162.147 Y211.266 E17.81163
G1 X162.145 Y211.385 E17.82114
G1 X162.134 Y211.727 E17.8485
G1 X162.117 Y211.9 E17.86239
G1 X162.138 Y212.023 E17.87237
G1 X162.162 Y212.456 E17.90704
G1 X162.087 Y213.016 E17.95221
G1 X162.075 Y213.06 E17.95585
G1 X161.961 Y213.423 E17.98627
G1 X161.955 Y213.438 E17.98756
G1 X161.865 Y213.642 E18.00539
G1 X161.614 Y214.148 E18.05054
G1 X161.394 Y214.514 E18.08468
G1 X161.135 Y214.82 E18.11673
G1 X160.951 Y214.987 E18.1366
G1 X160.827 Y215.09 E18.14948
G1 X160.481 Y215.333 E18.18329
G1 X160.104 Y215.515 E18.21675
G1 X159.861 Y215.594 E18.23718
G1 X131.7 Y223.14 E20.56793
G1 X131.367 Y223.593 E20.61288
G1 X131.077 Y223.876 E20.64527
G1 X130.738 Y224.112 E20.67829
G1 X130.368 Y224.29 E20.71112
G1 X130.121 Y224.369 E20.73185
G1 X122.486 Y226.416 E21.36379
G1 X122.486 Y228.173 E21.50425
G1 X122.45 Y228.601 E21.53859
G1 X122.352 Y228.995 E21.57105
G1 X122.19 Y229.37 E21.6037
G1 X121.97 Y229.712 E21.63621
G1 X121.696 Y230.015 E21.66887
G1 X121.376 Y230.271 E21.70163
G1 X121.023 Y230.467 E21.73391
G1 X120.64 Y230.604 E21.76643
G1 X120.228 Y230.681 E21.79994
G1 X119.974 Y230.694 E21.82027
G1 X115.277 Y230.694 E22.19577
G1 X114.849 Y230.658 E22.23011
G1 X114.455 Y230.56 E22.26257
G1 X114.08 Y230.398 E22.29522
G1 X113.738 Y230.178 E22.32773
G1 X113.432 Y229.902 E22.36068
G1 X112.734 Y229.024 E22.45035
G1 X105.33 Y231.012 E23.06322
G1 X104.904 Y231.09 E23.09785
G1 X104.499 Y231.096 E23.13023
G1 X104.091 Y231.038 E23.16317
G1 X103.242 Y230.766 E23.23444
G1 X75.202 Y238.279 E25.55517
G1 X74.788 Y238.353 E25.58879
G1 X74.294 Y238.356 E25.62828
G1 X74.182 Y238.346 E25.63727
G1 X73.759 Y238.274 E25.67158
G1 X73.289 Y238.103 E25.71156
G1 X73.201 Y238.061 E25.71936
G1 X73.029 Y237.973 E25.7348
G1 X72.793 Y237.827 E25.75699
G1 X72.378 Y237.542 E25.79723
G1 X72.043 Y237.271 E25.83168
G1 X71.778 Y236.969 E25.8638
G1 X71.557 Y236.618 E25.89696
G1 X71.413 Y236.276 E25.92663
G1 X71.297 Y236.113 E25.94262
G1 X71.164 Y235.91 E25.96202
G1 X71.042 Y235.702 E25.9813
G1 X70.972 Y235.575 E25.99289
G1 X70.716 Y235.057 E26.03909
G1 X70.532 Y234.467 E26.08849
G1 X59.773 Y194.312 E29.41191
G1 X59.58 Y194.037 E29.43877
G1 X59.41 Y193.678 E29.47053
G1 X59.313 Y193.37 E29.49634
G1 X59.175 Y192.826 E29.54121
G1 X37.173 Y110.704 E36.33799
G1 X37.128 Y110.507 E36.35414
G1 X37.041 Y110.037 E36.39235
G1 X36.997 Y109.605 E36.42707
G1 X36.988 Y109.174 E36.46153
G1 X36.995 Y108.879 E36.48512
G1 X36.997 Y108.849 E36.48753
G1 X37.004 Y108.784 E36.49275
G1 X37.071 Y108.27 E36.53419
G1 X37.109 Y108.055 E36.55165
G1 X37.12 Y108.01 E36.55535
G1 X37.158 Y107.866 E36.56726
G1 X37.28 Y107.447 E36.60214
G1 X37.455 Y106.997 E36.64074
G1 X37.67 Y106.563 E36.67946
G1 X37.852 Y106.248 E36.70855
G1 X38.084 Y105.902 E36.74185
G1 X38.274 Y105.653 E36.76689
G1 X38.298 Y105.625 E36.76984
G1 X38.392 Y105.52 E36.78111
G1 X38.719 Y105.175 E36.81911
G1 X39.021 Y104.901 E36.85171
G1 X39.376 Y104.627 E36.88756
G1 X39.739 Y104.39 E36.92222
G1 X40.159 Y104.16 E36.9605
G1 X40.477 Y104.014 E36.98847
G1 X40.533 Y103.993 E36.99325
G0 F2625 X40 Y104.247
G1 F1350 X40 Y121.255 E38.35296
G0 F2625 X42 Y128.72
G1 F1350 X42 Y103.554 E40.36485
G0 F2625 X44 Y103.018
G1 F1350 X44 Y136.185 E43.01638
G0 F2625 X46 Y143.65
G1 F1350 X46 Y102.482 E46.30755
G0 F2625 X48 Y101.946
G1 F1350 X48 Y151.115 E50.23836
G0 F2625 X50 Y158.58
G1 F1350 X50 Y101.411 E54.80873
G0 F2625 X52 Y100.875
G1 F1350 X52 Y166.045 E60.01873
G0 F2625 X54 Y173.51
G1 F1350 X54 Y100.339 E65.86838
G0 F2625 X56 Y99.803
G1 F1350 X56 Y180.975 E72.35766
G0 F2625 X58 Y188.44
G1 F1350 X58 Y99.267 E79.48659
G0 F2625 X60 Y98.731
G1 F1350 X60 Y195.159 E87.19551
G0 F2625 X62 Y202.623
G1 F1350 X62 Y98.196 E95.54391
G0 F2625 X64 Y97.66
G1 F1350 X64 Y210.088 E104.53195
G0 F2625 X66 Y217.552
G1 F1350 X66 Y97.124 E114.15955
G0 F2625 X68 Y96.588
G1 F1350 X68 Y225.017 E124.42679
G0 F2625 X70 Y232.481
G1 F1350 X70 Y96.052 E135.33359
G0 F2625 X72 Y95.516
G1 F1350 X72 Y237.221 E146.66218
G0 F2625 X74 Y238.315
G1 F1350 X74 Y94.981 E158.121
G0 F2625 X76 Y94.445
G1 F1350 X76 Y238.066 E169.60276
G0 F2625 X78 Y237.53
G1 F1350 X78 Y93.909 E181.08452
G0 F2625 X80 Y93.373
G1 F1350 X80 Y236.994 E192.56628
G0 F2625 X82 Y236.458
G1 F1350 X82 Y92.837 E204.04804
G0 F2625 X84 Y92.301
G1 F1350 X84 Y235.922 E215.5298
G0 F2625 X86 Y235.386
G1 F1350 X86 Y91.766 E227.01148
G0 F2625 X88 Y91.23
G1 F1350 X88 Y234.85 E238.49317
G0 F2625 X90 Y234.315
G1 F1350 X90 Y90.694 E249.97493
G0 F2625 X92 Y90.158
G1 F1350 X92 Y233.779 E261.45669
G0 F2625 X94 Y233.243
G1 F1350 X94 Y89.622 E272.93845
G0 F2625 X96 Y89.086
G1 F1350 X96 Y232.707 E284.42021
G0 F2625 X98 Y232.171
G1 F1350 X98 Y88.55 E295.90197
G0 F2625 X100 Y88.015
G1 F1350 X100 Y231.635 E307.38366
G0 F2625 X102 Y231.099
G1 F1350 X102 Y87.479 E318.86534
G0 F2625 X104 Y86.943
G1 F1350 X104 Y231.008 E330.38259
G0 F2625 X106 Y230.833
G1 F1350 X106 Y86.407 E341.92871
G0 F2625 X108 Y85.871
G1 F1350 X108 Y230.296 E353.47475
G0 F2625 X110 Y229.759
G1 F1350 X110 Y85.335 E365.02071
G0 F2625 X112 Y84.8
G1 F1350 X112 Y229.222 E376.5665
G0 F2625 X114 Y230.346
G1 F1350 X114 Y84.264 E388.24501
G0 F2625 X116 Y83.728
G1 F1350 X116 Y230.694 E399.99419
G0 F2625 X118 Y230.694
G1 F1350 X118 Y83.192 E411.78621
G0 F2625 X120 Y82.656
G1 F1350 X120 Y230.693 E423.62101
G0 F2625 X122 Y229.666
G1 F1350 X122 Y82.12 E435.41656
G0 F2625 X124 Y81.945
G1 F1350 X124 Y226.011 E446.93389
G0 F2625 X126 Y225.474
G1 F1350 X126 Y82.507 E458.36337
G0 F2625 X128 Y84.142
G1 F1350 X128 Y224.938 E469.61929
G0 F2625 X130 Y224.402
G1 F1350 X130 Y89.916 E480.37075
G0 F2625 X132 Y97.381
G1 F1350 X132 Y223.06 E490.41814
G0 F2625 X134 Y222.524
G1 F1350 X134 Y104.846 E499.8259
G0 F2625 X136 Y112.311
G1 F1350 X136 Y221.988 E508.59401
G0 F2625 X138 Y221.452
G1 F1350 X138 Y119.776 E516.72248
G0 F2625 X140 Y127.241
G1 F1350 X140 Y220.916 E524.21132
G0 F2625 X142 Y220.381
G1 F1350 X142 Y134.707 E531.06051
G0 F2625 X144 Y142.172
G1 F1350 X144 Y219.845 E537.27007
G0 F2625 X146 Y219.309
G1 F1350 X146 Y149.637 E542.83999
G0 F2625 X148 Y157.102
G1 F1350 X148 Y218.773 E547.77027
G0 F2625 X150 Y218.237
G1 F1350 X150 Y164.567 E552.06091
G0 F2625 X152 Y172.763
G1 F1350 X152 Y217.701 E555.65347
G0 F2625 X154 Y217.165
G1 F1350 X154 Y180.229 E558.60632
G0 F2625 X156 Y187.695
G1 F1350 X156 Y216.629 E560.91944
G0 F2625 X158 Y216.093
G1 F1350 X158 Y195.162 E562.59277
G0 F2625 X160 Y202.628
G1 F1350 X160 Y215.549 E563.62574
G0 F2625 X162 Y213.299
G1 F1350 X162 Y210.108 E563.88084
M104 S240
G0 F2625 X38 Y113.79
G1 F1350 X38 Y106.027 E564.50145
G0 F2625 X40.476 Y104.013
;TIME_ELAPSED:328.142224
;LAYER:-4
M140 S110
M221 S100
G0 X40.476 Y104.013 Z1.08
;TYPE:SUPPORT
G1 F1350 X40.158 Y104.158 E564.53268
G1 X39.878 Y104.313 E564.56127
G1 X152.997 Y217.431 E578.85495
G1 X151.66 Y217.79 E578.97864
G1 X38.89 Y105.02 E593.22828
G1 X38.719 Y105.174 E593.24884
G1 X38.392 Y105.519 E593.29131
G1 X38.297 Y105.624 E593.30397
G1 X38.273 Y105.652 E593.30726
G1 X38.084 Y105.901 E593.33519
G0 F2625 X38.08 Y105.906
G1 F1350 X150.323 Y218.148 E607.51818
G1 X148.985 Y218.506 E607.64193
G1 X37.461 Y106.982 E621.73412
G1 X37.454 Y106.995 E621.73544
G1 X37.28 Y107.446 E621.77864
G1 X37.157 Y107.865 E621.81765
G1 X37.12 Y108.009 E621.83094
G1 X37.108 Y108.054 E621.8351
G1 X37.07 Y108.269 E621.85461
G1 X37.067 Y108.284 E621.85597
G1 X147.648 Y218.865 E635.82901
G1 X146.31 Y219.223 E635.95276
G1 X37.031 Y109.943 E649.76134
G1 X37.041 Y110.035 E649.76961
G1 X37.128 Y110.505 E649.81232
G1 X37.172 Y110.703 E649.83044
G1 X37.566 Y112.174 E649.96651
G1 X144.973 Y219.582 E663.53854
G1 X143.636 Y219.939 E663.66219
G1 X38.187 Y114.491 E676.98668
G1 X38.807 Y116.806 E677.20081
G1 X142.298 Y220.298 E690.27802
G1 X140.961 Y220.656 E690.40169
G1 X39.428 Y119.123 E703.23142
G1 X40.049 Y121.439 E703.44566
G1 X139.624 Y221.015 E716.02804
G1 X138.286 Y221.373 E716.1518
G1 X40.669 Y123.755 E728.48676
G1 X41.29 Y126.072 E728.70109
G1 X136.949 Y221.731 E740.78858
G1 X135.612 Y222.09 E740.91227
G1 X41.91 Y128.388 E752.75248
G1 X42.531 Y130.704 E752.96672
G1 X134.275 Y222.448 E764.55951
G1 X132.937 Y222.806 E764.68327
G1 X43.151 Y133.02 E776.02864
G1 X43.772 Y135.336 E776.24289
G1 X131.647 Y223.211 E787.34679
G1 X131.367 Y223.592 E787.38903
G1 X131.077 Y223.874 E787.42518
G1 X130.804 Y224.064 E787.4549
G1 X44.392 Y137.653 E798.37387
G1 X45.013 Y139.969 E798.58811
G1 X129.561 Y224.517 E809.27161
G1 X128.224 Y224.876 E809.39531
G1 X45.633 Y142.285 E819.83152
G1 X46.254 Y144.601 E820.04577
G1 X126.887 Y225.234 E830.23457
G1 X125.55 Y225.593 E830.35826
G1 X46.874 Y146.917 E840.29977
G1 X47.495 Y149.234 E840.5141
G1 X124.213 Y225.951 E850.20814
G1 X122.876 Y226.31 E850.33183
G1 X48.116 Y151.55 E859.77852
G1 X48.736 Y153.866 E859.99274
G1 X122.486 Y227.616 E869.31181
G1 X122.486 Y228.172 E869.36149
G1 X122.449 Y228.6 E869.39987
G1 X122.352 Y228.993 E869.43604
G1 X122.296 Y229.122 E869.4486
G1 X49.357 Y156.182 E878.66525
G1 X49.977 Y158.498 E878.87947
G1 X121.582 Y230.103 E887.9275
G1 X121.375 Y230.27 E887.95126
G1 X121.022 Y230.465 E887.98729
G1 X120.64 Y230.603 E888.02358
G1 X120.426 Y230.643 E888.04304
G1 X50.598 Y160.815 E896.86651
G1 X51.219 Y163.131 E897.08076
G1 X118.78 Y230.692 E905.61778
G1 X117.084 Y230.692 E905.76932
G1 X51.839 Y165.447 E914.01369
G1 X52.46 Y167.763 E914.22793
G1 X115.389 Y230.692 E922.17965
G1 X115.276 Y230.693 E922.18975
G1 X114.848 Y230.657 E922.22813
G1 X114.455 Y230.559 E922.26432
G1 X114.079 Y230.397 E922.3009
G1 X113.738 Y230.177 E922.33716
G1 X113.431 Y229.9 E922.3741
G1 X112.734 Y229.023 E922.4742
G1 X112.174 Y229.173 E922.526
G1 X53.081 Y170.08 E929.993
G1 X53.701 Y172.396 E930.20722
G1 X110.836 Y229.531 E937.42681
G1 X109.5 Y229.891 E937.55044
G1 X54.322 Y174.712 E944.5228
G1 X54.942 Y177.028 E944.73703
G1 X108.164 Y230.25 E951.46217
G1 X106.826 Y230.608 E951.58592
G1 X55.563 Y179.344 E958.06359
G1 X56.183 Y181.661 E958.2779
G1 X105.49 Y230.967 E964.50827
G1 X105.329 Y231.011 E964.52319
G1 X104.904 Y231.088 E964.56178
G1 X104.499 Y231.095 E964.59797
G1 X104.09 Y231.037 E964.63488
G1 X103.757 Y230.93 E964.66613
G1 X56.804 Y183.977 E970.59912
G1 X57.424 Y186.293 E970.81335
G1 X102.18 Y231.049 E976.46872
G1 X100.843 Y231.407 E976.59239
G1 X58.044 Y188.609 E982.00042
G1 X58.665 Y190.925 E982.21466
G1 X99.506 Y231.766 E987.37534
G1 X98.169 Y232.124 E987.49901
G1 X59.278 Y193.233 E992.41328
G1 X59.312 Y193.368 E992.42572
G1 X59.41 Y193.677 E992.45469
G1 X59.58 Y194.036 E992.49018
G1 X59.773 Y194.311 E992.5202
G1 X60.18 Y195.831 E992.66079
G1 X96.831 Y232.482 E997.29202
G1 X95.494 Y232.841 E997.41571
G1 X60.8 Y198.147 E1001.79965
G1 X61.421 Y200.464 E1002.01398
G1 X94.156 Y233.199 E1006.15038
G1 X92.819 Y233.557 E1006.27405
G1 X62.042 Y202.78 E1010.16304
G1 X62.662 Y205.096 E1010.37726
G1 X91.481 Y233.915 E1014.01884
G1 X90.144 Y234.274 E1014.14253
G1 X63.283 Y207.412 E1017.53675
G1 X63.903 Y209.728 E1017.75097
G1 X88.806 Y234.632 E1020.89779
G1 X87.469 Y234.99 E1021.02146
G1 X64.524 Y212.045 E1023.92079
G1 X65.145 Y214.361 E1024.13503
G1 X86.132 Y235.349 E1026.78702
G1 X84.795 Y235.707 E1026.91069
G1 X65.765 Y216.677 E1029.31532
G1 X66.386 Y218.993 E1029.52957
G1 X83.457 Y236.065 E1031.68673
G1 X82.12 Y236.423 E1031.81039
G1 X67.006 Y221.31 E1033.72014
G1 X67.626 Y223.626 E1033.93436
G1 X80.783 Y236.782 E1035.59682
G1 X79.445 Y237.14 E1035.72057
G1 X68.247 Y225.942 E1037.13556
G1 X68.868 Y228.259 E1037.34989
G1 X78.108 Y237.498 E1038.51739
G1 X76.771 Y237.857 E1038.64108
G1 X69.488 Y230.574 E1039.56137
G1 X70.109 Y232.891 E1039.7757
G1 X75.434 Y238.215 E1040.4485
G1 X75.202 Y238.278 E1040.46998
G1 X74.788 Y238.352 E1040.50756
G1 X74.293 Y238.355 E1040.55179
G1 X74.181 Y238.345 E1040.56184
G1 X73.802 Y238.28 E1040.59619
G1 X70.849 Y235.327 E1040.96934
G0 F2625 X154.334 Y217.073
G1 F1350 X155.672 Y216.715 E1041.09309
G1 X42.403 Y103.446 E1055.40578
G1 X43.74 Y103.088 E1055.52945
G1 X157.009 Y216.356 E1069.84208
G1 X158.346 Y215.998 E1069.96575
G1 X45.078 Y102.729 E1084.27838
G1 X46.415 Y102.371 E1084.40205
G1 X159.683 Y215.639 E1098.71461
G1 X159.86 Y215.593 E1098.73095
G1 X160.103 Y215.514 E1098.75378
G1 X160.48 Y215.332 E1098.79119
G1 X160.827 Y215.089 E1098.82904
G1 X160.827 Y215.088 E1098.82913
G1 X47.753 Y102.013 E1113.11724
G1 X49.09 Y101.655 E1113.24091
G1 X161.602 Y214.167 E1127.45795
G1 X161.613 Y214.147 E1127.45999
G1 X161.865 Y213.641 E1127.5105
G1 X161.955 Y213.436 E1127.5305
