;Generated by Cura LulzBot Edition GCodeWriter Version: 2.6.69
;FLAVOR:RepRap
;TIME:12226
;Filament used: 12.1712m
;Layer height: 0.38
;Generated with Cura_SteamEngine 2.6.69
;This G-Code has been generated specifically for the LulzBot TAZ 6 with standard extruder
G26 ; clear potential 'probe fail' condition
G21 ; set units to Millimetres
M107 ; disable fans
G90 ; absolute positioning
M82 ; set extruder to absolute mode
G92 E0 ; set extruder position to 0
M140 S110 ; start bed heating up
G28 XY ; home X and Y
G1 X-19 Y258 F1000 ; move to safe homing position
M109 R175 ; soften filament before homing Z
G28 Z ; home Z
G1 E-30 F100 ; retract filament
M109 R170 ; wait for extruder to reach wiping temp
G1 X-15 Y100 F3000 ; move above wiper pad
G1 Z1 ; push nozzle into wiper
G1 X-17 Y95 F1000 ; slow wipe
G1 X-17 Y90 F1000 ; slow wipe
G1 X-17 Y85 F1000 ; slow wipe
G1 X-15 Y90 F1000 ; slow wipe
G1 X-17 Y80 F1000 ; slow wipe
G1 X-15 Y95 F1000 ; slow wipe
G1 X-17 Y75 F2000 ; fast wipe
G1 X-15 Y65 F2000 ; fast wipe
G1 X-17 Y70 F2000 ; fast wipe
G1 X-15 Y60 F2000 ; fast wipe
G1 X-17 Y55 F2000 ; fast wipe
G1 X-15 Y50 F2000 ; fast wipe
G1 X-17 Y40 F2000 ; fast wipe
G1 X-15 Y45 F2000 ; fast wipe
G1 X-17 Y35 F2000 ; fast wipe
G1 X-15 Y40 F2000 ; fast wipe
G1 X-17 Y70 F2000 ; fast wipe
G1 X-15 Y30 Z2 F2000 ; fast wipe
G1 X-17 Y35 F2000 ; fast wipe
G1 X-15 Y25 F2000 ; fast wipe
G1 X-17 Y30 F2000 ; fast wipe
G1 X-15 Y25 Z1.5 F1000 ; slow wipe
G1 X-17 Y23 F1000 ; slow wipe
G1 Z10 ; raise extruder
M109 R170 ; wait for extruder to reach probe temp
G1 X-9 Y-9 ; move above first probe point
M204 S100 ; set probing acceleration
G29 ; start auto-leveling sequence
M204 S500 ; restore standard acceleration
G1 X0 Y0 Z15 F5000 ; move up off last probe point
G4 S1 ; pause
M400 ; wait for moves to finish
M117 Heating... ; progress indicator message on LCD
M109 R240 ; wait for extruder to reach printing temp
M190 S110 ; wait for bed to reach printing temp
G1 Z2 E0 F75 ; prime tiny bit of filament into the nozzle
M117 TAZ 6 Printing... ; progress indicator message on LCD

M221 S100
;LAYER_COUNT:90
;LAYER:-5
M107
G0 F2625 X42.737 Y80.243 Z0.51
G1 F1350 X43.097 Y80.056 E0.03243
G1 X43.429 Y79.943 E0.06047
G1 X157.726 Y49.315 E9.52031
G1 X157.946 Y49.268 E9.53829
G1 X157.977 Y49.263 E9.5408
G1 X157.995 Y49.259 E9.54228
G1 X158.624 Y49.167 E9.5931
G1 X158.715 Y49.161 E9.60039
G1 X159.057 Y49.152 E9.62774
G1 X159.273 Y49.156 E9.64501
G1 X159.276 Y49.156 E9.64525
G1 X159.49 Y49.176 E9.66243
G1 X159.797 Y49.215 E9.68717
G1 X160.108 Y49.272 E9.71245
G1 X160.256 Y49.312 E9.72471
G1 X160.561 Y49.404 E9.75017
G1 X160.731 Y49.46 E9.76448
G1 X161.004 Y49.574 E9.78813
G1 X161.251 Y49.693 E9.81005
G1 X161.251 Y49.694 E9.81013
G1 X161.418 Y49.78 E9.82515
G1 X161.429 Y49.786 E9.82615
G1 X161.659 Y49.928 E9.84776
G1 X161.957 Y50.134 E9.87672
G1 X162.017 Y50.177 E9.88262
G1 X162.026 Y50.184 E9.88354
G1 X162.282 Y50.399 E9.91026
G1 X162.527 Y50.633 E9.93735
G1 X162.658 Y50.768 E9.95238
G1 X162.678 Y50.791 E9.95482
G1 X162.796 Y50.933 E9.96958
G1 X162.998 Y51.194 E9.99597
G1 X163.157 Y51.425 E10.01839
G1 X163.178 Y51.458 E10.02151
G1 X163.234 Y51.554 E10.0304
G1 X163.233 Y51.554 E10.03048
G1 X163.409 Y51.876 E10.05981
G1 X163.49 Y52.038 E10.07429
G1 X163.507 Y52.075 E10.07755
G1 X163.509 Y52.08 E10.07798
G1 X163.581 Y52.263 E10.0937
G1 X163.706 Y52.62 E10.12394
G1 X163.761 Y52.79 E10.13822
G1 X181.623 Y119.444 E15.65489
G1 X181.708 Y119.906 E15.69244
G1 X181.732 Y120.055 E15.70451
G1 X181.733 Y120.055 E15.70459
G1 X181.735 Y120.07 E15.7058
G1 X181.757 Y120.379 E15.73056
G1 X181.763 Y120.692 E15.75559
G1 X181.756 Y120.975 E15.77822
G1 X181.743 Y121.099 E15.78819
G1 X181.697 Y121.457 E15.81704
G1 X181.661 Y121.671 E15.83439
G1 X181.614 Y121.857 E15.84973
G1 X181.508 Y122.218 E15.87981
G1 X181.445 Y122.406 E15.89566
G1 X181.358 Y122.608 E15.91324
G1 X181.202 Y122.933 E15.94206
G1 X181.186 Y122.966 E15.94499
G1 X180.983 Y123.311 E15.977
G1 X180.819 Y123.549 E16.0001
G1 X180.596 Y123.833 E16.02897
G1 X180.542 Y123.892 E16.03536
G1 X180.307 Y124.142 E16.06279
G1 X180.029 Y124.399 E16.09306
G1 X180.017 Y124.409 E16.09431
G1 X179.989 Y124.43 E16.09711
G1 X179.716 Y124.639 E16.12459
G1 X179.648 Y124.69 E16.13139
G1 X179.634 Y124.701 E16.13281
G1 X179.326 Y124.894 E16.16187
G1 X179.037 Y125.05 E16.18813
G1 X178.963 Y125.089 E16.19481
G1 X178.613 Y125.236 E16.22516
G1 X178.184 Y125.384 E16.26144
G1 X63.824 Y156.029 E25.7265
G1 X63.411 Y156.103 E25.76004
G1 X62.993 Y156.111 E25.79346
G1 X62.603 Y156.053 E25.82498
G1 X62.197 Y155.924 E25.85904
G1 X61.905 Y155.78 E25.88507
G1 X61.607 Y155.609 E25.91254
G1 X61.259 Y155.37 E25.94629
G1 X60.965 Y155.088 E25.97885
G1 X60.723 Y154.764 E26.01118
G1 X60.532 Y154.395 E26.0444
G1 X60.417 Y154.062 E26.07257
G1 X60.26 Y153.473 E26.1213
G1 X60.183 Y153.057 E26.15512
G1 X60.173 Y152.378 E26.20941
G1 X42.074 Y84.83 E31.80001
G1 X41.881 Y84.554 E31.82693
G1 X41.708 Y84.187 E31.85937
G1 X41.622 Y83.922 E31.88164
G1 X41.469 Y83.343 E31.92952
G1 X41.394 Y82.926 E31.96339
G1 X41.389 Y82.513 E31.99641
G1 X41.448 Y82.116 E32.0285
G1 X41.578 Y81.715 E32.0622
G1 X41.713 Y81.438 E32.08683
G1 X41.884 Y81.14 E32.1143
G1 X42.127 Y80.784 E32.14876
G1 X42.41 Y80.489 E32.18144
G1 X42.737 Y80.243 E32.21415
G0 F2625 X42 Y80.97
G1 F1350 X42 Y84.724 E32.51427
G0 F2625 X44 Y79.789
G1 F1350 X44 Y92.018 E33.49191
G0 F2625 X46 Y99.482
G1 F1350 X46 Y79.254 E35.10904
G0 F2625 X48 Y78.718
G1 F1350 X48 Y106.946 E37.36572
G0 F2625 X50 Y114.41
G1 F1350 X50 Y78.182 E40.26196
G0 F2625 X52 Y77.646
G1 F1350 X52 Y121.875 E43.79784
G0 F2625 X54 Y129.339
G1 F1350 X54 Y77.11 E47.97329
G0 F2625 X56 Y76.574
G1 F1350 X56 Y136.803 E52.78828
G0 F2625 X58 Y144.268
G1 F1350 X58 Y76.038 E58.24292
G0 F2625 X60 Y75.502
G1 F1350 X60 Y151.732 E64.33712
G0 F2625 X62 Y155.826
G1 F1350 X62 Y74.966 E70.80146
G0 F2625 X64 Y74.43
G1 F1350 X64 Y155.982 E77.32113
G0 F2625 X66 Y155.446
G1 F1350 X66 Y73.894 E83.84079
G0 F2625 X68 Y73.358
G1 F1350 X68 Y154.91 E90.36045
G0 F2625 X70 Y154.375
G1 F1350 X70 Y72.822 E96.8802
G0 F2625 X72 Y72.286
G1 F1350 X72 Y153.839 E103.39994
G0 F2625 X74 Y153.303
G1 F1350 X74 Y71.75 E109.91968
G0 F2625 X76 Y71.214
G1 F1350 X76 Y152.767 E116.43943
G0 F2625 X78 Y152.231
G1 F1350 X78 Y70.679 E122.95909
G0 F2625 X80 Y70.143
G1 F1350 X80 Y151.695 E129.47875
G0 F2625 X82 Y151.159
G1 F1350 X82 Y69.607 E135.99842
G0 F2625 X84 Y69.071
G1 F1350 X84 Y150.623 E142.51808
G0 F2625 X86 Y150.087
G1 F1350 X86 Y68.535 E149.03775
G0 F2625 X88 Y67.999
G1 F1350 X88 Y149.551 E155.55741
G0 F2625 X90 Y149.015
G1 F1350 X90 Y67.463 E162.07707
G0 F2625 X92 Y66.927
G1 F1350 X92 Y148.479 E168.59674
G0 F2625 X94 Y147.943
G1 F1350 X94 Y66.391 E175.1164
G0 F2625 X96 Y65.855
G1 F1350 X96 Y147.407 E181.63606
G0 F2625 X98 Y146.871
G1 F1350 X98 Y65.319 E188.15573
G0 F2625 X100 Y64.783
G1 F1350 X100 Y146.335 E194.67539
G0 F2625 X102 Y145.799
G1 F1350 X102 Y64.247 E201.19505
G0 F2625 X104 Y63.711
G1 F1350 X104 Y145.264 E207.7148
G0 F2625 X106 Y144.728
G1 F1350 X106 Y63.175 E214.23454
G0 F2625 X108 Y62.64
G1 F1350 X108 Y144.192 E220.75421
G0 F2625 X110 Y143.656
G1 F1350 X110 Y62.104 E227.27387
G0 F2625 X112 Y61.568
G1 F1350 X112 Y143.12 E233.79353
G0 F2625 X114 Y142.584
G1 F1350 X114 Y61.032 E240.3132
G0 F2625 X116 Y60.496
G1 F1350 X116 Y142.048 E246.83286
G0 F2625 X118 Y141.512
G1 F1350 X118 Y59.96 E253.35252
G0 F2625 X120 Y59.424
G1 F1350 X120 Y140.976 E259.87219
G0 F2625 X122 Y140.44
G1 F1350 X122 Y58.888 E266.39185
G0 F2625 X124 Y58.352
G1 F1350 X124 Y139.904 E272.91151
G0 F2625 X126 Y139.368
G1 F1350 X126 Y57.816 E279.43118
G0 F2625 X128 Y57.28
G1 F1350 X128 Y138.832 E285.95084
G0 F2625 X130 Y138.296
G1 F1350 X130 Y56.744 E292.47051
G0 F2625 X132 Y56.208
G1 F1350 X132 Y137.76 E298.99017
G0 F2625 X134 Y137.224
G1 F1350 X134 Y55.672 E305.50983
G0 F2625 X136 Y55.136
G1 F1350 X136 Y136.689 E312.02958
G0 F2625 X138 Y136.153
G1 F1350 X138 Y54.6 E318.54932
G0 F2625 X140 Y54.065
G1 F1350 X140 Y135.617 E325.06898
G0 F2625 X142 Y135.081
G1 F1350 X142 Y53.529 E331.58865
G0 F2625 X144 Y52.993
G1 F1350 X144 Y134.545 E338.10831
G0 F2625 X146 Y134.009
G1 F1350 X146 Y52.457 E344.62797
G0 F2625 X148 Y51.921
G1 F1350 X148 Y133.473 E351.14764
G0 F2625 X150 Y132.937
G1 F1350 X150 Y51.385 E357.6673
G0 F2625 X152 Y50.849
G1 F1350 X152 Y132.401 E364.18697
G0 F2625 X154 Y131.865
G1 F1350 X154 Y50.313 E370.70663
G0 F2625 X156 Y49.777
G1 F1350 X156 Y131.329 E377.22629
G0 F2625 X158 Y130.793
G1 F1350 X158 Y49.258 E383.7446
G0 F2625 X160 Y49.253
G1 F1350 X160 Y130.257 E390.22045
G0 F2625 X162 Y129.721
G1 F1350 X162 Y50.165 E396.58054
G0 F2625 X164 Y53.682
G1 F1350 X164 Y129.185 E402.61662
G0 F2625 X166 Y128.649
G1 F1350 X166 Y61.146 E408.01314
G0 F2625 X168 Y68.609
G1 F1350 X168 Y128.114 E412.77026
G0 F2625 X170 Y127.578
G1 F1350 X170 Y76.072 E416.8879
G0 F2625 X172 Y83.535
G1 F1350 X172 Y127.042 E420.36606
G0 F2625 X174 Y126.506
G1 F1350 X174 Y90.998 E423.20474
G0 F2625 X176 Y98.462
G1 F1350 X176 Y125.97 E425.40387
G0 F2625 X178 Y125.434
M104 S240
G1 F1350 X178 Y105.925 E426.96351
G0 F2625 X180 Y113.388
G1 F1350 X180 Y124.422 E427.84562
G0 F2625 X42.869 Y80.173
;TIME_ELAPSED:251.215596
;LAYER:-4
M140 S110
M221 S100
G0 X42.869 Y80.173 Z1.08
;TYPE:SUPPORT
G1 F1350 X43.097 Y80.055 E427.86856
G1 X43.429 Y79.942 E427.8999
G1 X44.143 Y79.751 E427.96594
G1 X108.458 Y144.067 E436.09285
G1 X109.796 Y143.708 E436.21663
G1 X45.48 Y79.393 E444.34355
G1 X46.817 Y79.034 E444.46724
G1 X111.133 Y143.35 E452.59423
G1 X112.47 Y142.991 E452.71792
G1 X48.155 Y78.676 E460.84477
G1 X49.492 Y78.318 E460.96844
G1 X113.807 Y142.633 E469.0953
G1 X115.145 Y142.275 E469.21905
G1 X50.829 Y77.959 E477.34604
G1 X52.166 Y77.601 E477.46971
G1 X116.482 Y141.917 E485.59669
G1 X117.819 Y141.558 E485.72038
G1 X53.504 Y77.243 E493.84724
G1 X54.841 Y76.885 E493.9709
G1 X119.156 Y141.2 E502.09776
G1 X120.493 Y140.841 E502.22145
G1 X56.178 Y76.526 E510.34831
G1 X57.516 Y76.168 E510.47206
G1 X121.831 Y140.483 E518.59892
G1 X123.168 Y140.125 E518.72259
G1 X58.853 Y75.809 E526.84951
G1 X60.191 Y75.451 E526.97326
G1 X124.505 Y139.766 E535.10006
G1 X125.843 Y139.408 E535.22381
G1 X61.528 Y75.093 E543.35067
G1 X62.865 Y74.734 E543.47436
G1 X127.18 Y139.05 E551.60128
G1 X128.518 Y138.691 E551.72506
G1 X64.202 Y74.376 E559.85197
G1 X65.539 Y74.017 E559.97567
G1 X129.855 Y138.333 E568.10265
G1 X131.192 Y137.974 E568.22634
G1 X66.877 Y73.66 E576.35313
G1 X68.214 Y73.301 E576.47683
G1 X132.529 Y137.616 E584.60368
G1 X133.867 Y137.258 E584.72744
G1 X69.551 Y72.943 E592.85436
G1 X70.888 Y72.584 E592.97805
G1 X135.204 Y136.9 E601.10503
G1 X136.541 Y136.541 E601.22872
G1 X72.226 Y72.226 E609.35558
G1 X73.563 Y71.868 E609.47925
G1 X137.878 Y136.183 E617.6061
G1 X139.215 Y135.824 E617.7298
G1 X74.9 Y71.509 E625.85665
G1 X76.238 Y71.151 E625.98041
G1 X140.553 Y135.466 E634.10726
G1 X141.89 Y135.108 E634.23093
G1 X77.575 Y70.792 E642.35785
G1 X78.913 Y70.434 E642.48161
G1 X143.228 Y134.749 E650.60846
G1 X144.565 Y134.391 E650.73213
G1 X80.25 Y70.076 E658.85899
G1 X81.587 Y69.717 E658.98268
G1 X145.902 Y134.033 E667.1096
G1 X147.24 Y133.675 E667.23335
G1 X82.924 Y69.359 E675.36033
G1 X84.262 Y69.001 E675.48409
G1 X148.577 Y133.316 E683.61095
G1 X149.914 Y132.957 E683.73464
G1 X85.599 Y68.643 E691.86143
G1 X86.936 Y68.284 E691.98512
G1 X151.251 Y132.599 E700.11198
G1 X152.589 Y132.241 E700.23573
G1 X88.273 Y67.926 E708.36265
G1 X89.61 Y67.567 E708.48635
G1 X153.926 Y131.883 E716.61333
G1 X155.263 Y131.524 E716.73702
G1 X90.948 Y67.209 E724.86388
G1 X92.285 Y66.851 E724.98754
G1 X156.6 Y131.166 E733.1144
G1 X157.937 Y130.807 E733.23809
G1 X93.623 Y66.492 E741.36489
G1 X94.96 Y66.134 E741.48855
G1 X159.275 Y130.449 E749.61541
G1 X160.612 Y130.091 E749.73908
G1 X96.297 Y65.775 E757.866
G1 X97.635 Y65.417 E757.98975
G1 X161.95 Y129.732 E766.11661
G1 X163.287 Y129.374 E766.24028
G1 X98.972 Y65.059 E774.36713
G1 X100.309 Y64.7 E774.49083
G1 X164.625 Y129.016 E782.61781
G1 X165.962 Y128.658 E782.74148
G1 X101.646 Y64.342 E790.86846
G1 X102.984 Y63.984 E790.99222
G1 X167.299 Y128.299 E799.11907
G1 X168.636 Y127.941 E799.24274
G1 X104.321 Y63.626 E807.3696
G1 X105.658 Y63.267 E807.49329
G1 X169.973 Y127.582 E815.62014
G1 X171.311 Y127.224 E815.7439
G1 X106.995 Y62.909 E823.87082
G1 X108.333 Y62.55 E823.9946
G1 X172.648 Y126.866 E832.12151
G1 X173.985 Y126.507 E832.24521
G1 X109.67 Y62.192 E840.37206
G1 X111.007 Y61.834 E840.49573
G1 X175.322 Y126.149 E848.62259
G1 X176.66 Y125.79 E848.74637
G1 X112.345 Y61.475 E856.87322
G1 X113.682 Y61.117 E856.99689
G1 X177.997 Y125.432 E865.12375
G1 X178.183 Y125.383 E865.14093
G1 X178.612 Y125.235 E865.18148
G1 X178.962 Y125.089 E865.21537
G1 X179.035 Y125.049 E865.2228
G1 X179.214 Y124.953 E865.24095
G1 X115.02 Y60.759 E873.35252
G1 X116.357 Y60.401 E873.47619
G1 X180.197 Y124.241 E881.54302
G1 X180.305 Y124.141 E881.55617
G1 X180.541 Y123.892 E881.58683
G1 X180.595 Y123.832 E881.59404
G1 X180.818 Y123.548 E881.6263
G1 X180.974 Y123.322 E881.65084
G1 X117.694 Y60.042 E889.64691
G1 X119.031 Y59.684 E889.77058
G1 X181.52 Y122.173 E897.6667
G1 X181.613 Y121.857 E897.69613
G1 X181.66 Y121.671 E897.71328
G1 X181.696 Y121.456 E897.73275
G1 X181.741 Y121.099 E897.7649
G1 X181.755 Y120.975 E897.77605
G1 X181.761 Y120.718 E897.79902
G1 X120.368 Y59.325 E905.55665
G1 X121.706 Y58.967 E905.68041
G1 X181.418 Y118.679 E913.22563
G1 X180.797 Y116.362 E913.43996
G1 X123.043 Y58.609 E920.7377
G1 X124.38 Y58.25 E920.8614
G1 X180.176 Y114.046 E927.91179
G1 X179.555 Y111.729 E928.12612
G1 X125.717 Y57.892 E934.92904
G1 X127.055 Y57.534 E935.05279
G1 X178.934 Y109.413 E941.60823
G1 X178.313 Y107.096 E941.82256
G1 X128.392 Y57.175 E948.13059
G1 X129.73 Y56.817 E948.25434
G1 X177.693 Y104.78 E954.31496
G1 X177.072 Y102.464 E954.5292
G1 X131.067 Y56.458 E960.34247
G1 X132.404 Y56.1 E960.46614
G1 X176.451 Y100.147 E966.03192
G1 X175.831 Y97.831 E966.24614
G1 X133.742 Y55.742 E971.56452
G1 X135.079 Y55.384 E971.68819
G1 X175.21 Y95.515 E976.75915
G1 X174.589 Y93.198 E976.97348
G1 X136.416 Y55.025 E981.79703
G1 X137.753 Y54.667 E981.9207
G1 X173.968 Y90.882 E986.49683
G1 X173.347 Y88.565 E986.71116
G1 X139.09 Y54.308 E991.03988
G1 X140.428 Y53.95 E991.16364
G1 X172.727 Y86.249 E995.24495
G1 X172.106 Y83.932 E995.45928
G1 X141.765 Y53.592 E999.29311
G1 X143.102 Y53.233 E999.4168
G1 X171.485 Y81.616 E1003.00328
G1 X170.864 Y79.299 E1003.21761
G1 X144.439 Y52.875 E1006.55662
G1 X145.777 Y52.517 E1006.68037
G1 X170.244 Y76.984 E1009.77203
G1 X169.623 Y74.667 E1009.98636
G1 X147.114 Y52.159 E1012.83054
G1 X148.452 Y51.8 E1012.95432
G1 X169.002 Y72.351 E1015.55108
G1 X168.381 Y70.034 E1015.76541
G1 X149.789 Y51.442 E1018.1147
G1 X151.126 Y51.083 E1018.23839
G1 X167.761 Y67.718 E1020.3404
G1 X167.14 Y65.401 E1020.55473
G1 X152.464 Y50.725 E1022.40919
G1 X153.801 Y50.367 E1022.53286
G1 X166.519 Y63.085 E1024.13991
G1 X165.898 Y60.768 E1024.35424
G1 X155.138 Y50.008 E1025.71387
G1 X156.475 Y49.65 E1025.83754
G1 X165.278 Y58.452 E1026.94983
G1 X164.657 Y56.136 E1027.16407
G1 X157.817 Y49.295 E1028.02844
G0 F2625 X159.055 Y49.151
G1 F1350 X159.272 Y49.155 E1028.04783
G1 X159.275 Y49.155 E1028.0481
G1 X159.383 Y49.166 E1028.0578
G1 X164.036 Y53.82 E1028.64582
G0 F2625 X107.121 Y144.425
G1 F1350 X105.783 Y144.783 E1028.76957
G1 X41.987 Y80.987 E1036.83085
G1 X41.884 Y81.139 E1036.84725
G1 X41.712 Y81.436 E1036.87792
G1 X41.577 Y81.714 E1036.90553
G1 X41.447 Y82.114 E1036.94311
G1 X41.443 Y82.138 E1036.94529
G1 X104.446 Y145.142 E1044.90642
G1 X103.109 Y145.5 E1045.03009
G1 X41.665 Y84.056 E1052.79417
G1 X41.707 Y84.186 E1052.80637
G1 X41.881 Y84.553 E1052.84266
G1 X42.073 Y84.829 E1052.8727
G1 X42.56 Y86.646 E1053.04078
G1 X101.771 Y145.858 E1060.52276
G1 X100.434 Y146.216 E1060.64643
G1 X43.18 Y88.963 E1067.88099
G1 X43.801 Y91.279 E1068.09524
G1 X99.097 Y146.575 E1075.08245
G1 X97.76 Y146.933 E1075.20612
G1 X44.422 Y93.596 E1081.94585
G1 X45.042 Y95.911 E1082.15999
G1 X96.423 Y147.292 E1088.6525
G1 X95.085 Y147.65 E1088.77626
G1 X45.663 Y98.228 E1095.02123
