;Generated by Cura LulzBot Edition GCodeWriter Version: 2.6.69
;FLAVOR:RepRap
;TIME:5894
;Filament used: 4.21853m
;Layer height: 0.38
;Generated with Cura_SteamEngine 2.6.69
;This G-Code has been generated specifically for the LulzBot TAZ 6 with standard extruder
G26 ; clear potential 'probe fail' condition
G21 ; set units to Millimetres
M107 ; disable fans
G90 ; absolute positioning
M82 ; set extruder to absolute mode
G92 E0 ; set extruder position to 0
M140 S110 ; start bed heating up
G28 XY ; home X and Y
G1 X-19 Y258 F1000 ; move to safe homing position
M109 R175 ; soften filament before homing Z
G28 Z ; home Z
G1 E-30 F100 ; retract filament
M109 R170 ; wait for extruder to reach wiping temp
G1 X-15 Y100 F3000 ; move above wiper pad
G1 Z1 ; push nozzle into wiper
G1 X-17 Y95 F1000 ; slow wipe
G1 X-17 Y90 F1000 ; slow wipe
G1 X-17 Y85 F1000 ; slow wipe
G1 X-15 Y90 F1000 ; slow wipe
G1 X-17 Y80 F1000 ; slow wipe
G1 X-15 Y95 F1000 ; slow wipe
G1 X-17 Y75 F2000 ; fast wipe
G1 X-15 Y65 F2000 ; fast wipe
G1 X-17 Y70 F2000 ; fast wipe
G1 X-15 Y60 F2000 ; fast wipe
G1 X-17 Y55 F2000 ; fast wipe
G1 X-15 Y50 F2000 ; fast wipe
G1 X-17 Y40 F2000 ; fast wipe
G1 X-15 Y45 F2000 ; fast wipe
G1 X-17 Y35 F2000 ; fast wipe
G1 X-15 Y40 F2000 ; fast wipe
G1 X-17 Y70 F2000 ; fast wipe
G1 X-15 Y30 Z2 F2000 ; fast wipe
G1 X-17 Y35 F2000 ; fast wipe
G1 X-15 Y25 F2000 ; fast wipe
G1 X-17 Y30 F2000 ; fast wipe
G1 X-15 Y25 Z1.5 F1000 ; slow wipe
G1 X-17 Y23 F1000 ; slow wipe
G1 Z10 ; raise extruder
M109 R170 ; wait for extruder to reach probe temp
G1 X-9 Y-9 ; move above first probe point
M204 S100 ; set probing acceleration
G29 ; start auto-leveling sequence
M204 S500 ; restore standard acceleration
G1 X0 Y0 Z15 F5000 ; move up off last probe point
G4 S1 ; pause
M400 ; wait for moves to finish
M117 Heating... ; progress indicator message on LCD
M109 R240 ; wait for extruder to reach printing temp
M190 S110 ; wait for bed to reach printing temp
G1 Z2 E0 F75 ; prime tiny bit of filament into the nozzle
M117 TAZ 6 Printing... ; progress indicator message on LCD

M221 S100
;LAYER_COUNT:75
;LAYER:-5
M107
G0 F2625 X87.814 Y161.718 Z0.51
G1 F1350 X88.75 Y161.227 E0.0845
G1 X89.736 Y160.8 E0.1704
G1 X90.715 Y160.46 E0.25325
G1 X91.25 Y160.305 E0.29778
G1 X169.743 Y139.274 E6.79423
G1 X170.795 Y139.032 E6.88053
G1 X171.821 Y138.875 E6.96351
G1 X172.879 Y138.792 E7.04835
G1 X173.938 Y138.785 E7.13301
G1 X175.007 Y138.857 E7.21867
G1 X176.036 Y139.002 E7.30174
G1 X177.093 Y139.23 E7.38819
G1 X178.096 Y139.525 E7.47177
G1 X179.092 Y139.899 E7.55682
G1 X180.045 Y140.338 E7.64071
G1 X180.979 Y140.854 E7.72601
G1 X181.871 Y141.436 E7.81116
G1 X182.705 Y142.073 E7.89506
G1 X183.498 Y142.774 E7.97967
G1 X184.243 Y143.536 E8.06487
G1 X184.916 Y144.333 E8.14826
G1 X185.543 Y145.198 E8.23367
G1 X186.099 Y146.099 E8.31831
G1 X186.59 Y147.035 E8.40281
G1 X187.017 Y148.021 E8.48871
G1 X187.357 Y149 E8.57156
G1 X187.512 Y149.535 E8.61609
G1 X199.009 Y192.443 E12.16737
G1 X199.253 Y193.504 E12.2544
G1 X199.41 Y194.531 E12.33746
G1 X199.493 Y195.589 E12.4223
G1 X199.5 Y196.648 E12.50696
G1 X199.428 Y197.717 E12.59262
G1 X199.283 Y198.746 E12.6757
G1 X199.055 Y199.803 E12.76214
G1 X198.76 Y200.806 E12.84572
G1 X198.386 Y201.802 E12.93078
G1 X197.947 Y202.755 E13.01466
G1 X197.431 Y203.689 E13.09996
G1 X196.849 Y204.581 E13.18511
G1 X196.212 Y205.415 E13.26901
G1 X195.511 Y206.208 E13.35362
G1 X194.749 Y206.954 E13.43887
G1 X193.953 Y207.626 E13.52216
G1 X193.087 Y208.253 E13.60763
G1 X192.186 Y208.809 E13.69227
G1 X191.25 Y209.3 E13.77677
G1 X190.264 Y209.727 E13.86267
G1 X189.285 Y210.067 E13.94552
G1 X188.75 Y210.222 E13.99005
G1 X110.259 Y231.253 E20.48635
G1 X109.205 Y231.496 E20.57282
G1 X108.179 Y231.653 E20.6558
G1 X107.121 Y231.736 E20.74064
G1 X106.062 Y231.743 E20.8253
G1 X104.993 Y231.671 E20.91096
G1 X103.964 Y231.526 E20.99403
G1 X102.907 Y231.298 E21.08048
G1 X101.904 Y231.003 E21.16406
G1 X100.908 Y230.629 E21.24911
G1 X99.955 Y230.19 E21.33299
G1 X99.018 Y229.672 E21.41859
G1 X98.144 Y229.101 E21.50205
G1 X97.284 Y228.446 E21.58847
G1 X96.502 Y227.754 E21.67195
G1 X95.757 Y226.991 E21.7572
G1 X95.088 Y226.199 E21.84009
G1 X94.447 Y225.317 E21.92725
G1 X93.904 Y224.439 E22.00978
G1 X93.409 Y223.489 E22.09542
G1 X92.988 Y222.515 E22.18025
G1 X92.638 Y221.514 E22.26503
G1 X92.485 Y220.983 E22.3092
G1 X80.987 Y178.068 E25.86104
G1 X80.748 Y177.027 E25.94643
G1 X80.59 Y175.994 E26.02997
G1 X80.507 Y174.938 E26.11466
G1 X80.5 Y173.879 E26.19932
G1 X80.572 Y172.808 E26.28513
G1 X80.716 Y171.785 E26.36772
G1 X80.945 Y170.722 E26.45465
G1 X81.24 Y169.721 E26.53808
G1 X81.614 Y168.725 E26.62314
G1 X82.053 Y167.772 E26.70702
G1 X82.569 Y166.838 E26.79232
G1 X83.151 Y165.946 E26.87747
G1 X83.788 Y165.112 E26.96137
G1 X84.489 Y164.319 E27.04598
G1 X85.251 Y163.573 E27.13124
G1 X86.047 Y162.901 E27.21452
G1 X86.913 Y162.274 E27.29999
G1 X87.814 Y161.718 E27.38463
G0 F2625 X88 Y161.62
G1 F1350 X88 Y204.243 E30.79212
G0 F2625 X86 Y196.778
G1 F1350 X86 Y162.94 E33.49729
G0 F2625 X84 Y164.872
G1 F1350 X84 Y189.313 E35.45123
G0 F2625 X82 Y181.848
G1 F1350 X82 Y167.887 E36.56734
G0 F2625 X90 Y160.708
G1 F1350 X90 Y211.708 E40.64453
G0 F2625 X92 Y219.172
G1 F1350 X92 Y160.104 E45.36671
G0 F2625 X94 Y159.568
G1 F1350 X94 Y224.594 E50.5652
G0 F2625 X96 Y227.239
G1 F1350 X96 Y159.032 E56.018
G0 F2625 X98 Y158.496
G1 F1350 X98 Y228.991 E61.65372
G0 F2625 X100 Y230.21
G1 F1350 X100 Y157.96 E67.42973
G0 F2625 X102 Y157.424
G1 F1350 X102 Y231.031 E73.31423
G0 F2625 X104 Y231.531
G1 F1350 X104 Y156.888 E79.28156
G0 F2625 X106 Y156.352
G1 F1350 X106 Y231.738 E85.30828
G0 F2625 X108 Y231.668
G1 F1350 X108 Y155.817 E91.37218
G0 F2625 X110 Y155.281
G1 F1350 X110 Y231.313 E97.45055
G0 F2625 X112 Y230.787
G1 F1350 X112 Y154.745 E103.52972
G0 F2625 X114 Y154.209
G1 F1350 X114 Y230.251 E109.60888
G0 F2625 X116 Y229.715
G1 F1350 X116 Y153.673 E115.68805
G0 F2625 X118 Y153.137
G1 F1350 X118 Y229.179 E121.76722
G0 F2625 X120 Y228.643
G1 F1350 X120 Y152.601 E127.84639
G0 F2625 X122 Y152.066
G1 F1350 X122 Y228.108 E133.92555
G0 F2625 X124 Y227.572
G1 F1350 X124 Y151.53 E140.00472
G0 F2625 X126 Y150.994
G1 F1350 X126 Y227.036 E146.08389
G0 F2625 X128 Y226.5
G1 F1350 X128 Y150.458 E152.16306
G0 F2625 X130 Y149.922
G1 F1350 X130 Y225.964 E158.24222
G0 F2625 X132 Y225.428
G1 F1350 X132 Y149.386 E164.32139
G0 F2625 X134 Y148.85
G1 F1350 X134 Y224.892 E170.40056
G0 F2625 X136 Y224.356
G1 F1350 X136 Y148.314 E176.47973
G0 F2625 X138 Y147.779
G1 F1350 X138 Y223.821 E182.55889
G0 F2625 X140 Y223.285
G1 F1350 X140 Y147.243 E188.63806
G0 F2625 X142 Y146.707
G1 F1350 X142 Y222.749 E194.71723
G0 F2625 X144 Y222.213
G1 F1350 X144 Y146.171 E200.7964
G0 F2625 X146 Y145.635
G1 F1350 X146 Y221.677 E206.87556
G0 F2625 X148 Y221.141
G1 F1350 X148 Y145.099 E212.95473
G0 F2625 X150 Y144.563
G1 F1350 X150 Y220.605 E219.0339
G0 F2625 X152 Y220.069
G1 F1350 X152 Y144.027 E225.11307
G0 F2625 X154 Y143.492
G1 F1350 X154 Y219.533 E231.19215
G0 F2625 X156 Y218.998
G1 F1350 X156 Y142.956 E237.27132
G0 F2625 X158 Y142.42
G1 F1350 X158 Y218.462 E243.35049
G0 F2625 X160 Y217.926
G1 F1350 X160 Y141.884 E249.42965
G0 F2625 X162 Y141.348
G1 F1350 X162 Y217.39 E255.50882
G0 F2625 X164 Y216.854
G1 F1350 X164 Y140.812 E261.58799
G0 F2625 X166 Y140.276
G1 F1350 X166 Y216.318 E267.66716
G0 F2625 X168 Y215.782
G1 F1350 X168 Y139.741 E273.74624
G0 F2625 X170 Y139.214
G1 F1350 X170 Y215.246 E279.82461
G0 F2625 X172 Y214.711
G1 F1350 X172 Y138.86 E285.88851
G0 F2625 X174 Y138.79
G1 F1350 X174 Y214.175 E291.91515
G0 F2625 X176 Y213.639
G1 F1350 X176 Y138.997 E297.8824
G0 F2625 X178 Y139.497
G1 F1350 X178 Y213.103 E303.76682
G0 F2625 X180 Y212.567
G1 F1350 X180 Y140.318 E309.54276
G0 F2625 X182 Y141.535
G1 F1350 X182 Y212.031 E315.17855
G0 F2625 X184 Y211.495
G1 F1350 X184 Y143.288 E320.63135
G0 F2625 X186 Y145.939
G1 F1350 X186 Y210.959 E325.82937
G0 F2625 X188 Y210.423
G1 F1350 X188 Y151.357 E330.55139
G0 F2625 X190 Y158.821
G1 F1350 X190 Y209.819 E334.62842
G0 F2625 X192 Y208.907
G1 F1350 X192 Y166.285 E338.03583
G0 F2625 X194 Y173.749
G1 F1350 X194 Y207.587 E340.741
G0 F2625 X196 Y205.655
M104 S240
G1 F1350 X196 Y181.214 E342.69493
G0 F2625 X198 Y188.678
G1 F1350 X198 Y202.64 E343.81112
G0 F2625 X87.813 Y161.717
;TIME_ELAPSED:204.734070
;LAYER:-4
M140 S110
M221 S100
G0 X87.813 Y161.717 Z1.08
;TYPE:SUPPORT
G1 F1350 X87.378 Y161.986 E343.85682
G1 X146.841 Y221.449 E351.37058
G1 X145.504 Y221.808 E351.49427
G1 X86.366 Y162.669 E358.96702
G1 X86.047 Y162.899 E359.00216
G1 X85.426 Y163.425 E359.07488
G1 X144.167 Y222.166 E366.4974
G1 X142.829 Y222.524 E366.62116
G1 X84.557 Y164.252 E373.98442
G1 X84.488 Y164.318 E373.99295
G1 X83.787 Y165.11 E374.08745
G1 X83.758 Y165.149 E374.09179
G1 X141.492 Y222.882 E381.38701
G1 X140.154 Y223.241 E381.51079
G1 X83.035 Y166.122 E388.72836
G1 X82.568 Y166.837 E388.80466
G1 X82.385 Y167.167 E388.83838
G1 X138.817 Y223.599 E395.96913
G1 X137.479 Y223.957 E396.09289
G1 X81.812 Y168.29 E403.12698
G1 X81.614 Y168.724 E403.16961
G1 X81.323 Y169.497 E403.24341
G1 X136.142 Y224.316 E410.17034
G1 X134.805 Y224.674 E410.29401
G1 X80.928 Y170.797 E417.10192
G1 X80.716 Y171.784 E417.19212
G1 X80.654 Y172.219 E417.23138
G1 X133.468 Y225.033 E423.90497
G1 X132.13 Y225.39 E424.0287
G1 X80.507 Y173.767 E430.55179
G1 X80.5 Y173.878 E430.56173
G1 X80.506 Y174.936 E430.65626
G1 X80.551 Y175.507 E430.70744
G1 X130.793 Y225.749 E437.05603
G1 X129.456 Y226.107 E437.1797
G1 X80.859 Y177.51 E443.32043
G1 X80.987 Y178.067 E443.37149
G1 X81.45 Y179.797 E443.53151
G1 X128.119 Y226.466 E449.42861
G1 X126.781 Y226.824 E449.55237
G1 X82.071 Y182.113 E455.20199
G1 X82.691 Y184.43 E455.4163
G1 X125.444 Y227.182 E460.81851
G1 X124.107 Y227.541 E460.94221
G1 X83.312 Y186.746 E466.09707
G1 X83.932 Y189.062 E466.31129
G1 X122.77 Y227.899 E471.21881
G1 X121.432 Y228.257 E471.34256
G1 X84.553 Y191.379 E476.00254
G1 X85.173 Y193.694 E476.21667
G1 X120.095 Y228.616 E480.62942
G1 X118.757 Y228.974 E480.75318
G1 X85.794 Y196.011 E484.91839
G1 X86.415 Y198.327 E485.13263
G1 X117.42 Y229.333 E489.05049
G1 X116.082 Y229.69 E489.17423
G1 X87.035 Y200.643 E492.84461
G1 X87.656 Y202.96 E493.05894
G1 X114.745 Y230.049 E496.48191
G1 X113.408 Y230.407 E496.60558
G1 X88.276 Y205.275 E499.78127
G1 X88.897 Y207.592 E499.9956
G1 X112.071 Y230.766 E502.92387
G1 X110.733 Y231.124 E503.04762
G1 X89.518 Y209.908 E505.72842
G1 X90.138 Y212.224 E505.94264
G1 X109.37 Y231.456 E508.3728
G1 X109.204 Y231.494 E508.38802
G1 X108.178 Y231.652 E508.48077
G1 X107.892 Y231.674 E508.5064
G1 X90.759 Y214.541 E510.67133
G1 X91.38 Y216.857 E510.88557
G1 X106.263 Y231.74 E512.76619
G1 X106.062 Y231.742 E512.78415
G1 X104.993 Y231.67 E512.87988
G1 X104.414 Y231.588 E512.93213
G1 X92 Y219.173 E514.50083
G1 X92.485 Y220.982 E514.66817
G1 X92.634 Y221.503 E514.71659
G1 X102.228 Y231.097 E515.92889
G1 X101.903 Y231.001 E515.95917
G1 X100.908 Y230.628 E516.05412
G1 X99.954 Y230.189 E516.14795
G1 X99.216 Y229.781 E516.22329
G1 X93.951 Y224.516 E516.88858
G0 F2625 X148.178 Y221.091
G1 F1350 X149.516 Y220.733 E517.01234
G1 X89.628 Y160.845 E524.5798
G1 X89.736 Y160.798 E524.59032
G1 X90.714 Y160.459 E524.68281
G1 X90.888 Y160.41 E524.69896
G1 X150.853 Y220.374 E532.27608
G1 X152.19 Y220.016 E532.39975
G1 X92.219 Y160.045 E539.9777
G1 X93.557 Y159.687 E540.10145
G1 X153.527 Y219.657 E547.67927
G1 X154.865 Y219.299 E547.80303
G1 X94.894 Y159.328 E555.38098
G1 X96.231 Y158.97 E555.50465
G1 X156.202 Y218.941 E563.08259
G1 X157.539 Y218.582 E563.20629
G1 X97.568 Y158.611 E570.78423
G1 X98.906 Y158.254 E570.90797
G1 X158.876 Y218.224 E578.48579
G1 X160.214 Y217.866 E578.60954
G1 X100.243 Y157.895 E586.18749
G1 X101.58 Y157.537 E586.31116
G1 X161.551 Y217.508 E593.8891
G1 X162.889 Y217.149 E594.01288
G1 X102.917 Y157.178 E601.59089
G1 X104.255 Y156.82 E601.71465
G1 X164.226 Y216.791 E609.2926
G1 X165.564 Y216.433 E609.41635
G1 X105.592 Y156.462 E616.99436
G1 X106.93 Y156.103 E617.11814
G1 X166.901 Y216.074 E624.69609
G1 X168.238 Y215.716 E624.81976
G1 X108.267 Y155.745 E632.3977
G1 X109.605 Y155.387 E632.52146
G1 X169.575 Y215.357 E640.09928
G1 X170.912 Y214.999 E640.22295
G1 X110.942 Y155.028 E647.80083
G1 X112.279 Y154.67 E647.9245
G1 X172.25 Y214.641 E655.50245
G1 X173.587 Y214.283 E655.62612
G1 X113.617 Y154.312 E663.204
G1 X114.954 Y153.954 E663.32767
G1 X174.924 Y213.924 E670.90549
G1 X176.261 Y213.566 E671.02916
G1 X116.291 Y153.595 E678.60704
G1 X117.629 Y153.237 E678.7308
G1 X177.599 Y213.208 E686.30868
G1 X178.936 Y212.849 E686.43238
G1 X118.966 Y152.879 E694.0102
G1 X120.303 Y152.52 E694.13389
G1 X180.274 Y212.491 E701.71184
G1 X181.611 Y212.132 E701.83553
G1 X121.64 Y152.162 E709.41341
G1 X122.978 Y151.804 E709.53717
G1 X182.949 Y211.774 E717.11505
G1 X184.286 Y211.416 E717.23872
G1 X124.315 Y151.446 E724.8166
G1 X125.652 Y151.087 E724.9403
G1 X185.623 Y211.057 E732.51818
G1 X186.96 Y210.699 E732.64185
G1 X126.99 Y150.729 E740.21967
G1 X128.327 Y150.371 E740.34334
G1 X188.298 Y210.341 E747.92122
G1 X188.75 Y210.22 E747.96303
G1 X189.284 Y210.066 E748.01269
G1 X189.606 Y209.954 E748.04315
G1 X129.664 Y150.012 E755.61743
G1 X131.002 Y149.654 E755.74119
G1 X190.829 Y209.481 E763.30094
G1 X191.249 Y209.299 E763.34184
G1 X191.966 Y208.923 E763.41418
G1 X132.339 Y149.296 E770.94866
G1 X133.677 Y148.937 E771.07243
G1 X193.027 Y208.288 E778.57197
G1 X193.087 Y208.252 E778.57823
G1 X193.953 Y207.625 E778.67376
G1 X194.011 Y207.576 E778.68054
G1 X135.014 Y148.579 E786.13541
G1 X136.351 Y148.22 E786.2591
G1 X194.917 Y206.787 E793.65958
G1 X195.511 Y206.207 E793.73376
G1 X195.756 Y205.93 E793.7668
G1 X137.689 Y147.863 E801.10415
G1 X139.026 Y147.504 E801.22785
G1 X196.526 Y205.004 E808.49356
G1 X196.848 Y204.58 E808.54113
G1 X197.223 Y204.005 E808.60247
G1 X140.363 Y147.146 E815.78724
G1 X141.701 Y146.788 E815.911
G1 X197.847 Y202.934 E823.00562
G1 X197.947 Y202.754 E823.02402
G1 X198.385 Y201.801 E823.11773
G1 X198.392 Y201.784 E823.11937
G1 X143.038 Y146.429 E830.11398
G1 X144.375 Y146.071 E830.23765
G1 X198.839 Y200.535 E837.11973
G1 X199.055 Y199.802 E837.18801
G1 X199.187 Y199.187 E837.24421
G1 X145.712 Y145.712 E844.00132
G1 X147.05 Y145.354 E844.12507
G1 X199.425 Y197.729 E850.74319
G1 X199.426 Y197.716 E850.74435
G1 X199.498 Y196.647 E850.84009
G1 X199.496 Y196.104 E850.8886
G1 X148.387 Y144.996 E857.34668
G1 X149.724 Y144.637 E857.47038
G1 X199.371 Y194.284 E863.74378
G1 X199.252 Y193.504 E863.81428
G1 X199.008 Y192.443 E863.91155
G1 X198.928 Y192.146 E863.93904
G1 X151.062 Y144.28 E869.98739
G1 X152.399 Y143.921 E870.11109
G1 X198.308 Y189.829 E875.91209
G1 X197.687 Y187.513 E876.12634
G1 X153.737 Y143.563 E881.67987
G1 X155.074 Y143.204 E881.80356
G1 X197.067 Y185.197 E887.1098
G1 X196.446 Y182.881 E887.32405
G1 X156.412 Y142.846 E892.38281
G1 X157.749 Y142.488 E892.50648
G1 X195.825 Y180.564 E897.31777
G1 X195.205 Y178.248 E897.532
G1 X159.086 Y142.129 E902.096
G1 X160.423 Y141.771 E902.21967
G1 X194.584 Y175.932 E906.53626
G1 X193.963 Y173.615 E906.75059
G1 X161.761 Y141.413 E910.81964
G1 X163.098 Y141.055 E910.94331
G1 X193.342 Y171.299 E914.76495
G1 X192.722 Y168.983 E914.97917
G1 X164.435 Y140.696 E918.55352
G1 X165.773 Y140.338 E918.67728
G1 X192.101 Y166.667 E922.00415
G1 X191.48 Y164.35 E922.21848
G1 X167.11 Y139.98 E925.29788
G1 X168.447 Y139.621 E925.42157
G1 X190.86 Y162.034 E928.25368
G1 X190.24 Y159.718 E928.4679
G1 X169.786 Y139.264 E931.05248
G1 X170.793 Y139.032 E931.14481
G1 X171.189 Y138.971 E931.18061
G1 X189.619 Y157.401 E933.50943
G1 X188.999 Y155.086 E933.72356
G1 X172.717 Y138.804 E935.78096
G0 F2625 X173.936 Y138.785
G1 F1350 X174.426 Y138.818 E935.82484
G1 X188.378 Y152.769 E937.58775
G1 X187.757 Y150.453 E937.802
G1 X176.381 Y139.077 E939.23947
G1 X177.092 Y139.23 E939.30445
G1 X178.094 Y139.524 E939.39776
G1 X178.783 Y139.783 E939.46352
G1 X187.013 Y148.013 E940.50347
G1 X186.589 Y147.035 E940.59871
G1 X186.098 Y146.098 E940.69323
G1 X185.542 Y145.198 E940.78775
G1 X184.915 Y144.333 E940.88321
G1 X184.303 Y143.608 E940.96798
