;Generated by Cura LulzBot Edition GCodeWriter Version: 2.6.69
;FLAVOR:RepRap
;TIME:14874
;Filament used: 15.9448m
;Layer height: 0.38
;Generated with Cura_SteamEngine 2.6.69
;This G-Code has been generated specifically for the LulzBot TAZ 6 with standard extruder
G26 ; clear potential 'probe fail' condition
G21 ; set units to Millimetres
M107 ; disable fans
G90 ; absolute positioning
M82 ; set extruder to absolute mode
G92 E0 ; set extruder position to 0
M140 S110 ; start bed heating up
G28 XY ; home X and Y
G1 X-19 Y258 F1000 ; move to safe homing position
M109 R175 ; soften filament before homing Z
G28 Z ; home Z
G1 E-30 F100 ; retract filament
M109 R170 ; wait for extruder to reach wiping temp
G1 X-15 Y100 F3000 ; move above wiper pad
G1 Z1 ; push nozzle into wiper
G1 X-17 Y95 F1000 ; slow wipe
G1 X-17 Y90 F1000 ; slow wipe
G1 X-17 Y85 F1000 ; slow wipe
G1 X-15 Y90 F1000 ; slow wipe
G1 X-17 Y80 F1000 ; slow wipe
G1 X-15 Y95 F1000 ; slow wipe
G1 X-17 Y75 F2000 ; fast wipe
G1 X-15 Y65 F2000 ; fast wipe
G1 X-17 Y70 F2000 ; fast wipe
G1 X-15 Y60 F2000 ; fast wipe
G1 X-17 Y55 F2000 ; fast wipe
G1 X-15 Y50 F2000 ; fast wipe
G1 X-17 Y40 F2000 ; fast wipe
G1 X-15 Y45 F2000 ; fast wipe
G1 X-17 Y35 F2000 ; fast wipe
G1 X-15 Y40 F2000 ; fast wipe
G1 X-17 Y70 F2000 ; fast wipe
G1 X-15 Y30 Z2 F2000 ; fast wipe
G1 X-17 Y35 F2000 ; fast wipe
G1 X-15 Y25 F2000 ; fast wipe
G1 X-17 Y30 F2000 ; fast wipe
G1 X-15 Y25 Z1.5 F1000 ; slow wipe
G1 X-17 Y23 F1000 ; slow wipe
G1 Z10 ; raise extruder
M109 R170 ; wait for extruder to reach probe temp
G1 X-9 Y-9 ; move above first probe point
M204 S100 ; set probing acceleration
G29 ; start auto-leveling sequence
M204 S500 ; restore standard acceleration
G1 X0 Y0 Z15 F5000 ; move up off last probe point
G4 S1 ; pause
M400 ; wait for moves to finish
M117 Heating... ; progress indicator message on LCD
M109 R240 ; wait for extruder to reach printing temp
M190 S110 ; wait for bed to reach printing temp
G1 Z2 E0 F75 ; prime tiny bit of filament into the nozzle
M117 TAZ 6 Printing... ; progress indicator message on LCD

M221 S100
;LAYER_COUNT:117
;LAYER:-5
M107
G0 F2625 X42.504 Y53.906 Z0.51
G1 F1350 X42.57 Y53.858 E0.00652
G1 X42.945 Y53.634 E0.04144
G1 X43.435 Y53.448 E0.08335
G1 X113.666 Y34.624 E5.89613
G1 X114.081 Y34.55 E5.92983
G1 X114.579 Y34.547 E5.96965
G1 X114.691 Y34.558 E5.97864
G1 X115.115 Y34.632 E6.01305
G1 X115.579 Y34.801 E6.05253
G1 X115.81 Y34.912 E6.07302
G1 X116.192 Y35.135 E6.10838
G1 X116.663 Y35.466 E6.1544
G1 X117.085 Y35.831 E6.19901
G1 X117.359 Y36.12 E6.23085
G1 X117.423 Y36.192 E6.23855
G1 X117.531 Y36.315 E6.25163
G1 X117.709 Y36.545 E6.27488
G1 X117.857 Y36.755 E6.29542
G1 X117.973 Y36.934 E6.31247
G1 X117.974 Y36.934 E6.31255
G1 X118.075 Y37.099 E6.32802
G1 X118.234 Y37.392 E6.35467
G1 X118.329 Y37.594 E6.37252
G1 X118.378 Y37.708 E6.38244
G1 X118.445 Y37.872 E6.3966
G1 X118.477 Y37.953 E6.40356
G1 X118.497 Y38.007 E6.40817
G1 X118.579 Y38.265 E6.42981
G1 X134.887 Y99.136 E11.46775
G1 X135.026 Y99.612 E11.50739
G1 X135.147 Y100.06 E11.54449
G1 X135.206 Y100.283 E11.56293
G1 X135.285 Y100.709 E11.59757
G1 X135.295 Y101.39 E11.65202
G1 X149.055 Y152.742 E15.90217
G1 X149.129 Y153.155 E15.93571
G1 X149.137 Y153.568 E15.96874
G1 X149.076 Y153.976 E16.00172
G1 X148.952 Y154.365 E16.03436
G1 X148.811 Y154.654 E16.06007
G1 X148.721 Y154.81 E16.07446
G1 X148.479 Y155.162 E16.10861
G1 X148.198 Y155.455 E16.14107
G1 X147.868 Y155.702 E16.17402
G1 X147.507 Y155.889 E16.20652
G1 X147.174 Y156.004 E16.23469
G1 X118.046 Y163.808 E18.64545
G1 X117.49 Y163.907 E18.6906
G1 X117.099 Y164.178 E18.72863
G1 X116.723 Y164.356 E18.76189
G1 X116.474 Y164.437 E18.78282
G1 X105.908 Y167.266 E19.65727
G1 X105.496 Y167.342 E19.69077
G1 X105.088 Y167.348 E19.72339
G1 X104.824 Y167.307 E19.74474
G1 X104.238 Y167.508 E19.79427
G1 X75.11 Y175.313 E22.20505
G1 X74.697 Y175.387 E22.2386
G1 X74.284 Y175.395 E22.27162
G1 X73.876 Y175.334 E22.3046
G1 X73.487 Y175.21 E22.33724
G1 X73.198 Y175.069 E22.36295
G1 X73.042 Y174.979 E22.37735
G1 X72.69 Y174.737 E22.4115
G1 X72.397 Y174.456 E22.44395
G1 X72.15 Y174.126 E22.4769
G1 X71.963 Y173.765 E22.50941
G1 X71.848 Y173.432 E22.53757
G1 X58.06 Y121.973 E26.79657
G1 X57.873 Y121.704 E26.82276
G1 X57.699 Y121.34 E26.85501
G1 X57.607 Y121.055 E26.87895
G1 X57.241 Y119.679 E26.99278
G1 X40.994 Y59.033 E32.01209
G1 X40.964 Y58.908 E32.02236
G1 X40.958 Y58.88 E32.02465
G1 X40.911 Y58.588 E32.0483
G1 X40.889 Y58.391 E32.06415
G1 X40.882 Y58.315 E32.07025
G1 X40.867 Y58.136 E32.08461
G1 X40.867 Y58.129 E32.08517
G1 X40.846 Y57.81 E32.11072
G1 X40.878 Y57.167 E32.16219
G1 X40.958 Y56.7 E32.20007
G1 X41.012 Y56.456 E32.22005
G1 X41.065 Y56.258 E32.23644
G1 X41.129 Y56.05 E32.25383
G1 X41.223 Y55.788 E32.27609
G1 X41.301 Y55.597 E32.29258
G1 X41.513 Y55.14 E32.33285
G1 X41.72 Y54.772 E32.36661
G1 X41.854 Y54.574 E32.38572
G1 X42.113 Y54.249 E32.41895
G1 X42.504 Y53.906 E32.46053
G0 F2625 X42 Y54.39
G1 F1350 X42 Y62.788 E33.1319
G0 F2625 X44 Y70.253
G1 F1350 X44 Y53.296 E34.48753
G0 F2625 X46 Y52.76
G1 F1350 X46 Y77.719 E36.48287
G0 F2625 X48 Y85.184
G1 F1350 X48 Y52.224 E39.11786
G0 F2625 X50 Y51.688
G1 F1350 X50 Y92.65 E42.39256
G0 F2625 X52 Y100.115
G1 F1350 X52 Y51.152 E46.3069
G0 F2625 X54 Y50.616
G1 F1350 X54 Y107.581 E50.86096
G0 F2625 X56 Y115.046
G1 F1350 X56 Y50.08 E56.05466
G0 F2625 X58 Y49.544
G1 F1350 X58 Y121.886 E61.83803
G0 F2625 X60 Y129.213
G1 F1350 X60 Y49.008 E68.25
G0 F2625 X62 Y48.472
G1 F1350 X62 Y136.677 E75.30154
G0 F2625 X64 Y144.142
G1 F1350 X64 Y47.935 E82.9928
G0 F2625 X66 Y47.399
G1 F1350 X66 Y151.606 E91.32361
G0 F2625 X68 Y159.07
G1 F1350 X68 Y46.863 E100.29399
G0 F2625 X70 Y46.327
G1 F1350 X70 Y166.534 E109.90392
G0 F2625 X72 Y173.836
G1 F1350 X72 Y45.791 E120.14046
G0 F2625 X74 Y45.255
G1 F1350 X74 Y175.352 E130.54105
G0 F2625 X76 Y175.075
G1 F1350 X76 Y44.719 E140.96234
G0 F2625 X78 Y44.183
G1 F1350 X78 Y174.539 E151.38363
G0 F2625 X80 Y174.003
G1 F1350 X80 Y43.647 E161.80492
G0 F2625 X82 Y43.111
G1 F1350 X82 Y173.467 E172.22622
G0 F2625 X84 Y172.931
G1 F1350 X84 Y42.575 E182.64751
G0 F2625 X86 Y42.039
G1 F1350 X86 Y172.395 E193.0688
G0 F2625 X88 Y171.86
G1 F1350 X88 Y41.503 E203.49017
G0 F2625 X90 Y40.967
G1 F1350 X90 Y171.324 E213.91155
G0 F2625 X92 Y170.788
G1 F1350 X92 Y40.431 E224.33292
G0 F2625 X94 Y39.895
G1 F1350 X94 Y170.252 E234.75429
G0 F2625 X96 Y169.716
G1 F1350 X96 Y39.359 E245.17567
G0 F2625 X98 Y38.822
G1 F1350 X98 Y169.18 E255.59712
G0 F2625 X100 Y168.644
G1 F1350 X100 Y38.286 E266.01857
G0 F2625 X102 Y37.75
G1 F1350 X102 Y168.108 E276.44002
G0 F2625 X104 Y167.572
G1 F1350 X104 Y37.214 E286.86148
G0 F2625 X106 Y36.678
G1 F1350 X106 Y167.242 E297.2994
G0 F2625 X108 Y166.706
G1 F1350 X108 Y36.142 E307.73732
G0 F2625 X110 Y35.606
G1 F1350 X110 Y166.171 E318.17532
G0 F2625 X112 Y165.635
G1 F1350 X112 Y35.07 E328.61332
G0 F2625 X114 Y34.564
G1 F1350 X114 Y165.1 E339.04901
G0 F2625 X116 Y164.564
G1 F1350 X116 Y35.023 E349.40514
G0 F2625 X118 Y36.977
G1 F1350 X118 Y163.817 E359.54535
G0 F2625 X120 Y163.285
G1 F1350 X120 Y43.57 E369.11595
G0 F2625 X122 Y51.035
G1 F1350 X122 Y162.749 E378.04691
G0 F2625 X124 Y162.213
G1 F1350 X124 Y58.5 E386.33823
G0 F2625 X126 Y65.965
G1 F1350 X126 Y161.677 E393.98991
G0 F2625 X128 Y161.142
G1 F1350 X128 Y73.43 E401.00204
G0 F2625 X130 Y80.895
G1 F1350 X130 Y160.606 E407.37452
G0 F2625 X132 Y160.07
G1 F1350 X132 Y88.361 E413.10729
G0 F2625 X134 Y95.826
G1 F1350 X134 Y159.534 E418.20042
G0 F2625 X136 Y158.998
G1 F1350 X136 Y104.022 E422.59547
G0 F2625 X138 Y111.485
G1 F1350 X138 Y158.462 E426.35104
G0 F2625 X140 Y157.927
G1 F1350 X140 Y118.949 E429.46713
G0 F2625 X142 Y126.413
G1 F1350 X142 Y157.391 E431.94366
G0 F2625 X144 Y156.855
G1 F1350 X144 Y133.877 E433.78063
G0 F2625 X146 Y141.341
M104 S240
G1 F1350 X146 Y156.319 E434.97805
G0 F2625 X148 Y155.604
G1 F1350 X148 Y148.805 E435.52159
G0 F2625 X42.255 Y54.124
;TIME_ELAPSED:254.074709
;LAYER:-4
M140 S110
M221 S100
G0 X42.255 Y54.124 Z1.08
;TYPE:SUPPORT
G1 F1350 X42.113 Y54.248 E435.53844
G1 X41.853 Y54.573 E435.57562
G1 X41.72 Y54.771 E435.59694
G1 X41.534 Y55.099 E435.63063
G1 X143.438 Y157.003 E448.50724
G1 X142.1 Y157.361 E448.63099
G1 X41.049 Y56.31 E461.39981
G1 X41.012 Y56.455 E461.41319
G1 X40.957 Y56.699 E461.43553
G1 X40.877 Y57.166 E461.47787
G1 X40.846 Y57.802 E461.53476
G1 X140.763 Y157.72 E474.16036
G1 X139.426 Y158.078 E474.28403
G1 X41.217 Y59.87 E486.69367
G1 X41.838 Y62.186 E486.90791
G1 X138.089 Y158.437 E499.07021
G1 X136.751 Y158.794 E499.19394
G1 X42.458 Y64.502 E511.10876
G1 X43.079 Y66.818 E511.323
G1 X135.414 Y159.153 E522.99047
G1 X134.077 Y159.511 E523.11414
G1 X43.699 Y69.134 E534.53426
G1 X44.32 Y71.451 E534.74859
G1 X132.739 Y159.869 E545.92117
G1 X131.402 Y160.228 E546.04486
G1 X44.94 Y73.766 E556.97021
G1 X45.561 Y76.083 E557.18455
G1 X130.065 Y160.586 E567.86242
G1 X128.727 Y160.944 E567.98618
G1 X46.181 Y78.399 E578.41664
G1 X46.802 Y80.715 E578.63089
G1 X127.39 Y161.303 E588.814
G1 X126.053 Y161.661 E588.93767
G1 X47.422 Y83.031 E598.87344
G1 X48.043 Y85.347 E599.08768
G1 X124.715 Y162.019 E608.77597
G1 X123.378 Y162.377 E608.89964
G1 X48.663 Y87.663 E618.34058
G1 X49.284 Y89.98 E618.55491
G1 X122.04 Y162.736 E627.74837
G1 X120.703 Y163.094 E627.87204
G1 X49.904 Y92.295 E636.81821
G1 X50.525 Y94.612 E637.03255
G1 X119.365 Y163.452 E645.73118
G1 X118.045 Y163.806 E645.85329
G1 X118.027 Y163.809 E645.85492
G1 X51.145 Y96.928 E654.30608
G1 X51.766 Y99.244 E654.52032
G1 X116.826 Y164.304 E662.74132
G1 X116.722 Y164.354 E662.75163
G1 X116.474 Y164.436 E662.77497
G1 X115.517 Y164.691 E662.86346
G1 X52.386 Y101.56 E670.8407
G1 X53.007 Y103.876 E671.05495
G1 X114.18 Y165.05 E678.78484
G1 X112.842 Y165.407 E678.90858
G1 X53.627 Y106.192 E686.39099
G1 X54.248 Y108.509 E686.60533
G1 X111.505 Y165.766 E693.84033
G1 X110.167 Y166.124 E693.96409
G1 X54.868 Y110.824 E700.95174
G1 X55.489 Y113.141 E701.16607
G1 X108.83 Y166.482 E707.90625
G1 X107.492 Y166.84 E708.03001
G1 X56.109 Y115.457 E714.52277
G1 X56.73 Y117.773 E714.73702
G1 X106.155 Y167.198 E720.98237
G1 X105.908 Y167.265 E721.00524
G1 X105.496 Y167.341 E721.04267
G1 X105.088 Y167.347 E721.07913
G1 X104.823 Y167.306 E721.10309
G1 X104.632 Y167.371 E721.12112
G1 X57.349 Y120.088 E727.0958
G1 X57.607 Y121.054 E727.18514
G1 X57.699 Y121.338 E727.21182
G1 X57.873 Y121.703 E727.24794
G1 X58.059 Y121.972 E727.27717
G1 X58.25 Y122.685 E727.34312
G1 X103.318 Y167.753 E733.03792
G1 X101.981 Y168.111 E733.16159
G1 X58.87 Y125 E738.6091
G1 X59.491 Y127.317 E738.82343
G1 X100.643 Y168.469 E744.02341
G1 X99.306 Y168.828 E744.1471
G1 X60.112 Y129.633 E749.09972
G1 X60.733 Y131.95 E749.31406
G1 X97.969 Y169.186 E754.0192
G1 X96.632 Y169.545 E754.1429
G1 X61.353 Y134.266 E758.60076
G1 X61.974 Y136.582 E758.815
G1 X95.294 Y169.902 E763.02532
G1 X93.957 Y170.261 E763.14902
G1 X62.595 Y138.899 E767.11192
G1 X63.216 Y141.215 E767.32617
G1 X92.62 Y170.619 E771.04166
G1 X91.283 Y170.978 E771.16536
G1 X63.836 Y143.531 E774.63356
G1 X64.457 Y145.847 E774.84781
G1 X89.945 Y171.336 E778.06854
G1 X88.608 Y171.694 E778.19221
G1 X65.077 Y148.164 E781.16553
G1 X65.698 Y150.48 E781.37977
G1 X87.271 Y172.053 E784.10574
G1 X85.933 Y172.411 E784.2295
G1 X66.318 Y152.796 E786.70805
G1 X66.939 Y155.113 E786.92238
G1 X84.596 Y172.769 E789.15346
G1 X83.258 Y173.128 E789.27724
G1 X67.56 Y157.429 E791.26091
G1 X68.181 Y159.746 E791.47524
G1 X81.921 Y173.486 E793.21143
G1 X80.584 Y173.845 E793.33512
G1 X68.801 Y162.061 E794.82408
G1 X69.422 Y164.378 E795.03842
G1 X79.246 Y174.202 E796.27978
G1 X77.909 Y174.561 E796.40347
G1 X70.043 Y166.694 E797.39748
G1 X70.664 Y169.011 E797.61181
G1 X76.572 Y174.919 E798.35835
G1 X75.235 Y175.278 E798.48204
G1 X71.284 Y171.327 E798.98129
G1 X71.848 Y173.431 E799.17592
G1 X71.929 Y173.668 E799.1983
G1 X73.455 Y175.194 E799.39113
G0 F2625 X144.775 Y156.645
G1 F1350 X146.113 Y156.286 E799.5149
G1 X43.318 Y53.491 E812.5041
G1 X43.434 Y53.447 E812.51519
G1 X44.645 Y53.123 E812.62719
G1 X147.434 Y155.912 E825.61563
G1 X147.507 Y155.888 E825.6225
G1 X147.868 Y155.701 E825.65882
G1 X148.198 Y155.454 E825.69565
G1 X148.43 Y155.212 E825.72561
G1 X45.982 Y52.765 E838.67089
G1 X47.319 Y52.406 E838.79459
G1 X149.031 Y154.118 E851.64693
G1 X149.076 Y153.975 E851.66033
G1 X149.136 Y153.567 E851.69717
G1 X149.129 Y153.154 E851.73408
G1 X149.054 Y152.741 E851.77159
G1 X148.946 Y152.337 E851.80895
G1 X48.656 Y52.048 E864.48155
G1 X49.993 Y51.689 E864.60524
G1 X148.326 Y150.021 E877.03056
G1 X147.705 Y147.705 E877.2448
G1 X51.331 Y51.331 E889.42264
G1 X52.668 Y50.973 E889.54631
G1 X147.084 Y145.388 E901.47667
G1 X146.463 Y143.072 E901.69091
G1 X54.005 Y50.614 E913.37392
G1 X55.343 Y50.256 E913.49768
G1 X145.843 Y140.756 E924.93327
G1 X145.222 Y138.44 E925.14752
G1 X56.68 Y49.897 E936.33577
G1 X58.017 Y49.539 E936.45944
G1 X144.601 Y136.123 E947.40021
G1 X143.981 Y133.807 E947.61443
G1 X59.354 Y49.18 E958.30791
G1 X60.691 Y48.822 E958.43158
G1 X143.36 Y131.49 E968.87759
G1 X142.74 Y129.174 E969.09181
G1 X62.028 Y48.463 E979.29053
G1 X63.366 Y48.105 E979.41428
G1 X142.119 Y126.858 E989.36553
G1 X141.498 Y124.542 E989.57977
G1 X64.703 Y47.747 E999.2836
G1 X66.04 Y47.388 E999.4073
G1 X140.877 Y122.225 E1008.86371
G1 X140.256 Y119.909 E1009.07796
G1 X67.378 Y47.03 E1018.2869
G1 X68.715 Y46.671 E1018.41059
G1 X139.636 Y117.593 E1027.37224
G1 X139.015 Y115.276 E1027.58658
G1 X70.052 Y46.313 E1036.30075
G1 X71.389 Y45.954 E1036.42445
G1 X138.394 Y112.96 E1044.89127
G1 X137.774 Y110.643 E1045.10558
G1 X72.726 Y45.596 E1053.325
G1 X74.064 Y45.238 E1053.44875
G1 X137.153 Y108.327 E1061.42069
G1 X136.533 Y106.011 E1061.63491
G1 X75.401 Y44.88 E1069.3595
G1 X76.738 Y44.521 E1069.48319
G1 X135.912 Y103.695 E1076.96043
G1 X135.294 Y101.389 E1077.17374
G1 X135.294 Y101.381 E1077.17446
G1 X78.075 Y44.163 E1084.4046
G1 X79.413 Y43.804 E1084.52837
G1 X134.944 Y99.336 E1091.54535
G1 X134.886 Y99.136 E1091.56395
G1 X134.317 Y97.013 E1091.76034
G1 X80.75 Y43.446 E1098.52907
G1 X82.087 Y43.087 E1098.65277
G1 X133.697 Y94.697 E1105.17421
G1 X133.076 Y92.381 E1105.38846
G1 X83.424 Y42.729 E1111.6625
G1 X84.761 Y42.37 E1111.78619
G1 X132.455 Y90.064 E1117.81281
G1 X131.835 Y87.749 E1118.02695
G1 X86.099 Y42.012 E1123.80622
G1 X87.436 Y41.654 E1123.92989
G1 X131.214 Y85.432 E1129.46168
G1 X130.594 Y83.116 E1129.67591
G1 X88.773 Y41.295 E1134.96042
G1 X90.11 Y40.937 E1135.08408
G1 X129.974 Y80.8 E1140.12124
G1 X129.353 Y78.484 E1140.33549
G1 X91.447 Y40.578 E1145.1253
G1 X92.785 Y40.22 E1145.24905
G1 X128.733 Y76.168 E1149.79145
G1 X128.112 Y73.852 E1150.00569
G1 X94.122 Y39.861 E1154.30074
G1 X95.459 Y39.503 E1154.42441
G1 X127.492 Y71.535 E1158.47204
G1 X126.871 Y69.22 E1158.6862
G1 X96.797 Y39.145 E1162.48642
G1 X98.134 Y38.786 E1162.61011
G1 X126.251 Y66.903 E1166.16298
G1 X125.63 Y64.587 E1166.37723
G1 X99.471 Y38.428 E1169.68268
G1 X100.808 Y38.069 E1169.80638
G1 X125.01 Y62.271 E1172.86455
G1 X124.389 Y59.954 E1173.07888
G1 X102.145 Y37.711 E1175.88957
G1 X103.482 Y37.352 E1176.01326
G1 X123.769 Y57.639 E1178.57673
G1 X123.148 Y55.322 E1178.79106
G1 X104.82 Y36.994 E1181.10699
G1 X106.157 Y36.635 E1181.23068
G1 X122.528 Y53.006 E1183.29933
G1 X121.907 Y50.69 E1183.51357
G1 X107.495 Y36.278 E1185.33467
G1 X108.832 Y35.919 E1185.45837
G1 X121.287 Y48.374 E1187.03218
G1 X120.666 Y46.058 E1187.24643
G1 X110.169 Y35.561 E1188.57283
G1 X111.506 Y35.202 E1188.69652
G1 X120.045 Y43.741 E1189.77551
G1 X119.425 Y41.425 E1189.98973
G1 X112.843 Y34.844 E1190.82137
G1 X113.665 Y34.623 E1190.89743
G1 X114.079 Y34.549 E1190.93501
G1 X114.244 Y34.549 E1190.94975
G1 X118.804 Y39.109 E1191.52595
G0 F2625 X42.255 Y54.124
G1 F1350 X144.775 Y156.645 E1204.48046
G0 F2625 X42.345 Y53.711
;TIME_ELAPSED:645.005270
;LAYER:-3
G0 X42.345 Y53.711 Z1.46
G1 F1800 X42.016 Y54 E1204.4935
G1 X123.053 Y54 E1206.90706
G1 X123.187 Y54.5 E1206.92248
G1 X41.601 Y54.5 E1209.35238
G1 X41.511 Y54.632 E1209.35714
G1 X41.304 Y55 E1209.36972
G1 X123.321 Y55 E1211.81246
G1 X123.455 Y55.5 E1211.82788
G1 X41.07 Y55.5 E1214.28158
