;Generated by Cura LulzBot Edition GCodeWriter Version: 2.6.69
;FLAVOR:RepRap
;TIME:12413
;Filament used: 12.1091m
;Layer height: 0.38
;Generated with Cura_SteamEngine 2.6.69
;This G-Code has been generated specifically for the LulzBot TAZ 6 with standard extruder
G26 ; clear potential 'probe fail' condition
G21 ; set units to Millimetres
M107 ; disable fans
G90 ; absolute positioning
M82 ; set extruder to absolute mode
G92 E0 ; set extruder position to 0
M140 S110 ; start bed heating up
G28 XY ; home X and Y
G1 X-19 Y258 F1000 ; move to safe homing position
M109 R175 ; soften filament before homing Z
G28 Z ; home Z
G1 E-30 F100 ; retract filament
M109 R170 ; wait for extruder to reach wiping temp
G1 X-15 Y100 F3000 ; move above wiper pad
G1 Z1 ; push nozzle into wiper
G1 X-17 Y95 F1000 ; slow wipe
G1 X-17 Y90 F1000 ; slow wipe
G1 X-17 Y85 F1000 ; slow wipe
G1 X-15 Y90 F1000 ; slow wipe
G1 X-17 Y80 F1000 ; slow wipe
G1 X-15 Y95 F1000 ; slow wipe
G1 X-17 Y75 F2000 ; fast wipe
G1 X-15 Y65 F2000 ; fast wipe
G1 X-17 Y70 F2000 ; fast wipe
G1 X-15 Y60 F2000 ; fast wipe
G1 X-17 Y55 F2000 ; fast wipe
G1 X-15 Y50 F2000 ; fast wipe
G1 X-17 Y40 F2000 ; fast wipe
G1 X-15 Y45 F2000 ; fast wipe
G1 X-17 Y35 F2000 ; fast wipe
G1 X-15 Y40 F2000 ; fast wipe
G1 X-17 Y70 F2000 ; fast wipe
G1 X-15 Y30 Z2 F2000 ; fast wipe
G1 X-17 Y35 F2000 ; fast wipe
G1 X-15 Y25 F2000 ; fast wipe
G1 X-17 Y30 F2000 ; fast wipe
G1 X-15 Y25 Z1.5 F1000 ; slow wipe
G1 X-17 Y23 F1000 ; slow wipe
G1 Z10 ; raise extruder
M109 R170 ; wait for extruder to reach probe temp
G1 X-9 Y-9 ; move above first probe point
M204 S100 ; set probing acceleration
G29 ; start auto-leveling sequence
M204 S500 ; restore standard acceleration
G1 X0 Y0 Z15 F5000 ; move up off last probe point
G4 S1 ; pause
M400 ; wait for moves to finish
M117 Heating... ; progress indicator message on LCD
M109 R240 ; wait for extruder to reach printing temp
M190 S110 ; wait for bed to reach printing temp
G1 Z2 E0 F75 ; prime tiny bit of filament into the nozzle
M117 TAZ 6 Printing... ; progress indicator message on LCD

M221 S100
;LAYER_COUNT:90
;LAYER:-5
M107
G0 F2625 X88.329 Y89.673 Z0.51
G1 F1350 X88.562 Y89.458 E0.02535
G1 X88.588 Y89.436 E0.02807
G1 X88.647 Y89.39 E0.03405
G1 X88.897 Y89.196 E0.05935
G1 X89.07 Y89.072 E0.07636
G1 X89.115 Y89.043 E0.08064
G1 X89.271 Y88.949 E0.0952
G1 X89.563 Y88.791 E0.12175
G1 X89.784 Y88.684 E0.14138
G1 X89.822 Y88.667 E0.1447
G1 X89.961 Y88.613 E0.15663
G1 X90.299 Y88.492 E0.18533
G1 X90.541 Y88.417 E0.20558
G1 X157.063 Y70.59 E5.71133
G1 X157.309 Y70.538 E5.73143
G1 X157.315 Y70.537 E5.73191
G1 X157.341 Y70.531 E5.73405
G1 X157.97 Y70.44 E5.78486
G1 X158.061 Y70.434 E5.79215
G1 X158.403 Y70.425 E5.8195
G1 X158.617 Y70.429 E5.83661
G1 X158.836 Y70.449 E5.85419
G1 X159.134 Y70.486 E5.8782
G1 X159.486 Y70.555 E5.90687
G1 X159.495 Y70.557 E5.90761
G1 X159.603 Y70.586 E5.91655
G1 X159.919 Y70.679 E5.94288
G1 X160.062 Y70.728 E5.95497
G1 X160.108 Y70.745 E5.95889
G1 X160.327 Y70.837 E5.97788
G1 X160.623 Y70.978 E6.00409
G1 X160.786 Y71.063 E6.01879
G1 X160.817 Y71.082 E6.02169
G1 X161.022 Y71.211 E6.04106
G1 X161.267 Y71.38 E6.06485
G1 X161.454 Y71.521 E6.08357
G1 X161.477 Y71.54 E6.08596
G1 X161.599 Y71.648 E6.09898
G1 X161.864 Y71.899 E6.12816
G1 X162.017 Y72.057 E6.14575
G1 X162.031 Y72.072 E6.14739
G1 X162.181 Y72.254 E6.16624
G1 X162.341 Y72.462 E6.18722
G1 X162.465 Y72.636 E6.2043
G1 X162.473 Y72.648 E6.20546
G1 X162.599 Y72.861 E6.22524
G1 X162.758 Y73.155 E6.25196
G1 X162.939 Y73.568 E6.28801
G1 X163.088 Y73.994 E6.32409
G1 X193.736 Y188.366 E15.79013
G1 X193.81 Y188.779 E15.82368
G1 X193.818 Y189.196 E15.85702
G1 X193.76 Y189.586 E15.88854
G1 X193.631 Y189.992 E15.9226
G1 X193.487 Y190.284 E15.94863
G1 X193.316 Y190.582 E15.97609
G1 X193.077 Y190.93 E16.00984
G1 X192.795 Y191.224 E16.04241
G1 X192.471 Y191.466 E16.07474
G1 X192.102 Y191.657 E16.10796
G1 X191.769 Y191.772 E16.13612
G1 X191.18 Y191.929 E16.18485
G1 X190.764 Y192.006 E16.21868
G1 X190.085 Y192.016 E16.27296
G1 X122.533 Y210.116 E21.8639
G1 X122.268 Y210.3 E21.88969
G1 X121.894 Y210.479 E21.92284
G1 X121.658 Y210.556 E21.94268
G1 X121.058 Y210.718 E21.99237
G1 X120.645 Y210.794 E22.02594
G1 X120.234 Y210.802 E22.0588
G1 X119.828 Y210.743 E22.0916
G1 X119.432 Y210.618 E22.1248
G1 X119.15 Y210.48 E22.1499
G1 X118.834 Y210.299 E22.17901
G1 X118.487 Y210.059 E22.21274
G1 X118.191 Y209.774 E22.24559
G1 X117.952 Y209.454 E22.27752
G1 X117.758 Y209.08 E22.3112
G1 X117.648 Y208.756 E22.33856
G1 X87.024 Y94.468 E31.79762
G1 X86.966 Y94.202 E31.81938
G1 X86.965 Y94.193 E31.82011
G1 X86.911 Y93.898 E31.84408
G1 X86.885 Y93.72 E31.85846
G1 X86.867 Y93.449 E31.88017
G1 X86.859 Y93.124 E31.90616
G1 X86.863 Y92.928 E31.92184
G1 X86.863 Y92.916 E31.9228
G1 X86.864 Y92.902 E31.92392
G1 X86.864 Y92.901 E31.924
G1 X86.881 Y92.72 E31.93853
G1 X86.925 Y92.378 E31.9661
G1 X86.98 Y92.079 E31.9904
G1 X87.01 Y91.968 E31.9996
G1 X87.108 Y91.636 E32.02727
G1 X87.182 Y91.418 E32.04567
G1 X87.28 Y91.191 E32.06544
G1 X87.422 Y90.899 E32.0914
G1 X87.444 Y90.854 E32.0954
G1 X87.638 Y90.523 E32.12607
G1 X87.817 Y90.261 E32.15144
G1 X87.98 Y90.047 E32.17295
G1 X88.013 Y90.009 E32.17697
G1 X88.086 Y89.927 E32.18575
G1 X88.329 Y89.673 E32.21385
G0 F2625 X88 Y90.023
G1 F1350 X88 Y98.11 E32.86036
G0 F2625 X90 Y105.574
G1 F1350 X90 Y88.599 E34.21743
G0 F2625 X92 Y88.026
G1 F1350 X92 Y113.038 E36.21701
G0 F2625 X94 Y120.502
G1 F1350 X94 Y87.49 E38.85615
G0 F2625 X96 Y86.954
G1 F1350 X96 Y127.966 E42.13485
G0 F2625 X98 Y135.43
G1 F1350 X98 Y86.418 E46.05311
G0 F2625 X100 Y85.882
G1 F1350 X100 Y142.894 E50.61092
G0 F2625 X102 Y150.358
G1 F1350 X102 Y85.346 E55.8083
G0 F2625 X104 Y84.81
G1 F1350 X104 Y157.822 E61.64523
G0 F2625 X106 Y165.285
G1 F1350 X106 Y84.274 E68.12165
G0 F2625 X108 Y83.738
G1 F1350 X108 Y172.749 E75.23762
G0 F2625 X110 Y180.213
G1 F1350 X110 Y83.202 E82.99315
G0 F2625 X112 Y82.666
G1 F1350 X112 Y187.677 E91.38824
G0 F2625 X114 Y195.141
G1 F1350 X114 Y82.13 E100.42289
G0 F2625 X116 Y81.594
G1 F1350 X116 Y202.605 E110.0971
G0 F2625 X118 Y209.518
G1 F1350 X118 Y81.058 E120.36681
G0 F2625 X120 Y80.522
G1 F1350 X120 Y210.767 E130.77923
G0 F2625 X122 Y210.429
G1 F1350 X122 Y79.986 E141.20748
G0 F2625 X124 Y79.45
G1 F1350 X124 Y209.723 E151.62214
G0 F2625 X126 Y209.188
G1 F1350 X126 Y78.914 E162.03688
G0 F2625 X128 Y78.378
G1 F1350 X128 Y208.652 E172.45161
G0 F2625 X130 Y208.116
G1 F1350 X130 Y77.842 E182.86635
G0 F2625 X132 Y77.306
G1 F1350 X132 Y207.58 E193.28109
G0 F2625 X134 Y207.044
G1 F1350 X134 Y76.77 E203.69583
G0 F2625 X136 Y76.234
G1 F1350 X136 Y206.508 E214.11056
G0 F2625 X138 Y205.972
G1 F1350 X138 Y75.698 E224.5253
G0 F2625 X140 Y75.162
G1 F1350 X140 Y205.436 E234.94004
G0 F2625 X142 Y204.9
G1 F1350 X142 Y74.626 E245.35478
G0 F2625 X144 Y74.09
G1 F1350 X144 Y204.365 E255.76959
G0 F2625 X146 Y203.829
G1 F1350 X146 Y73.554 E266.18441
G0 F2625 X148 Y73.018
G1 F1350 X148 Y203.293 E276.59923
G0 F2625 X150 Y202.757
G1 F1350 X150 Y72.482 E287.01404
G0 F2625 X152 Y71.946
G1 F1350 X152 Y202.221 E297.42886
G0 F2625 X154 Y201.685
G1 F1350 X154 Y71.41 E307.84368
G0 F2625 X156 Y70.874
G1 F1350 X156 Y201.149 E318.2585
G0 F2625 X158 Y200.613
G1 F1350 X158 Y70.438 E328.66532
G0 F2625 X160 Y70.707
G1 F1350 X160 Y200.078 E339.00787
G0 F2625 X162 Y199.542
G1 F1350 X162 Y72.04 E349.201
G0 F2625 X164 Y77.398
G1 F1350 X164 Y199.006 E358.92293
G0 F2625 X166 Y198.47
G1 F1350 X166 Y84.861 E368.00539
G0 F2625 X168 Y92.325
G1 F1350 X168 Y197.934 E376.44829
G0 F2625 X170 Y197.398
G1 F1350 X170 Y99.789 E384.25162
G0 F2625 X172 Y107.252
G1 F1350 X172 Y196.862 E391.41548
G0 F2625 X174 Y196.326
G1 F1350 X174 Y114.716 E397.93978
G0 F2625 X176 Y122.179
G1 F1350 X176 Y195.79 E403.82461
G0 F2625 X178 Y195.255
G1 F1350 X178 Y129.643 E409.06995
G0 F2625 X180 Y137.107
G1 F1350 X180 Y194.719 E413.67573
G0 F2625 X182 Y194.183
G1 F1350 X182 Y144.57 E417.64204
G0 F2625 X184 Y152.034
G1 F1350 X184 Y193.647 E420.96878
G0 F2625 X186 Y193.111
G1 F1350 X186 Y159.497 E423.65605
G0 F2625 X188 Y166.961
G1 F1350 X188 Y192.575 E425.70376
G0 F2625 X190 Y192.039
M104 S240
G1 F1350 X190 Y174.425 E427.1119
G0 F2625 X192 Y181.888
G1 F1350 X192 Y191.693 E427.89576
G0 F2625 X88.156 Y89.852
;TIME_ELAPSED:251.165712
;LAYER:-4
M140 S110
M221 S100
G0 X88.156 Y89.852 Z1.08
;TYPE:SUPPORT
G1 F1350 X88.086 Y89.926 E427.90487
G1 X88.012 Y90.008 E427.91473
G1 X87.98 Y90.046 E427.91917
G1 X87.817 Y90.26 E427.94321
G1 X87.637 Y90.522 E427.97161
G1 X87.45 Y90.841 E428.00465
G1 X188.932 Y192.323 E440.82793
G1 X187.595 Y192.682 E440.95163
G1 X86.981 Y92.068 E453.66523
G1 X86.979 Y92.078 E453.66614
G1 X86.925 Y92.377 E453.69329
G1 X86.881 Y92.719 E453.7241
G1 X86.864 Y92.9 E453.74034
G1 X86.863 Y92.901 E453.74047
G1 X86.862 Y92.915 E453.74172
G1 X86.863 Y92.927 E453.7428
G1 X86.858 Y93.123 E453.76032
G1 X86.866 Y93.448 E453.78937
G1 X86.88 Y93.663 E453.80862
G1 X186.258 Y193.04 E466.36598
G1 X184.92 Y193.398 E466.48973
G1 X87.402 Y95.88 E478.81212
G1 X88.023 Y98.197 E479.02646
G1 X183.583 Y193.757 E491.10143
G1 X182.246 Y194.115 E491.2251
G1 X88.644 Y100.513 E503.05267
G1 X89.265 Y102.83 E503.267
G1 X180.909 Y194.474 E514.84715
G1 X179.571 Y194.831 E514.97089
G1 X89.885 Y105.146 E526.30356
G1 X90.506 Y107.462 E526.51781
G1 X178.234 Y195.19 E537.60313
G1 X176.896 Y195.548 E537.72689
G1 X91.126 Y109.779 E548.56474
G1 X91.747 Y112.094 E548.7789
G1 X175.559 Y195.906 E559.3694
G1 X174.221 Y196.265 E559.49318
G1 X92.367 Y114.411 E569.83626
G1 X92.988 Y116.727 E570.05051
G1 X172.884 Y196.623 E580.14618
G1 X171.547 Y196.982 E580.26987
G1 X93.609 Y119.044 E590.11813
G1 X94.229 Y121.36 E590.33236
G1 X170.209 Y197.34 E599.9332
G1 X168.872 Y197.698 E600.05687
G1 X94.85 Y123.676 E609.41031
G1 X95.471 Y125.992 E609.62455
G1 X167.535 Y198.057 E618.73063
G1 X166.198 Y198.415 E618.8543
G1 X96.092 Y128.309 E627.71291
G1 X96.712 Y130.625 E627.92713
G1 X164.86 Y198.773 E636.53833
G1 X163.523 Y199.131 E636.662
G1 X97.333 Y132.941 E645.02578
G1 X97.954 Y135.258 E645.24011
G1 X162.186 Y199.49 E653.35647
G1 X160.849 Y199.848 E653.48014
G1 X98.574 Y137.573 E661.34922
G1 X99.195 Y139.89 E661.56356
G1 X159.511 Y200.206 E669.1851
G1 X158.174 Y200.565 E669.30879
G1 X99.815 Y142.206 E676.68304
G1 X100.436 Y144.523 E676.89737
G1 X156.836 Y200.923 E684.02409
G1 X155.499 Y201.282 E684.14778
G1 X101.056 Y146.839 E691.02721
G1 X101.677 Y149.155 E691.24145
G1 X154.162 Y201.639 E697.87341
G1 X152.824 Y201.998 E697.99718
G1 X102.298 Y151.472 E704.38166
G1 X102.919 Y153.788 E704.5959
G1 X151.487 Y202.356 E710.73297
G1 X150.15 Y202.715 E710.85666
G1 X103.539 Y156.104 E716.74643
G1 X104.16 Y158.42 E716.96068
G1 X148.812 Y203.073 E722.60298
G1 X147.475 Y203.431 E722.72664
G1 X104.781 Y160.737 E728.12147
G1 X105.401 Y163.053 E728.33569
G1 X146.138 Y203.79 E733.48322
G1 X144.801 Y204.148 E733.60689
G1 X106.022 Y165.369 E738.50701
G1 X106.643 Y167.686 E738.72135
G1 X143.463 Y204.506 E743.37393
G1 X142.126 Y204.865 E743.49762
G1 X107.263 Y170.002 E747.90291
G1 X107.883 Y172.318 E748.11714
G1 X140.789 Y205.223 E752.27508
G1 X139.452 Y205.582 E752.39877
G1 X108.504 Y174.634 E756.30937
G1 X109.125 Y176.951 E756.5237
G1 X138.114 Y205.939 E760.18669
G1 X136.777 Y206.298 E760.31039
G1 X109.746 Y179.267 E763.72603
G1 X110.366 Y181.583 E763.94025
G1 X135.439 Y206.656 E767.10848
G1 X134.102 Y207.014 E767.23215
G1 X110.987 Y183.9 E770.1529
G1 X111.608 Y186.216 E770.36714
G1 X132.764 Y207.373 E773.04048
G1 X131.427 Y207.731 E773.16415
G1 X112.228 Y188.532 E775.59014
G1 X112.849 Y190.848 E775.80439
G1 X130.09 Y208.09 E777.98303
G1 X128.752 Y208.448 E778.10678
G1 X113.47 Y193.165 E780.03788
G1 X114.09 Y195.481 E780.2521
G1 X127.415 Y208.806 E781.93585
G1 X126.078 Y209.165 E782.05955
G1 X114.711 Y197.797 E783.49595
G1 X115.331 Y200.114 E783.71025
G1 X124.741 Y209.523 E784.89924
G1 X123.403 Y209.881 E785.023
G1 X115.952 Y202.43 E785.9645
G1 X116.572 Y204.746 E786.17873
G1 X122.171 Y210.345 E786.88622
G1 X121.893 Y210.478 E786.91375
G1 X121.657 Y210.555 E786.93593
G1 X121.058 Y210.717 E786.99138
G1 X120.88 Y210.749 E787.00754
G1 X117.193 Y207.062 E787.47343
G1 X117.647 Y208.755 E787.63004
G1 X117.758 Y209.079 E787.66064
G1 X117.952 Y209.453 E787.69829
G1 X118.14 Y209.705 E787.72638
G1 X118.509 Y210.074 E787.77301
G0 F2625 X190.316 Y192.012
G1 F1350 X190.763 Y192.005 E787.81295
G1 X191.179 Y191.927 E787.85077
G1 X191.768 Y191.771 E787.90521
G1 X191.77 Y191.77 E787.90541
G1 X89.071 Y89.071 E800.88247
G1 X89.113 Y89.043 E800.88698
G1 X89.27 Y88.949 E800.90333
G1 X89.562 Y88.791 E800.933
G1 X89.782 Y88.683 E800.9549
G1 X89.82 Y88.666 E800.95862
G1 X89.96 Y88.612 E800.97202
G1 X90.216 Y88.521 E800.9963
G1 X192.856 Y191.16 E813.96585
G1 X193.076 Y190.929 E813.99435
G1 X193.315 Y190.581 E814.03207
G1 X193.486 Y190.284 E814.06269
G1 X193.549 Y190.157 E814.07536
G1 X91.54 Y88.149 E826.96517
G1 X92.878 Y87.791 E827.08893
G1 X193.797 Y188.71 E839.84107
G1 X193.735 Y188.365 E839.87239
G1 X193.218 Y186.435 E840.05091
G1 X94.215 Y87.433 E852.56089
G1 X95.552 Y87.074 E852.68458
G1 X192.597 Y184.119 E864.94721
G1 X191.976 Y181.802 E865.16154
G1 X96.889 Y86.716 E877.17668
G1 X98.227 Y86.357 E877.30046
G1 X191.356 Y179.487 E889.06832
G1 X190.735 Y177.17 E889.28266
G1 X99.564 Y85.999 E900.80304
G1 X100.902 Y85.641 E900.9268
G1 X190.114 Y174.854 E912.1997
G1 X189.494 Y172.537 E912.41401
G1 X102.239 Y85.282 E923.43957
G1 X103.576 Y84.924 E923.56324
G1 X188.873 Y170.221 E934.34138
G1 X188.252 Y167.904 E934.55571
G1 X104.913 Y84.565 E945.08645
G1 X106.25 Y84.207 E945.21012
G1 X187.632 Y165.588 E955.4935
G1 X187.011 Y163.272 E955.70774
G1 X107.587 Y83.848 E965.74377
G1 X108.925 Y83.49 E965.86753
G1 X186.39 Y160.955 E975.65602
G1 X185.769 Y158.639 E975.87027
G1 X110.262 Y83.132 E985.41134
G1 X111.599 Y82.773 E985.53504
G1 X185.148 Y156.322 E994.8287
G1 X184.528 Y154.007 E995.04284
G1 X112.936 Y82.415 E1004.08922
G1 X114.274 Y82.056 E1004.21299
G1 X183.907 Y151.69 E1013.0119
G1 X183.287 Y149.374 E1013.22612
G1 X115.611 Y81.698 E1021.77767
G1 X116.949 Y81.34 E1021.90143
G1 X182.666 Y147.057 E1030.20544
G1 X182.045 Y144.741 E1030.41968
G1 X118.286 Y80.982 E1038.47628
G1 X119.623 Y80.623 E1038.59997
G1 X181.424 Y142.424 E1046.40916
G1 X180.804 Y140.108 E1046.62338
G1 X120.96 Y80.265 E1054.18522
G1 X122.297 Y79.906 E1054.30891
G1 X180.183 Y137.792 E1061.6234
G1 X179.562 Y135.476 E1061.83764
G1 X123.634 Y79.548 E1068.90471
G1 X124.972 Y79.19 E1069.02847
G1 X178.941 Y133.159 E1075.848
G1 X178.321 Y130.843 E1076.06222
G1 X126.309 Y78.831 E1082.63447
G1 X127.646 Y78.473 E1082.75814
G1 X177.7 Y128.526 E1089.08291
G1 X177.08 Y126.21 E1089.29713
G1 X128.984 Y78.114 E1095.37455
G1 X130.321 Y77.756 E1095.49822
G1 X176.459 Y123.894 E1101.32822
G1 X175.838 Y121.577 E1101.54256
G1 X131.659 Y77.398 E1107.12502
G1 X132.996 Y77.039 E1107.24872
G1 X175.217 Y119.261 E1112.58383
G1 X174.596 Y116.944 E1112.79816
G1 X134.333 Y76.681 E1117.8858
G1 X135.67 Y76.322 E1118.0095
G1 X173.975 Y114.628 E1122.84979
G1 X173.355 Y112.312 E1123.06401
G1 X137.007 Y75.964 E1127.65695
G1 X138.344 Y75.605 E1127.78064
G1 X172.734 Y109.996 E1132.12623
G1 X172.114 Y107.679 E1132.34054
G1 X139.682 Y75.248 E1136.43859
G1 X141.019 Y74.889 E1136.56228
G1 X171.493 Y105.363 E1140.41298
G1 X170.872 Y103.046 E1140.62731
G1 X142.356 Y74.531 E1144.23054
G1 X143.693 Y74.172 E1144.35423
G1 X170.251 Y100.73 E1147.7101
G1 X169.631 Y98.414 E1147.92432
G1 X145.031 Y73.814 E1151.03278
G1 X146.368 Y73.455 E1151.15648
G1 X169.01 Y96.097 E1154.01752
G1 X168.389 Y93.781 E1154.23177
G1 X147.706 Y73.097 E1156.84534
G1 X149.043 Y72.739 E1156.96901
G1 X167.768 Y91.464 E1159.3351
G1 X167.148 Y89.148 E1159.54933
G1 X150.38 Y72.38 E1161.66813
G1 X151.717 Y72.022 E1161.7918
G1 X166.527 Y86.832 E1163.6632
G1 X165.907 Y84.516 E1163.87742
G1 X153.054 Y71.663 E1165.50153
G1 X154.391 Y71.305 E1165.6252
G1 X165.286 Y82.199 E1167.00183
G1 X164.665 Y79.883 E1167.21607
G1 X155.729 Y70.947 E1168.34523
G1 X157.061 Y70.589 E1168.46846
G1 X157.066 Y70.589 E1168.46891
G1 X164.044 Y77.566 E1169.35059
