;Generated by Cura LulzBot Edition GCodeWriter Version: 2.6.69
;FLAVOR:RepRap
;TIME:1321
;Filament used: 0.28182m
;Layer height: 0.18
;Generated with Cura_SteamEngine 2.6.69
;This G-Code has been generated specifically for the LulzBot TAZ 6 with standard extruder
G26 ; clear potential 'probe fail' condition
G21 ; set units to Millimetres
M107 ; disable fans
G90 ; absolute positioning
M82 ; set extruder to absolute mode
G92 E0 ; set extruder position to 0
M140 S110 ; start bed heating up
G28 XY ; home X and Y
G1 X-19 Y258 F1000 ; move to safe homing position
M109 R175 ; soften filament before homing Z
G28 Z ; home Z
G1 E-30 F100 ; retract filament
M109 R170 ; wait for extruder to reach wiping temp
G1 X-15 Y100 F3000 ; move above wiper pad
G1 Z1 ; push nozzle into wiper
G1 X-17 Y95 F1000 ; slow wipe
G1 X-17 Y90 F1000 ; slow wipe
G1 X-17 Y85 F1000 ; slow wipe
G1 X-15 Y90 F1000 ; slow wipe
G1 X-17 Y80 F1000 ; slow wipe
G1 X-15 Y95 F1000 ; slow wipe
G1 X-17 Y75 F2000 ; fast wipe
G1 X-15 Y65 F2000 ; fast wipe
G1 X-17 Y70 F2000 ; fast wipe
G1 X-15 Y60 F2000 ; fast wipe
G1 X-17 Y55 F2000 ; fast wipe
G1 X-15 Y50 F2000 ; fast wipe
G1 X-17 Y40 F2000 ; fast wipe
G1 X-15 Y45 F2000 ; fast wipe
G1 X-17 Y35 F2000 ; fast wipe
G1 X-15 Y40 F2000 ; fast wipe
G1 X-17 Y70 F2000 ; fast wipe
G1 X-15 Y30 Z2 F2000 ; fast wipe
G1 X-17 Y35 F2000 ; fast wipe
G1 X-15 Y25 F2000 ; fast wipe
G1 X-17 Y30 F2000 ; fast wipe
G1 X-15 Y25 Z1.5 F1000 ; slow wipe
G1 X-17 Y23 F1000 ; slow wipe
G1 Z10 ; raise extruder
M109 R170 ; wait for extruder to reach probe temp
G1 X-9 Y-9 ; move above first probe point
M204 S100 ; set probing acceleration
G29 ; start auto-leveling sequence
M204 S500 ; restore standard acceleration
G1 X0 Y0 Z15 F5000 ; move up off last probe point
G4 S1 ; pause
M400 ; wait for moves to finish
M117 Heating... ; progress indicator message on LCD
M109 R240 ; wait for extruder to reach printing temp
M190 S110 ; wait for bed to reach printing temp
G1 Z2 E0 F75 ; prime tiny bit of filament into the nozzle
M117 TAZ 6 Printing... ; progress indicator message on LCD

M221 S100
;LAYER_COUNT:55
;LAYER:-6
M107
G0 F2625 X94.324 Y93.08 Z0.51
G1 F1178.6 X94.459 Y92.945 E0.01526
G1 X94.786 Y92.668 E0.04952
G1 X95.132 Y92.46 E0.0818
G1 X95.514 Y92.308 E0.11467
G1 X96.247 Y92.151 E0.17459
G1 X96.545 Y91.584 E0.2258
G1 X96.792 Y91.257 E0.25856
G1 X97.086 Y90.979 E0.29091
G1 X97.427 Y90.746 E0.32393
G1 X97.795 Y90.576 E0.35634
G1 X98.179 Y90.47 E0.38818
G1 X98.686 Y90.422 E0.4289
G1 X103.676 Y90.423 E0.82782
G1 X104.099 Y90.457 E0.86175
G1 X104.496 Y90.557 E0.89448
G1 X104.874 Y90.721 E0.92742
G1 X105.215 Y90.941 E0.95986
G1 X105.517 Y91.214 E0.99241
G1 X105.767 Y91.527 E1.02443
G1 X106.089 Y92.127 E1.07887
G1 X106.908 Y92.334 E1.1464
G1 X107.284 Y92.495 E1.1791
G1 X107.634 Y92.72 E1.21236
G1 X107.872 Y92.93 E1.23774
G1 X108.007 Y93.065 E1.253
G1 X108.284 Y93.392 E1.28726
G1 X108.492 Y93.738 E1.31954
G1 X108.643 Y94.119 E1.3523
G1 X108.731 Y94.521 E1.3852
G1 X108.753 Y94.865 E1.41276
G1 X108.753 Y114.532 E2.98503
G1 X108.717 Y114.96 E3.01937
G1 X108.619 Y115.354 E3.05183
G1 X108.457 Y115.729 E3.08449
G1 X108.232 Y116.08 E3.11782
G1 X108.022 Y116.318 E3.14319
G1 X107.887 Y116.453 E3.15845
G1 X107.558 Y116.732 E3.19294
G1 X107.215 Y116.938 E3.22493
G1 X105.778 Y117.507 E3.34849
G1 X105.778 Y122.615 E3.75684
G1 X105.742 Y123.043 E3.79118
G1 X105.644 Y123.437 E3.82364
G1 X105.482 Y123.812 E3.8563
G1 X105.257 Y124.163 E3.88963
G1 X105.047 Y124.401 E3.915
G1 X104.795 Y124.653 E3.94349
G1 X104.468 Y124.93 E3.97775
G1 X104.122 Y125.138 E4.01003
G1 X103.741 Y125.289 E4.04279
G1 X103.339 Y125.377 E4.07569
G1 X102.995 Y125.399 E4.10325
G1 X99.352 Y125.399 E4.39449
G1 X98.924 Y125.363 E4.42882
G1 X98.53 Y125.265 E4.46128
G1 X98.155 Y125.103 E4.49394
G1 X97.804 Y124.878 E4.52727
G1 X97.566 Y124.668 E4.55264
G1 X97.314 Y124.416 E4.58114
G1 X97.037 Y124.089 E4.6154
G1 X96.829 Y123.743 E4.64767
G1 X96.678 Y123.362 E4.68043
G1 X96.59 Y122.96 E4.71333
G1 X96.568 Y122.616 E4.74089
G1 X96.568 Y117.353 E5.16164
G1 X95.438 Y117.065 E5.25487
G1 X95.063 Y116.903 E5.28752
G1 X94.711 Y116.677 E5.32096
G1 X94.474 Y116.468 E5.34623
G1 X94.339 Y116.333 E5.36149
G1 X94.062 Y116.006 E5.39575
G1 X93.854 Y115.66 E5.42802
G1 X93.703 Y115.279 E5.46079
G1 X93.615 Y114.877 E5.49369
G1 X93.593 Y114.533 E5.52124
G1 X93.593 Y94.866 E7.09352
G1 X93.629 Y94.438 E7.12786
G1 X93.727 Y94.044 E7.16032
G1 X93.889 Y93.669 E7.19297
G1 X94.114 Y93.318 E7.2263
G1 X94.324 Y93.08 E7.25168
G0 F2625 X94 Y93.495
G1 F1178.6 X94 Y115.902 E9.043
G0 F2625 X96 Y117.208
G1 F1178.6 X96 Y92.203 E11.04202
G0 F2625 X98 Y90.519
G1 F1178.6 X98 Y125.003 E13.79884
G0 F2625 X100 Y125.399
G1 F1178.6 X100 Y90.423 E16.59499
G0 F2625 X102 Y90.423
G1 F1178.6 X102 Y125.399 E19.39115
G0 F2625 X104 Y125.187
G1 F1178.6 X104 Y90.45 E22.16819
G0 F2625 X106 Y91.962
G1 F1178.6 X106 Y117.42 E24.20343
G0 F2625 X108 Y116.34
M104 S240
G1 F1178.6 X108 Y93.058 E26.0647
G0 F2625 X94.323 Y93.08
;TIME_ELAPSED:20.793362
;LAYER:-5
M140 S110
M221 S100
G0 X94.323 Y93.08 Z0.78
;TYPE:SUPPORT
G1 F1341.1 X94.113 Y93.318 E26.07814
G1 X93.888 Y93.669 E26.09578
G1 X93.821 Y93.821 E26.10281
G1 X108.753 Y108.753 E26.99657
G1 X108.753 Y110.448 E27.0683
G1 X93.592 Y95.288 E27.97573
G1 X93.592 Y96.983 E28.04747
G1 X108.753 Y112.144 E28.95493
G1 X108.753 Y113.839 E29.02667
G1 X93.592 Y98.679 E29.9341
G1 X93.592 Y100.375 E30.00588
G1 X108.604 Y115.387 E30.90442
G1 X108.456 Y115.728 E30.92015
G1 X108.231 Y116.079 E30.9378
G1 X108.021 Y116.317 E30.95123
G1 X107.93 Y116.408 E30.95668
G1 X93.592 Y102.07 E31.81488
G1 X93.592 Y103.766 E31.88666
G1 X106.891 Y117.065 E32.68267
G1 X105.778 Y117.506 E32.73334
G1 X105.778 Y117.647 E32.73931
G1 X93.592 Y105.462 E33.46867
G1 X93.592 Y107.157 E33.54041
G1 X105.778 Y119.343 E34.2698
G1 X105.778 Y121.039 E34.34158
G1 X93.592 Y108.853 E35.07097
G1 X93.592 Y110.549 E35.14275
G1 X105.769 Y122.725 E35.87157
G1 X105.742 Y123.042 E35.88504
G1 X105.643 Y123.436 E35.90223
G1 X105.481 Y123.811 E35.91952
G1 X105.356 Y124.008 E35.92939
G1 X93.592 Y112.244 E36.63353
G1 X93.592 Y113.94 E36.70531
G1 X104.528 Y124.876 E37.35988
G1 X104.467 Y124.928 E37.36327
G1 X104.122 Y125.137 E37.38034
G1 X103.741 Y125.288 E37.39769
G1 X103.338 Y125.376 E37.41515
G0 F2625 X103.333 Y125.376
G1 F1341.1 X96.567 Y118.61 E37.82013
G1 X96.567 Y120.306 E37.89191
G1 X101.659 Y125.398 E38.19669
G1 X99.963 Y125.398 E38.26847
G1 X96.567 Y122.002 E38.47174
G0 F2625 X103.333 Y125.376
G1 F1341.1 X103.338 Y125.376 E38.47195
G0 F2625 X108.753 Y107.057
G1 F1341.1 X94.557 Y92.861 E39.32165
G1 X94.458 Y92.944 E39.32711
G1 X94.323 Y93.08 E39.33523
G0 F2625 X95.667 Y92.276
G1 F1341.1 X108.753 Y105.361 E40.11846
G1 X108.753 Y107.057 E40.19024
G0 F2625 X108.753 Y103.666
G1 F1341.1 X96.598 Y91.511 E40.91777
G1 X96.544 Y91.584 E40.92162
G1 X96.246 Y92.15 E40.94869
G1 X95.667 Y92.276 E40.97377
G0 F2625 X97.496 Y90.714
G1 F1341.1 X108.753 Y101.97 E41.64752
G1 X108.753 Y103.666 E41.7193
G0 F2625 X108.753 Y100.274
G1 F1341.1 X98.9 Y90.422 E42.30902
G1 X98.685 Y90.421 E42.31812
G0 F2625 X100.596 Y90.422
G1 F1341.1 X108.753 Y98.579 E42.80636
G1 X108.753 Y100.274 E42.8781
G0 F2625 X108.753 Y96.883
G1 F1341.1 X102.292 Y90.422 E43.26482
G1 X100.596 Y90.422 E43.3366
G0 F2625 X104.015 Y90.45
G1 F1341.1 X108.753 Y95.187 E43.62016
G1 X108.753 Y96.883 E43.69194
G0 F2625 X94.146 Y92.902
;TIME_ELAPSED:41.632910
;LAYER:-4
G0 X94.146 Y92.902 Z0.959
G1 F1800 X94.061 Y93 E43.69376
G1 X108.28 Y93 E43.89325
G1 X108.489 Y93.247 E43.89779
G1 X108.641 Y93.5 E43.90193
G1 X93.699 Y93.5 E44.11156
G1 X93.669 Y93.546 E44.11233
G1 X93.489 Y93.962 E44.11869
G1 X93.48 Y94 E44.11924
G1 X108.865 Y94 E44.33508
G1 X108.883 Y94.046 E44.33577
G1 X108.978 Y94.482 E44.34204
G1 X108.98 Y94.5 E44.34229
G1 X93.372 Y94.5 E44.56126
G1 X93.342 Y94.857 E44.56629
G1 X93.342 Y95 E44.56829
G1 X109.002 Y95 E44.788
G1 X109.002 Y95.5 E44.79501
G1 X93.342 Y95.5 E45.01471
G1 X93.342 Y96 E45.02173
G1 X109.002 Y96 E45.24143
G1 X109.002 Y96.5 E45.24845
G1 X93.342 Y96.5 E45.46815
G1 X93.342 Y97 E45.47516
G1 X109.002 Y97 E45.69487
G1 X109.002 Y97.5 E45.70188
G1 X93.342 Y97.5 E45.92158
G1 X93.342 Y98 E45.9286
G1 X109.002 Y98 E46.1483
G1 X109.002 Y98.5 E46.15532
G1 X93.342 Y98.5 E46.37502
G1 X93.342 Y99 E46.38203
G1 X109.002 Y99 E46.60174
G1 X109.002 Y99.5 E46.60875
G1 X93.342 Y99.5 E46.82845
G1 X93.342 Y100 E46.83547
G1 X109.002 Y100 E47.05517
G1 X109.002 Y100.5 E47.06219
G1 X93.342 Y100.5 E47.28189
G1 X93.342 Y101 E47.2889
G1 X109.002 Y101 E47.50861
G1 X109.002 Y101.5 E47.51562
G1 X93.342 Y101.5 E47.73532
G1 X93.342 Y102 E47.74234
G1 X109.002 Y102 E47.96204
G1 X109.002 Y102.5 E47.96906
G1 X93.342 Y102.5 E48.18876
G1 X93.342 Y103 E48.19577
G1 X109.002 Y103 E48.41548
G1 X109.002 Y103.5 E48.42249
G1 X93.342 Y103.5 E48.64219
G1 X93.342 Y104 E48.64921
G1 X109.002 Y104 E48.86891
G1 X109.002 Y104.5 E48.87592
G1 X93.342 Y104.5 E49.09563
G1 X93.342 Y105 E49.10264
G1 X109.002 Y105 E49.32234
G1 X109.002 Y105.5 E49.32936
G1 X93.342 Y105.5 E49.54906
G1 X93.342 Y106 E49.55608
G1 X109.002 Y106 E49.77578
G1 X109.002 Y106.5 E49.78279
G1 X93.342 Y106.5 E50.0025
G1 X93.342 Y107 E50.00951
G1 X109.002 Y107 E50.22921
G1 X109.002 Y107.5 E50.23623
G1 X93.342 Y107.5 E50.45593
G1 X93.342 Y108 E50.46295
G1 X109.002 Y108 E50.68265
G1 X109.002 Y108.5 E50.68966
G1 X93.342 Y108.5 E50.90937
G1 X93.342 Y109 E50.91638
G1 X109.002 Y109 E51.13608
G1 X109.002 Y109.5 E51.1431
G1 X93.342 Y109.5 E51.3628
G1 X93.342 Y110 E51.36982
G1 X109.002 Y110 E51.58952
G1 X109.002 Y110.5 E51.59653
G1 X93.342 Y110.5 E51.81624
G1 X93.342 Y111 E51.82325
G1 X109.002 Y111 E52.04295
G1 X109.002 Y111.5 E52.04997
G1 X93.342 Y111.5 E52.26967
G1 X93.342 Y112 E52.27669
G1 X109.002 Y112 E52.49639
G1 X109.002 Y112.5 E52.5034
G1 X93.342 Y112.5 E52.72311
G1 X93.342 Y113 E52.73012
G1 X109.002 Y113 E52.94982
G1 X109.002 Y113.5 E52.95684
G1 X93.342 Y113.5 E53.17654
G1 X93.342 Y114 E53.18355
G1 X109.002 Y114 E53.40326
G1 X109.002 Y114.5 E53.41027
G1 X93.342 Y114.5 E53.62997
G1 X93.342 Y114.549 E53.63066
G1 X93.366 Y114.914 E53.63579
G1 X93.384 Y115 E53.63703
G1 X108.963 Y115 E53.85559
G1 X108.855 Y115.434 E53.86187
G1 X108.826 Y115.5 E53.86288
G1 X93.52 Y115.5 E54.07761
G1 X93.627 Y115.768 E54.08166
G1 X93.765 Y116 E54.08545
G1 X108.578 Y116 E54.29327
G1 X108.434 Y116.225 E54.29702
G1 X108.198 Y116.494 E54.30204
G0 F2625 X108.192 Y116.5
G1 F1800 X94.152 Y116.5 E54.49901
G1 X94.158 Y116.506 E54.49913
G1 X94.291 Y116.639 E54.50177
G1 X94.565 Y116.88 E54.50689
G1 X94.751 Y117 E54.51
G1 X107.594 Y117 E54.69018
G1 X107.322 Y117.164 E54.69463
G1 X106.472 Y117.5 E54.70746
G1 X96.132 Y117.5 E54.85252
G1 X96.317 Y117.547 E54.8552
G1 X96.317 Y118 E54.86156
G1 X106.027 Y118 E54.99778
G1 X106.027 Y118.5 E55.0048
G1 X96.317 Y118.5 E55.14102
G1 X96.317 Y119 E55.14804
G1 X106.027 Y119 E55.28427
G1 X106.027 Y119.5 E55.29128
G1 X96.317 Y119.5 E55.42751
G1 X96.317 Y120 E55.43452
G1 X106.027 Y120 E55.57075
G1 X106.027 Y120.5 E55.57776
G1 X96.317 Y120.5 E55.71399
G1 X96.317 Y121 E55.721
G1 X106.027 Y121 E55.85723
G1 X106.027 Y121.5 E55.86425
G1 X96.317 Y121.5 E56.00047
G1 X96.317 Y122 E56.00749
G1 X106.027 Y122 E56.14371
G1 X106.027 Y122.5 E56.15073
G1 X96.317 Y122.5 E56.28696
G1 X96.317 Y122.632 E56.28881
G1 X96.341 Y122.997 E56.29394
G0 F2625 X96.341 Y123
G1 F1800 X105.995 Y123 E56.42938
G1 X105.989 Y123.08 E56.43051
G1 X105.884 Y123.5 E56.43658
G1 X96.462 Y123.5 E56.56877
G1 X96.602 Y123.851 E56.57407
G1 X96.691 Y124 E56.5765
G1 X105.656 Y124 E56.70228
G1 X105.459 Y124.308 E56.70741
G1 X105.29 Y124.5 E56.711
G1 X97.057 Y124.5 E56.8265
G1 X97.133 Y124.589 E56.82814
G1 X97.383 Y124.839 E56.8331
G1 X97.566 Y125 E56.83652
G1 X104.769 Y125 E56.93758
G1 X104.611 Y125.135 E56.94049
G1 X104.23 Y125.363 E56.94672
G1 X103.885 Y125.5 E56.95193
G1 X98.445 Y125.5 E57.02825
G0 F2625 X96.341 Y123
G1 F1800 X96.341 Y122.997 E57.02829
G0 F2625 X108.192 Y116.5
G1 F1800 X108.198 Y116.494 E57.02841
G0 F2625 X107.755 Y92.5
G1 F1800 X94.596 Y92.5 E57.21303
G1 X94.285 Y92.763 E57.21874
G1 X94.146 Y92.902 E57.2215
G0 F2625 X95.753 Y92
G1 F1800 X106.612 Y92 E57.37385
G1 X106.982 Y92.093 E57.3792
G1 X107.404 Y92.275 E57.38565
G1 X107.755 Y92.5 E57.3915
G0 F2625 X106.036 Y91.5
G1 F1800 X96.305 Y91.5 E57.52802
G1 X96.079 Y91.93 E57.53483
G1 X95.753 Y92 E57.53951
G0 F2625 X96.698 Y91
G1 F1800 X105.652 Y91 E57.66513
G1 X105.697 Y91.041 E57.66598
G1 X105.978 Y91.393 E57.6723
G1 X106.036 Y91.5 E57.67401
G0 F2625 X104.993 Y90.5
G1 F1800 X97.36 Y90.5 E57.7811
G1 X97.305 Y90.525 E57.78195
G1 X96.927 Y90.783 E57.78837
G1 X96.698 Y91 E57.79279
G0 F2625 X94.146 Y92.902
;TIME_ELAPSED:78.502486
;LAYER:-3
G0 X94.146 Y92.902 Z1.138
G1 F1800 X93.999 Y93.069 E57.79591
G1 X93.999 Y116.318 E58.12209
G1 X93.855 Y116.149 E58.1252
G1 X93.627 Y115.768 E58.13143
G1 X93.499 Y115.445 E58.13631
G1 X93.499 Y93.938 E58.43804
G0 F2625 X94.146 Y92.902
G1 F1800 X94.285 Y92.763 E58.4408
G1 X94.499 Y92.581 E58.44474
G1 X94.499 Y116.821 E58.78481
G1 X94.565 Y116.88 E58.78606
G1 X94.94 Y117.121 E58.79231
G1 X94.999 Y117.146 E58.79321
G1 X94.999 Y92.246 E59.14254
G1 X95.022 Y92.233 E59.14291
G1 X95.44 Y92.067 E59.14922
G1 X95.499 Y92.054 E59.15007
G1 X95.499 Y117.338 E59.5048
G1 X95.999 Y117.466 E59.51204
G1 X95.999 Y91.947 E59.87006
G1 X96.079 Y91.93 E59.8712
G1 X96.332 Y91.447 E59.87885
G1 X96.499 Y91.225 E59.88275
G1 X96.499 Y123.591 E60.33683
G1 X96.602 Y123.851 E60.34075
G1 X96.83 Y124.232 E60.34698
G1 X96.999 Y124.431 E60.35065
G1 X96.999 Y90.733 E60.82341
G1 X97.305 Y90.525 E60.8286
G1 X97.499 Y90.435 E60.8316
G1 X97.499 Y124.941 E61.31571
G1 X97.657 Y125.08 E61.31866
G1 X97.999 Y125.299 E61.32436
G1 X97.999 Y90.258 E61.81597
G1 X98.132 Y90.222 E61.8179
G1 X98.499 Y90.187 E61.82307
G1 X98.499 Y125.513 E62.31868
G1 X98.885 Y125.61 E62.32426
G1 X98.999 Y125.619 E62.32587
G1 X98.999 Y90.172 E62.82317
G1 X99.499 Y90.172 E62.83019
G1 X99.499 Y125.648 E63.3279
G1 X99.999 Y125.648 E63.33491
G1 X99.999 Y90.172 E63.83263
G1 X100.499 Y90.172 E63.83964
G1 X100.499 Y125.648 E64.33735
G1 X100.999 Y125.648 E64.34437
G1 X100.999 Y90.172 E64.84208
G1 X101.499 Y90.172 E64.84909
G1 X101.499 Y125.648 E65.34681
G1 X101.999 Y125.648 E65.35382
G1 X101.999 Y90.172 E65.85153
G1 X102.499 Y90.172 E65.85855
G1 X102.499 Y125.648 E66.35626
G1 X102.999 Y125.648 E66.36328
G1 X102.999 Y90.172 E66.86099
G1 X103.499 Y90.172 E66.868
G1 X103.499 Y125.598 E67.36501
G1 X103.812 Y125.529 E67.36951
G1 X103.999 Y125.455 E67.37233
G1 X103.999 Y90.198 E67.86697
G1 X104.144 Y90.209 E67.86901
G1 X104.499 Y90.299 E67.87415
G1 X104.499 Y125.203 E68.36384
G1 X104.611 Y125.135 E68.36567
G1 X104.969 Y124.831 E68.37226
G1 X104.999 Y124.801 E68.37286
G1 X104.999 Y90.505 E68.85401
G1 X105.364 Y90.74 E68.86011
G1 X105.499 Y90.863 E68.86267
G1 X105.499 Y124.246 E69.33102
G1 X105.7 Y123.933 E69.33623
G1 X105.88 Y123.517 E69.34259
G1 X105.989 Y123.08 E69.34891
G1 X105.999 Y122.96 E69.3506
G1 X105.999 Y91.433 E69.79291
G1 X106.256 Y91.911 E69.80052
G1 X106.499 Y91.972 E69.80404
G1 X106.499 Y117.49 E70.16205
G1 X106.999 Y117.292 E70.16959
G1 X106.999 Y92.101 E70.52301
G1 X107.404 Y92.275 E70.52919
G1 X107.499 Y92.337 E70.53078
G1 X107.499 Y117.058 E70.87761
G1 X107.703 Y116.935 E70.88095
G1 X107.999 Y116.684 E70.8864
G1 X107.999 Y92.71 E71.22274
G1 X108.048 Y92.752 E71.22364
G1 X108.185 Y92.889 E71.22636
G1 X108.489 Y93.247 E71.23295
G1 X108.499 Y93.264 E71.23323
G1 X108.499 Y116.124 E71.55394
G1 X108.675 Y115.85 E71.55851
G1 X108.855 Y115.434 E71.56487
G1 X108.964 Y114.997 E71.57119
G1 X108.999 Y114.576 E71.57712
G1 X108.999 Y94.802 E71.85454
G0 F2625 X96.843 Y95.449
;TIME_ELAPSED:113.220567
;LAYER:0
G0 X96.843 Y95.449 Z2.062
;TYPE:WALL-INNER
G1 F900 X105.503 Y95.449 E72.14301
G1 X105.503 Y113.949 E72.75925
G1 X96.843 Y113.949 E73.04772
G1 X96.843 Y95.449 E73.66396
G0 F2625 X96.343 Y94.949
;TYPE:WALL-OUTER
G1 F900 X106.003 Y94.949 E73.98573
G1 X106.003 Y114.449 E74.63529
G1 X96.343 Y114.449 E74.95706
G1 X96.343 Y94.949 E75.60662
G0 F2625 X96.593 Y94.949
G0 X97.088 Y95.674
;TYPE:SKIN
G1 F900 X105.277 Y103.863 E75.99238
