;Generated by Cura LulzBot Edition GCodeWriter Version: 2.6.69
;FLAVOR:RepRap
;TIME:2590
;Filament used: 0.370408m
;Layer height: 0.18
;Generated with Cura_SteamEngine 2.6.69
;This G-Code has been generated specifically for the LulzBot TAZ 6 with standard extruder
G26 ; clear potential 'probe fail' condition
G21 ; set units to Millimetres
M107 ; disable fans
G90 ; absolute positioning
M82 ; set extruder to absolute mode
G92 E0 ; set extruder position to 0
M140 S110 ; start bed heating up
G28 XY ; home X and Y
G1 X-19 Y258 F1000 ; move to safe homing position
M109 R175 ; soften filament before homing Z
G28 Z ; home Z
G1 E-30 F100 ; retract filament
M109 R170 ; wait for extruder to reach wiping temp
G1 X-15 Y100 F3000 ; move above wiper pad
G1 Z1 ; push nozzle into wiper
G1 X-17 Y95 F1000 ; slow wipe
G1 X-17 Y90 F1000 ; slow wipe
G1 X-17 Y85 F1000 ; slow wipe
G1 X-15 Y90 F1000 ; slow wipe
G1 X-17 Y80 F1000 ; slow wipe
G1 X-15 Y95 F1000 ; slow wipe
G1 X-17 Y75 F2000 ; fast wipe
G1 X-15 Y65 F2000 ; fast wipe
G1 X-17 Y70 F2000 ; fast wipe
G1 X-15 Y60 F2000 ; fast wipe
G1 X-17 Y55 F2000 ; fast wipe
G1 X-15 Y50 F2000 ; fast wipe
G1 X-17 Y40 F2000 ; fast wipe
G1 X-15 Y45 F2000 ; fast wipe
G1 X-17 Y35 F2000 ; fast wipe
G1 X-15 Y40 F2000 ; fast wipe
G1 X-17 Y70 F2000 ; fast wipe
G1 X-15 Y30 Z2 F2000 ; fast wipe
G1 X-17 Y35 F2000 ; fast wipe
G1 X-15 Y25 F2000 ; fast wipe
G1 X-17 Y30 F2000 ; fast wipe
G1 X-15 Y25 Z1.5 F1000 ; slow wipe
G1 X-17 Y23 F1000 ; slow wipe
G1 Z10 ; raise extruder
M109 R170 ; wait for extruder to reach probe temp
G1 X-9 Y-9 ; move above first probe point
M204 S100 ; set probing acceleration
G29 ; start auto-leveling sequence
M204 S500 ; restore standard acceleration
G1 X0 Y0 Z15 F5000 ; move up off last probe point
G4 S1 ; pause
M400 ; wait for moves to finish
M117 Heating... ; progress indicator message on LCD
M109 R240 ; wait for extruder to reach printing temp
M190 S110 ; wait for bed to reach printing temp
G1 Z2 E0 F75 ; prime tiny bit of filament into the nozzle
M117 TAZ 6 Printing... ; progress indicator message on LCD

M221 S100
;LAYER_COUNT:155
;LAYER:-6
M107
G0 F2625 X133.21 Y133.099 Z0.51
G1 F630 X133.53 Y132.843 E0.03276
G1 X133.883 Y132.647 E0.06504
G1 X134.266 Y132.51 E0.09756
G1 X134.678 Y132.433 E0.13107
G1 X134.933 Y132.42 E0.15148
G1 X145.059 Y132.42 E0.961
G1 X145.487 Y132.456 E0.99534
G1 X145.881 Y132.554 E1.0278
G1 X146.256 Y132.716 E1.06045
G1 X146.598 Y132.936 E1.09296
G1 X146.901 Y133.21 E1.12562
G1 X147.157 Y133.53 E1.15838
G1 X147.353 Y133.883 E1.19066
G1 X147.49 Y134.266 E1.22318
G1 X147.567 Y134.678 E1.25669
G1 X147.58 Y134.926 E1.27654
G1 X147.58 Y145.059 E2.08662
G1 X147.544 Y145.487 E2.12096
G1 X147.446 Y145.881 E2.15342
G1 X147.284 Y146.256 E2.18608
G1 X147.064 Y146.598 E2.21858
G1 X146.79 Y146.901 E2.25124
G1 X146.47 Y147.157 E2.284
G1 X146.117 Y147.353 E2.31628
G1 X145.734 Y147.49 E2.3488
G1 X145.322 Y147.567 E2.38231
G1 X145.068 Y147.58 E2.40264
G1 X134.941 Y147.58 E3.21224
G1 X134.513 Y147.544 E3.24658
G1 X134.119 Y147.446 E3.27904
G1 X133.744 Y147.284 E3.3117
G1 X133.402 Y147.064 E3.34421
G1 X133.099 Y146.79 E3.37687
G1 X132.843 Y146.47 E3.40963
G1 X132.647 Y146.117 E3.44191
G1 X132.51 Y145.734 E3.47442
G1 X132.433 Y145.322 E3.50793
G1 X132.42 Y145.074 E3.52779
G1 X132.42 Y134.941 E4.33787
G1 X132.456 Y134.513 E4.3722
G1 X132.554 Y134.119 E4.40466
G1 X132.716 Y133.744 E4.43732
G1 X132.936 Y133.402 E4.46983
G1 X133.21 Y133.099 E4.50249
G0 F2625 X134 Y132.605
G1 F630 X134 Y147.394 E5.68479
G0 F2625 X136 Y147.58
G1 F630 X136 Y132.42 E6.89676
G0 F2625 X138 Y132.42
G1 F630 X138 Y147.58 E8.10872
G0 F2625 X140 Y147.58
G1 F630 X140 Y132.42 E9.32068
G0 F2625 X142 Y132.42
G1 F630 X142 Y147.58 E10.53265
G0 F2625 X144 Y147.58
G1 F630 X144 Y132.42 E11.74461
G0 F2625 X146 Y132.606
M104 S240
G1 F630 X146 Y147.395 E12.92692
G0 F2625 X133.209 Y133.098
;TIME_ELAPSED:20.963299
;LAYER:-5
M140 S110
M221 S100
G0 X133.209 Y133.098 Z0.78
;TYPE:SUPPORT
G1 F686.3 X133.156 Y133.156 E12.93024
G1 X146.842 Y146.842 E13.74942
G1 X146.789 Y146.9 E13.75274
G1 X146.47 Y147.155 E13.77003
G1 X146.117 Y147.351 E13.78711
G1 X145.777 Y147.472 E13.80239
G1 X132.527 Y134.223 E14.59544
G1 X132.455 Y134.512 E14.60804
G1 X132.419 Y134.94 E14.62622
G1 X132.419 Y135.811 E14.66308
G1 X144.188 Y147.579 E15.36748
G1 X142.492 Y147.579 E15.43927
G1 X132.419 Y137.506 E16.04218
G1 X132.419 Y139.202 E16.11396
G1 X140.796 Y147.579 E16.61537
G1 X139.101 Y147.579 E16.68711
G1 X132.419 Y140.898 E17.08703
G1 X132.419 Y142.593 E17.15877
G1 X137.405 Y147.579 E17.4572
G1 X135.71 Y147.579 E17.52894
G1 X132.419 Y144.289 E17.72589
G1 X132.419 Y145.072 E17.75903
G1 X132.433 Y145.321 E17.76959
G1 X132.51 Y145.733 E17.78733
G1 X132.646 Y146.115 E17.80449
G1 X132.767 Y146.332 E17.815
G1 X133.671 Y147.236 E17.86911
G0 F2625 X147.472 Y145.776
G1 F686.3 X134.222 Y132.526 E18.66219
G1 X133.882 Y132.647 E18.67746
G1 X133.529 Y132.843 E18.69455
G1 X133.209 Y133.098 E18.71187
G0 F2625 X135.811 Y132.42
G1 F686.3 X147.579 Y144.188 E19.41624
G1 X147.579 Y145.059 E19.45311
G1 X147.543 Y145.487 E19.47128
G1 X147.472 Y145.776 E19.48388
G0 F2625 X147.579 Y142.492
G1 F686.3 X137.507 Y132.42 E20.08674
G1 X135.811 Y132.42 E20.15852
G0 F2625 X139.203 Y132.42
G1 F686.3 X147.579 Y140.796 E20.65986
G1 X147.579 Y142.492 E20.73164
G0 F2625 X147.579 Y139.101
G1 F686.3 X140.898 Y132.42 E21.13153
G1 X139.203 Y132.42 E21.20327
G0 F2625 X142.594 Y132.42
G1 F686.3 X147.579 Y137.405 E21.50165
G1 X147.579 Y139.101 E21.57343
G0 F2625 X147.579 Y135.71
G1 F686.3 X144.29 Y132.42 E21.77032
G1 X142.594 Y132.42 E21.8421
G0 F2625 X146.327 Y132.762
G1 F686.3 X147.232 Y133.667 E21.89627
G1 X147.351 Y133.882 E21.90667
G1 X147.489 Y134.266 E21.92394
G1 X147.566 Y134.678 E21.94168
G1 X147.578 Y134.925 E21.95215
G1 X147.579 Y135.71 E21.98537
G0 F2625 X133.036 Y132.915
;TIME_ELAPSED:41.517025
;LAYER:-4
G0 X133.036 Y132.915 Z0.959
G1 F1521.6 X132.96 Y133 E21.98697
G1 X147.044 Y133 E22.18456
G1 X147.083 Y133.036 E22.18531
G1 X147.362 Y133.386 E22.19159
G1 X147.426 Y133.5 E22.19342
G1 X132.574 Y133.5 E22.40179
G1 X132.496 Y133.621 E22.40381
G1 X132.333 Y134 E22.4096
G1 X147.66 Y134 E22.62463
G1 X147.732 Y134.202 E22.62764
G1 X147.788 Y134.5 E22.63189
G1 X132.205 Y134.5 E22.85051
G1 X132.169 Y134.932 E22.85659
G1 X132.169 Y135 E22.85755
G1 X147.829 Y135 E23.07725
G1 X147.829 Y135.5 E23.08427
G1 X132.169 Y135.5 E23.30397
G1 X132.169 Y136 E23.31098
G1 X147.829 Y136 E23.53069
G1 X147.829 Y136.5 E23.5377
G1 X132.169 Y136.5 E23.7574
G1 X132.169 Y137 E23.76442
G1 X147.829 Y137 E23.98412
G1 X147.829 Y137.5 E23.99114
G1 X132.169 Y137.5 E24.21084
G1 X132.169 Y138 E24.21785
G1 X147.829 Y138 E24.43756
G1 X147.829 Y138.5 E24.44457
G1 X132.169 Y138.5 E24.66427
G1 X132.169 Y139 E24.67129
G1 X147.829 Y139 E24.89099
G1 X147.829 Y139.5 E24.898
G1 X132.169 Y139.5 E25.11771
G1 X132.169 Y140 E25.12472
G1 X147.829 Y140 E25.34442
G1 X147.829 Y140.5 E25.35144
G1 X132.169 Y140.5 E25.57114
G1 X132.169 Y141 E25.57816
G1 X147.829 Y141 E25.79786
G1 X147.829 Y141.5 E25.80487
G1 X132.169 Y141.5 E26.02458
G1 X132.169 Y142 E26.03159
G1 X147.829 Y142 E26.25129
G1 X147.829 Y142.5 E26.25831
G1 X132.169 Y142.5 E26.47801
G1 X132.169 Y143 E26.48503
G1 X147.829 Y143 E26.70473
G1 X147.829 Y143.5 E26.71174
G1 X132.169 Y143.5 E26.93145
G1 X132.169 Y144 E26.93846
G1 X147.829 Y144 E27.15816
G1 X147.829 Y144.5 E27.16518
G1 X132.169 Y144.5 E27.38488
G1 X132.169 Y145 E27.3919
G1 X147.829 Y145 E27.6116
G1 X147.829 Y145.066 E27.61252
G1 X147.792 Y145.5 E27.61864
G1 X132.21 Y145.5 E27.83724
G1 X132.266 Y145.796 E27.84147
G1 X132.339 Y146 E27.84451
G1 X147.665 Y146 E28.05953
G1 X147.502 Y146.377 E28.06529
G1 X147.422 Y146.5 E28.06735
G1 X132.573 Y146.5 E28.27567
G1 X132.636 Y146.612 E28.27747
G1 X132.915 Y146.962 E28.28375
G1 X132.957 Y147 E28.28455
G1 X147.036 Y147 E28.48207
G1 X146.962 Y147.083 E28.48363
G1 X146.612 Y147.362 E28.48991
G1 X146.363 Y147.5 E28.4939
G1 X133.617 Y147.5 E28.67272
G0 F2625 X133.036 Y132.915
G1 F1521.6 X133.386 Y132.636 E28.679
G1 X133.632 Y132.5 E28.68295
G1 X146.384 Y132.5 E28.86185
G0 F2625 X133.036 Y132.915
;TIME_ELAPSED:62.205829
;LAYER:-3
G0 X133.036 Y132.915 Z1.138
G1 F1494.7 X132.999 Y132.955 E28.86262
G1 X132.999 Y147.037 E29.06018
G1 X132.915 Y146.962 E29.06176
G1 X132.636 Y146.612 E29.06804
G1 X132.499 Y146.365 E29.072
G1 X132.499 Y133.616 E29.25087
G0 F2625 X133.036 Y132.915
G1 F1494.7 X133.386 Y132.636 E29.25715
G1 X133.499 Y132.573 E29.25896
G1 X133.499 Y147.423 E29.4673
G1 X133.621 Y147.502 E29.46934
G1 X133.999 Y147.665 E29.47511
G1 X133.999 Y132.339 E29.69013
G1 X134.202 Y132.266 E29.69316
G1 X134.499 Y132.21 E29.6974
G1 X134.499 Y147.793 E29.91602
G1 X134.932 Y147.829 E29.92212
G1 X134.999 Y147.829 E29.92306
G1 X134.999 Y132.169 E30.14276
G1 X135.499 Y132.169 E30.14977
G1 X135.499 Y147.829 E30.36947
G1 X135.999 Y147.829 E30.37649
G1 X135.999 Y132.169 E30.59619
G1 X136.499 Y132.169 E30.60321
G1 X136.499 Y147.829 E30.82291
G1 X136.999 Y147.829 E30.82992
G1 X136.999 Y132.169 E31.04963
G1 X137.499 Y132.169 E31.05664
G1 X137.499 Y147.829 E31.27634
G1 X137.999 Y147.829 E31.28336
G1 X137.999 Y132.169 E31.50306
G1 X138.499 Y132.169 E31.51008
G1 X138.499 Y147.829 E31.72978
G1 X138.999 Y147.829 E31.73679
G1 X138.999 Y132.169 E31.9565
G1 X139.499 Y132.169 E31.96351
G1 X139.499 Y147.829 E32.18321
G1 X139.999 Y147.829 E32.19023
G1 X139.999 Y132.169 E32.40993
G1 X140.499 Y132.169 E32.41695
G1 X140.499 Y147.829 E32.63665
G1 X140.999 Y147.829 E32.64366
G1 X140.999 Y132.169 E32.86337
G1 X141.499 Y132.169 E32.87038
G1 X141.499 Y147.829 E33.09008
G1 X141.999 Y147.829 E33.0971
G1 X141.999 Y132.169 E33.3168
G1 X142.499 Y132.169 E33.32382
G1 X142.499 Y147.829 E33.54352
G1 X142.999 Y147.829 E33.55053
G1 X142.999 Y132.169 E33.77024
G1 X143.499 Y132.169 E33.77725
G1 X143.499 Y147.829 E33.99695
G1 X143.999 Y147.829 E34.00397
G1 X143.999 Y132.169 E34.22367
G1 X144.499 Y132.169 E34.23068
G1 X144.499 Y147.829 E34.45039
G1 X144.999 Y147.829 E34.4574
G1 X144.999 Y132.169 E34.6771
G0 F2625 X145.066 Y132.169
G1 F1494.7 X145.499 Y132.205 E34.6832
G1 X145.499 Y147.788 E34.90182
G1 X145.796 Y147.732 E34.90606
G1 X145.999 Y147.659 E34.90909
G1 X145.999 Y132.333 E35.12411
G1 X146.377 Y132.496 E35.12988
G1 X146.499 Y132.575 E35.13192
G1 X146.499 Y147.425 E35.34026
G1 X146.612 Y147.362 E35.34207
G1 X146.962 Y147.083 E35.34835
G1 X146.999 Y147.043 E35.34912
G1 X146.999 Y132.961 E35.54668
G1 X147.083 Y133.036 E35.54826
G1 X147.362 Y133.386 E35.55454
G1 X147.499 Y133.633 E35.5585
G1 X147.499 Y146.382 E35.73737
G0 F2625 X135.67 Y135.67
;TIME_ELAPSED:82.937568
;LAYER:0
G0 X135.67 Y135.67 Z2.062
;TYPE:WALL-INNER
G1 F600 X144.33 Y135.67 E36.02583
G1 X144.33 Y144.33 E36.3143
G1 X135.67 Y144.33 E36.60277
G1 X135.67 Y135.67 E36.89124
G0 F2625 X136.25 Y136.25
G1 F600 X136.25 Y143.75 E37.14107
G1 X143.75 Y143.75 E37.39089
G1 X143.75 Y136.25 E37.64072
G1 X136.25 Y136.25 E37.89055
G0 F2625 X136.75 Y136.75
;TYPE:WALL-OUTER
G1 F600 X136.75 Y143.25 E38.10707
G1 X143.25 Y143.25 E38.32358
G1 X143.25 Y136.75 E38.5401
G1 X136.75 Y136.75 E38.75662
G0 F2625 X136.75 Y137
G0 X136.15 Y137
G0 X135.74 Y135.74
G0 X135.17 Y135.17
G1 F600 X144.83 Y135.17 E39.0784
G1 X144.83 Y144.83 E39.40017
G1 X135.17 Y144.83 E39.72195
G1 X135.17 Y135.17 E40.04373
G0 F2625 X135.42 Y135.17
G0 X135.959 Y135.959
G1 F600 X136.666 Y135.959 E40.04985
G1 X137.373 Y135.959 E40.05598
G1 X138.08 Y135.959 E40.0621
G1 X138.788 Y135.959 E40.06823
G1 X139.495 Y135.959 E40.07435
G1 X140.202 Y135.959 E40.08048
G1 X140.909 Y135.959 E40.0866
G1 X141.616 Y135.959 E40.09272
G1 X142.323 Y135.959 E40.09885
G1 X143.03 Y135.959 E40.10497
G1 X143.737 Y135.959 E40.11109
G0 F2625 X144.039 Y136.26
G1 F600 X144.039 Y136.967 E40.11722
G1 X144.039 Y137.675 E40.12335
G1 X144.039 Y138.382 E40.12947
G1 X144.039 Y139.089 E40.13559
G1 X144.039 Y139.796 E40.14172
G1 X144.039 Y140.503 E40.14784
G1 X144.039 Y141.21 E40.15396
G1 X144.039 Y141.917 E40.16009
G1 X144.039 Y142.624 E40.16621
G1 X144.039 Y143.331 E40.17233
G1 X144.039 Y144.039 E40.17847
G1 X143.332 Y144.039 E40.18459
G1 X142.624 Y144.039 E40.19072
G1 X141.917 Y144.039 E40.19684
G1 X141.21 Y144.039 E40.20297
G1 X140.503 Y144.039 E40.20909
G1 X139.796 Y144.039 E40.21521
G1 X139.089 Y144.039 E40.22134
G1 X138.382 Y144.039 E40.22746
G1 X137.675 Y144.039 E40.23358
G1 X136.968 Y144.039 E40.2397
G1 X136.26 Y144.039 E40.24584
G0 F2625 X135.959 Y143.737
G1 F600 X135.959 Y143.03 E40.25196
G1 X135.959 Y142.323 E40.25808
G1 X135.959 Y141.616 E40.26421
G1 X135.959 Y140.909 E40.27033
G1 X135.959 Y140.202 E40.27645
G1 X135.959 Y139.495 E40.28258
G1 X135.959 Y138.788 E40.2887
G1 X135.959 Y138.08 E40.29483
G1 X135.959 Y137.373 E40.30095
G1 X135.959 Y136.666 E40.30708
G0 F2625 X135.75 Y136.601
G0 X135.67 Y135.67
;TIME_ELAPSED:99.733396
;LAYER:1
M106 S31.9
G0 F6562.5 X135.67 Y135.67 Z1.741
;TYPE:WALL-INNER
G1 F666.7 X144.33 Y135.67 E40.42925
G1 X144.33 Y144.33 E40.55143
G1 X135.67 Y144.33 E40.6736
G1 X135.67 Y135.67 E40.79577
G0 F6562.5 X136.25 Y136.25
G1 F666.7 X136.25 Y143.75 E40.90158
G1 X143.75 Y143.75 E41.00739
G1 X143.75 Y136.25 E41.1132
G1 X136.25 Y136.25 E41.21901
G0 F6562.5 X136.75 Y136.75
;TYPE:WALL-OUTER
G1 F600 X136.75 Y143.25 E41.31071
G1 X143.25 Y143.25 E41.40242
G1 X143.25 Y136.75 E41.49412
G1 X136.75 Y136.75 E41.58582
G0 F6562.5 X136.75 Y137
G0 X136.15 Y137
G0 X135.74 Y135.74
G0 X135.17 Y135.17
G1 F600 X144.83 Y135.17 E41.7221
G1 X144.83 Y144.83 E41.85838
G1 X135.17 Y144.83 E41.99467
G1 X135.17 Y135.17 E42.13095
G0 F6562.5 X135.42 Y135.17
G0 X135.74 Y135.74
G0 X136.211 Y136.024
;TYPE:SKIN
G1 F600 X136.341 Y135.894 E42.13354
G0 F6562.5 X135.959 Y136.276
G1 F600 X135.959 Y136.983 E42.13613
G1 X135.959 Y137.69 E42.13873
G1 X135.959 Y138.397 E42.14132
G1 X135.959 Y139.104 E42.14391
G1 X135.959 Y139.811 E42.14651
G1 X135.959 Y140.519 E42.14911
G1 X135.959 Y141.226 E42.1517
G1 X135.959 Y141.933 E42.15429
G1 X135.959 Y142.64 E42.15689
G1 X135.959 Y143.347 E42.15948
G1 X135.974 Y144.039 E42.16206
G1 X136.681 Y144.039 E42.16465
G1 X137.388 Y144.039 E42.16724
G1 X138.095 Y144.039 E42.16984
G1 X138.802 Y144.039 E42.17243
G1 X139.509 Y144.039 E42.17502
G1 X140.217 Y144.039 E42.17762
G1 X140.924 Y144.039 E42.18021
G1 X141.631 Y144.039 E42.18281
G1 X142.338 Y144.039 E42.1854
G1 X143.045 Y144.039 E42.18799
G1 X143.752 Y144.039 E42.19059
G0 F6562.5 X144.039 Y143.752
G1 F600 X144.039 Y143.045 E42.19318
G1 X144.039 Y142.338 E42.19577
G1 X144.039 Y141.631 E42.19837
G1 X144.039 Y140.924 E42.20096
G1 X144.039 Y140.217 E42.20355
G1 X144.039 Y139.51 E42.20615
G1 X144.039 Y138.802 E42.20874
G1 X144.039 Y138.095 E42.21134
G1 X144.039 Y137.388 E42.21393
G1 X144.039 Y136.681 E42.21652
G1 X144.039 Y135.974 E42.21912
G1 X143.347 Y135.959 E42.22168
G1 X142.64 Y135.959 E42.22427
G1 X141.933 Y135.959 E42.22686
G1 X141.226 Y135.959 E42.22946
G1 X140.519 Y135.959 E42.23205
G1 X139.811 Y135.959 E42.23465
G1 X139.104 Y135.959 E42.23724
G1 X138.397 Y135.959 E42.23983
G1 X137.69 Y135.959 E42.24243
G1 X136.983 Y135.959 E42.24502
G0 F6562.5 X136.918 Y136.17
G0 X136.918 Y136.15
G0 X135.74 Y135.74
G0 X135.67 Y135.67
;TIME_ELAPSED:115.791978
;LAYER:2
M106 S63.8
G0 F10500 X135.67 Y135.67 Z1.92
;TYPE:WALL-INNER
G1 F700 X144.33 Y135.67 E42.36719
G1 X144.33 Y144.33 E42.48937
G1 X135.67 Y144.33 E42.61154
G1 X135.67 Y135.67 E42.73372
G0 F10500 X136.25 Y136.25
G1 F700 X136.25 Y143.75 E42.83953
G1 X143.75 Y143.75 E42.94534
G1 X143.75 Y136.25 E43.05115
G1 X136.25 Y136.25 E43.15695
G0 F10500 X136.75 Y136.75
;TYPE:WALL-OUTER
G1 F600 X136.75 Y143.25 E43.24866
G1 X143.25 Y143.25 E43.34036
G1 X143.25 Y136.75 E43.43206
G1 X136.75 Y136.75 E43.52376
G0 F10500 X136.75 Y137
G0 X136.15 Y137
G0 X135.74 Y135.74
G0 X135.17 Y135.17
G1 F600 X144.83 Y135.17 E43.66004
G1 X144.83 Y144.83 E43.79633
G1 X135.17 Y144.83 E43.93261
G1 X135.17 Y135.17 E44.06889
G0 F10500 X135.42 Y135.17
G0 X135.959 Y135.959
G1 F600 X136.666 Y135.959 E44.07148
G1 X137.373 Y135.959 E44.07408
G1 X138.08 Y135.959 E44.07667
G1 X138.788 Y135.959 E44.07927
G1 X139.495 Y135.959 E44.08186
G1 X140.202 Y135.959 E44.08445
