;Generated by Cura LulzBot Edition GCodeWriter Version: 2.6.69
;FLAVOR:RepRap
;TIME:1586
;Filament used: 0.403956m
;Layer height: 0.18
;Generated with Cura_SteamEngine 2.6.69
;This G-Code has been generated specifically for the LulzBot TAZ 6 with standard extruder
G26 ; clear potential 'probe fail' condition
G21 ; set units to Millimetres
M107 ; disable fans
G90 ; absolute positioning
M82 ; set extruder to absolute mode
G92 E0 ; set extruder position to 0
M140 S110 ; start bed heating up
G28 XY ; home X and Y
G1 X-19 Y258 F1000 ; move to safe homing position
M109 R175 ; soften filament before homing Z
G28 Z ; home Z
G1 E-30 F100 ; retract filament
M109 R170 ; wait for extruder to reach wiping temp
G1 X-15 Y100 F3000 ; move above wiper pad
G1 Z1 ; push nozzle into wiper
G1 X-17 Y95 F1000 ; slow wipe
G1 X-17 Y90 F1000 ; slow wipe
G1 X-17 Y85 F1000 ; slow wipe
G1 X-15 Y90 F1000 ; slow wipe
G1 X-17 Y80 F1000 ; slow wipe
G1 X-15 Y95 F1000 ; slow wipe
G1 X-17 Y75 F2000 ; fast wipe
G1 X-15 Y65 F2000 ; fast wipe
G1 X-17 Y70 F2000 ; fast wipe
G1 X-15 Y60 F2000 ; fast wipe
G1 X-17 Y55 F2000 ; fast wipe
G1 X-15 Y50 F2000 ; fast wipe
G1 X-17 Y40 F2000 ; fast wipe
G1 X-15 Y45 F2000 ; fast wipe
G1 X-17 Y35 F2000 ; fast wipe
G1 X-15 Y40 F2000 ; fast wipe
G1 X-17 Y70 F2000 ; fast wipe
G1 X-15 Y30 Z2 F2000 ; fast wipe
G1 X-17 Y35 F2000 ; fast wipe
G1 X-15 Y25 F2000 ; fast wipe
G1 X-17 Y30 F2000 ; fast wipe
G1 X-15 Y25 Z1.5 F1000 ; slow wipe
G1 X-17 Y23 F1000 ; slow wipe
G1 Z10 ; raise extruder
M109 R170 ; wait for extruder to reach probe temp
G1 X-9 Y-9 ; move above first probe point
M204 S100 ; set probing acceleration
G29 ; start auto-leveling sequence
M204 S500 ; restore standard acceleration
G1 X0 Y0 Z15 F5000 ; move up off last probe point
G4 S1 ; pause
M400 ; wait for moves to finish
M117 Heating... ; progress indicator message on LCD
M109 R240 ; wait for extruder to reach printing temp
M190 S110 ; wait for bed to reach printing temp
G1 Z2 E0 F75 ; prime tiny bit of filament into the nozzle
M117 TAZ 6 Printing... ; progress indicator message on LCD

M221 S100
;LAYER_COUNT:144
;LAYER:-6
M107
G0 F2625 X122.344 Y123.089 Z0.51
G1 F1350 X123.229 Y122.214 E0.09949
G1 X124.163 Y121.399 E0.19859
G1 X125.145 Y120.648 E0.29742
G1 X126.164 Y119.963 E0.39558
G1 X127.219 Y119.351 E0.49309
G1 X128.325 Y118.796 E0.59202
G1 X129.46 Y118.317 E0.6905
G1 X130.643 Y117.901 E0.79076
G1 X131.805 Y117.575 E0.88724
G1 X133.02 Y117.315 E0.98657
G1 X134.261 Y117.13 E1.08688
G1 X135.451 Y117.029 E1.18235
G1 X136.526 Y117 E1.26833
G1 X143.499 Y117 E1.82578
G1 X144.73 Y117.039 E1.92424
G1 X145.949 Y117.156 E2.02214
G1 X147.175 Y117.35 E2.12138
G1 X148.386 Y117.623 E2.22062
G1 X149.567 Y117.969 E2.319
G1 X150.72 Y118.387 E2.41705
G1 X151.858 Y118.882 E2.51626
G1 X152.945 Y119.441 E2.61398
G1 X154.011 Y120.077 E2.71321
G1 X155.027 Y120.773 E2.81167
G1 X156.012 Y121.543 E2.91162
G1 X156.911 Y122.344 E3.00788
G1 X157.786 Y123.229 E3.10737
G1 X158.601 Y124.163 E3.20647
G1 X159.351 Y125.143 E3.30513
G1 X160.037 Y126.164 E3.40347
G1 X160.649 Y127.219 E3.50097
G1 X161.204 Y128.325 E3.5999
G1 X161.683 Y129.46 E3.69838
G1 X162.101 Y130.647 E3.79899
G1 X162.424 Y131.799 E3.89464
G1 X162.685 Y133.02 E3.99446
G1 X162.871 Y134.265 E4.09509
G1 X162.971 Y135.443 E4.18961
G1 X163 Y136.513 E4.27518
G1 X163 Y143.5 E4.83375
G1 X162.961 Y144.73 E4.93214
G1 X162.844 Y145.949 E5.03004
G1 X162.65 Y147.175 E5.12927
G1 X162.377 Y148.386 E5.22851
G1 X162.031 Y149.567 E5.32689
G1 X161.613 Y150.72 E5.42494
G1 X161.118 Y151.858 E5.52415
G1 X160.559 Y152.945 E5.62187
G1 X159.923 Y154.011 E5.72111
G1 X159.227 Y155.027 E5.81956
G1 X158.46 Y156.009 E5.91918
G1 X157.656 Y156.911 E6.01577
G1 X156.771 Y157.786 E6.11527
G1 X155.837 Y158.601 E6.21437
G1 X154.857 Y159.351 E6.31302
G1 X153.836 Y160.037 E6.41136
G1 X152.781 Y160.649 E6.50887
G1 X151.675 Y161.204 E6.60779
G1 X150.54 Y161.683 E6.70628
G1 X149.357 Y162.099 E6.80653
G1 X148.195 Y162.425 E6.90301
G1 X146.98 Y162.685 E7.00235
G1 X145.739 Y162.87 E7.10265
G1 X144.549 Y162.971 E7.19813
G1 X143.474 Y163 E7.2841
G1 X136.501 Y163 E7.84156
G1 X135.27 Y162.961 E7.94002
G1 X134.051 Y162.844 E8.03792
G1 X132.825 Y162.65 E8.13715
G1 X131.614 Y162.377 E8.23639
G1 X130.433 Y162.031 E8.33478
G1 X129.28 Y161.613 E8.43282
G1 X128.142 Y161.118 E8.53204
G1 X127.055 Y160.559 E8.62975
G1 X125.989 Y159.923 E8.72899
G1 X124.973 Y159.227 E8.82744
G1 X123.988 Y158.457 E8.9274
G1 X123.089 Y157.656 E9.02366
G1 X122.214 Y156.771 E9.12315
G1 X121.399 Y155.837 E9.22225
G1 X120.649 Y154.857 E9.3209
G1 X119.963 Y153.836 E9.41924
G1 X119.351 Y152.781 E9.51675
G1 X118.796 Y151.675 E9.61567
G1 X118.317 Y150.54 E9.71416
G1 X117.899 Y149.353 E9.81477
G1 X117.575 Y148.195 E9.9109
G1 X117.315 Y146.98 E10.01023
G1 X117.129 Y145.735 E10.11087
G1 X117.029 Y144.549 E10.20602
G1 X117 Y143.487 E10.29095
G1 X117 Y136.5 E10.84953
G1 X117.039 Y135.27 E10.94791
G1 X117.156 Y134.051 E11.04581
G1 X117.35 Y132.825 E11.14504
G1 X117.623 Y131.614 E11.24428
G1 X117.969 Y130.433 E11.34267
G1 X118.389 Y129.276 E11.44107
G1 X118.882 Y128.142 E11.53992
G1 X119.441 Y127.055 E11.63764
G1 X120.077 Y125.989 E11.73688
G1 X120.773 Y124.973 E11.83533
G1 X121.543 Y123.988 E11.93528
G1 X122.344 Y123.089 E12.03154
G0 F2625 X122 Y123.475
G1 F1350 X122 Y156.525 E14.67372
G0 F2625 X124 Y158.466
G1 F1350 X124 Y121.541 E17.62568
G0 F2625 X126 Y120.073
G1 F1350 X126 Y159.929 E20.81197
G0 F2625 X128 Y161.044
G1 F1350 X128 Y118.959 E24.17645
G0 F2625 X130 Y118.127
G1 F1350 X130 Y161.874 E27.67379
G0 F2625 X132 Y162.464
G1 F1350 X132 Y117.533 E31.2658
G0 F2625 X134 Y117.168
G1 F1350 X134 Y162.835 E34.91664
G0 F2625 X136 Y162.984
G1 F1350 X136 Y117.014 E38.5917
G0 F2625 X138 Y117
G1 F1350 X138 Y163 E42.26917
G0 F2625 X140 Y163
G1 F1350 X140 Y117 E45.94663
G0 F2625 X142 Y117
G1 F1350 X142 Y163 E49.6241
G0 F2625 X144 Y162.986
G1 F1350 X144 Y117.016 E53.29916
G0 F2625 X146 Y117.165
G1 F1350 X146 Y162.832 E56.95
G0 F2625 X148 Y162.467
G1 F1350 X148 Y117.536 E60.54201
G0 F2625 X150 Y118.126
G1 F1350 X150 Y161.873 E64.03935
G0 F2625 X152 Y161.041
G1 F1350 X152 Y118.956 E67.40383
G0 F2625 X154 Y120.071
G1 F1350 X154 Y159.927 E70.59012
G0 F2625 X156 Y158.459
G1 F1350 X156 Y121.534 E73.54208
G0 F2625 X158 Y123.475
G1 F1350 X158 Y156.526 E76.18434
G0 F2625 X160 Y153.882
G1 F1350 X160 Y126.109 E78.40465
G0 F2625 X162 Y130.361
G1 F1350 X162 Y149.653 E79.94694
G0 F2625 X120 Y153.891
G1 F1350 X120 Y126.118 E82.16725
M104 S240
G0 F2625 X118 Y130.347
G1 F1350 X118 Y149.639 E83.70955
G0 F2625 X122.718 Y122.718
;TIME_ELAPSED:54.496890
;LAYER:-5
M140 S110
M221 S100
G0 X122.718 Y122.718 Z0.78
;TYPE:SUPPORT
G1 F1350 X123.228 Y122.214 E83.7399
G1 X123.592 Y121.896 E83.76035
G1 X158.104 Y156.408 E85.82606
G1 X158.459 Y156.008 E85.8487
G1 X158.872 Y155.481 E85.87704
G1 X124.518 Y121.127 E87.93329
G1 X125.143 Y120.647 E87.96664
G1 X125.498 Y120.411 E87.98468
G1 X159.587 Y154.5 E90.02507
G1 X159.922 Y154.01 E90.0502
G1 X160.248 Y153.465 E90.07707
G1 X126.532 Y119.749 E92.09514
G1 X127.218 Y119.351 E92.12871
G1 X127.625 Y119.147 E92.14798
G1 X160.851 Y152.373 E94.13671
G1 X161.117 Y151.858 E94.16124
G1 X161.395 Y151.221 E94.19066
G1 X128.778 Y118.604 E96.14294
G1 X129.459 Y118.316 E96.17424
G1 X129.997 Y118.127 E96.19837
G1 X161.873 Y150.003 E98.10631
G1 X162.03 Y149.567 E98.12592
G1 X162.28 Y148.715 E98.1635
G1 X131.286 Y117.721 E100.01864
G1 X131.804 Y117.574 E100.04143
G1 X132.653 Y117.393 E100.07817
G1 X162.61 Y147.349 E101.87121
G1 X162.649 Y147.175 E101.87876
G1 X162.843 Y145.948 E101.93133
G1 X162.848 Y145.892 E101.93371
G1 X134.109 Y117.152 E103.65391
G1 X134.26 Y117.13 E103.66037
G1 X135.45 Y117.029 E103.71092
G1 X135.675 Y117.023 E103.72044
G1 X162.973 Y144.321 E105.35436
G1 X162.999 Y143.5 E105.38912
G1 X162.999 Y142.651 E105.42506
G1 X137.347 Y117 E106.96042
G1 X139.043 Y117 E107.0322
G1 X162.999 Y140.956 E108.46609
G1 X162.999 Y139.26 E108.53787
G1 X140.738 Y117 E109.87027
G1 X142.434 Y117 E109.94205
G1 X162.999 Y137.564 E111.17293
G1 X162.999 Y136.512 E111.21746
G1 X162.981 Y135.851 E111.24544
G1 X144.151 Y117.021 E112.37251
G1 X144.729 Y117.038 E112.39698
G1 X145.948 Y117.156 E112.44882
G1 X145.989 Y117.163 E112.45058
G1 X162.831 Y134.005 E113.45865
G1 X162.684 Y133.02 E113.5008
G1 X162.452 Y131.93 E113.54797
G1 X148.075 Y117.553 E114.4085
G1 X148.384 Y117.622 E114.4219
G1 X149.566 Y117.968 E114.47403
G1 X150.539 Y118.322 E114.51785
G1 X161.686 Y129.469 E115.18505
G1 X161.682 Y129.459 E115.18551
G1 X161.202 Y128.325 E115.23762
G1 X160.648 Y127.219 E115.28998
G1 X160.035 Y126.164 E115.34162
G1 X159.952 Y126.039 E115.34797
G1 X153.961 Y120.048 E115.70656
G0 F2625 X122.718 Y122.718
G1 F1350 X157.281 Y157.281 E117.77532
G1 X156.771 Y157.785 E117.80567
G1 X156.407 Y158.102 E117.8261
G1 X121.895 Y123.59 E119.89181
G1 X121.543 Y123.986 E119.91423
G1 X121.127 Y124.518 E119.94282
G1 X155.48 Y158.872 E121.99904
G1 X154.857 Y159.35 E122.03227
G1 X154.501 Y159.588 E122.0504
G1 X120.411 Y125.498 E124.09085
G1 X120.076 Y125.988 E124.11597
G1 X119.75 Y126.533 E124.14285
G1 X153.466 Y160.249 E126.16091
G1 X152.781 Y160.648 E126.19447
G1 X152.373 Y160.851 E126.21375
G1 X119.146 Y127.624 E128.20255
G1 X118.882 Y128.141 E128.22712
G1 X118.604 Y128.778 E128.25653
G1 X151.22 Y161.394 E130.20876
G1 X150.54 Y161.682 E130.24001
G1 X150.002 Y161.871 E130.26415
G1 X118.126 Y129.995 E132.17208
G1 X117.968 Y130.432 E132.19175
G1 X117.719 Y131.284 E132.22932
G1 X148.713 Y162.278 E134.08446
G1 X148.194 Y162.424 E134.10728
G1 X147.345 Y162.606 E134.14402
G1 X117.388 Y132.649 E135.9371
G1 X117.35 Y132.824 E135.94467
G1 X117.156 Y134.05 E135.99721
G1 X117.15 Y134.107 E135.99963
G1 X145.89 Y162.846 E137.71983
G1 X145.738 Y162.869 E137.72634
G1 X144.548 Y162.97 E137.77689
G1 X144.324 Y162.976 E137.78637
G1 X117.025 Y135.677 E139.42035
G1 X117 Y136.499 E139.45515
G1 X117 Y137.347 E139.49104
G1 X142.651 Y162.998 E141.02638
G1 X140.955 Y162.998 E141.09816
G1 X117 Y139.043 E142.53198
G1 X117 Y140.738 E142.60372
G1 X139.259 Y162.998 E143.93606
G1 X137.564 Y162.998 E144.0078
G1 X117 Y142.434 E145.23865
G1 X117 Y143.486 E145.28318
G1 X117.017 Y144.147 E145.31116
G1 X135.847 Y162.978 E146.43826
G1 X135.27 Y162.96 E146.46269
G1 X134.051 Y162.843 E146.51452
G1 X134.01 Y162.836 E146.51628
G1 X117.166 Y145.992 E147.52448
G1 X117.314 Y146.979 E147.56672
G1 X117.548 Y148.069 E147.6139
G1 X131.924 Y162.445 E148.47437
G1 X131.614 Y162.376 E148.48782
G1 X130.432 Y162.03 E148.53994
G1 X129.459 Y161.677 E148.58375
G1 X118.313 Y150.53 E149.25092
G1 X118.316 Y150.539 E149.25132
G1 X118.796 Y151.673 E149.30344
G1 X119.351 Y152.78 E149.35585
G1 X119.963 Y153.835 E149.40747
G1 X120.046 Y153.959 E149.41379
G1 X126.038 Y159.951 E149.77244
G0 F2625 X122.167 Y122.91
;TIME_ELAPSED:126.140527
;LAYER:-4
G0 X122.167 Y122.91 Z0.959
G1 F1800 X122.087 Y123 E149.77413
G1 X157.912 Y123 E150.27673
G1 X157.971 Y123.06 E150.27792
G1 X158.355 Y123.5 E150.28611
G1 X121.642 Y123.5 E150.80117
G1 X121.34 Y123.839 E150.80754
G1 X121.215 Y124 E150.8104
G1 X158.791 Y124 E151.33758
G1 X159.174 Y124.5 E151.34641
G1 X120.824 Y124.5 E151.88445
G1 X120.568 Y124.827 E151.89027
G1 X120.45 Y125 E151.89321
G1 X159.556 Y125 E152.44185
G0 F2625 X159.558 Y125.003
G1 F1800 X159.892 Y125.5 E152.45025
G1 X120.107 Y125.5 E153.00842
G1 X119.864 Y125.854 E153.01444
G1 X119.778 Y126 E153.01682
G1 X160.228 Y126 E153.58431
G1 X160.248 Y126.031 E153.58483
G1 X160.521 Y126.5 E153.59244
G1 X119.48 Y126.5 E154.16823
G1 X119.217 Y126.94 E154.17542
G1 X119.187 Y127 E154.17636
G1 X160.811 Y127 E154.76033
G1 X160.875 Y127.111 E154.76213
G1 X161.071 Y127.5 E154.76824
G1 X118.929 Y127.5 E155.35947
G1 X118.672 Y128 E155.36736
G1 X161.321 Y128 E155.9657
G1 X161.434 Y128.226 E155.96925
G1 X161.55 Y128.5 E155.97342
G1 X118.452 Y128.5 E156.57807
G1 X118.235 Y129 E156.58571
G1 X161.761 Y129 E157.19636
G1 X161.912 Y129.358 E157.20182
G1 X161.962 Y129.5 E157.20393
G1 X118.04 Y129.5 E157.82013
G1 X117.858 Y130 E157.8276
G1 X162.138 Y130 E158.44883
G1 X162.314 Y130.5 E158.45626
G1 X117.688 Y130.5 E159.08234
G1 X117.541 Y131 E159.08966
G1 X162.458 Y131 E159.71982
G1 X162.599 Y131.5 E159.72711
G1 X117.395 Y131.5 E160.3613
G1 X117.381 Y131.546 E160.36198
G1 X117.279 Y132 E160.3685
G1 X162.723 Y132 E161.00606
G1 X162.83 Y132.5 E161.01324
G1 X117.166 Y132.5 E161.65388
G1 X117.102 Y132.783 E161.65795
G1 X117.068 Y133 E161.66103
G1 X162.936 Y133 E162.30454
G1 X163.01 Y133.5 E162.31163
G1 X116.989 Y133.5 E162.95728
G1 X116.91 Y134 E162.96439
G1 X163.085 Y134 E163.6122
G1 X163.116 Y134.211 E163.61519
G1 X163.141 Y134.5 E163.61926
G1 X116.861 Y134.5 E164.26855
G1 X116.813 Y135 E164.2756
G1 X163.183 Y135 E164.92615
G1 X163.22 Y135.436 E164.93228
G1 X163.222 Y135.5 E164.93318
G1 X116.781 Y135.5 E165.58473
G1 X116.765 Y136 E165.59175
G1 X163.236 Y136 E166.24371
G1 X163.249 Y136.5 E166.25073
G1 X116.749 Y136.5 E166.9031
G1 X116.749 Y137 E166.91012
G1 X163.249 Y137 E167.56249
G1 X163.249 Y137.5 E167.56951
G1 X116.749 Y137.5 E168.22188
G1 X116.749 Y138 E168.2289
G1 X163.249 Y138 E168.88127
G1 X163.249 Y138.5 E168.88828
G1 X116.749 Y138.5 E169.54066
G1 X116.749 Y139 E169.54767
G1 X163.249 Y139 E170.20005
G1 X163.249 Y139.5 E170.20706
G1 X116.749 Y139.5 E170.85944
G1 X116.749 Y140 E170.86645
G1 X163.249 Y140 E171.51882
G1 X163.249 Y140.5 E171.52584
G1 X116.749 Y140.5 E172.17821
G1 X116.749 Y141 E172.18523
G1 X163.249 Y141 E172.8376
G1 X163.249 Y141.5 E172.84462
G1 X116.749 Y141.5 E173.49699
G1 X116.749 Y142 E173.504
G1 X163.249 Y142 E174.15638
G1 X163.249 Y142.5 E174.16339
G1 X116.749 Y142.5 E174.81577
G1 X116.749 Y143 E174.82278
G1 X163.249 Y143 E175.47515
G1 X163.249 Y143.5 E175.48217
G1 X116.749 Y143.5 E176.13454
G1 X116.762 Y144 E176.14156
G1 X163.233 Y144 E176.79353
G1 X163.217 Y144.5 E176.80054
G1 X116.776 Y144.5 E177.45209
G1 X116.778 Y144.559 E177.45292
G1 X116.815 Y145 E177.45913
G1 X163.185 Y145 E178.10968
G1 X163.137 Y145.5 E178.11672
G1 X116.857 Y145.5 E178.76601
G1 X116.881 Y145.781 E178.76997
G1 X116.913 Y146 E178.77307
G1 X163.088 Y146 E179.42089
G1 X163.009 Y146.5 E179.42799
G1 X116.988 Y146.5 E180.07364
G1 X117.063 Y147 E180.08074
G1 X162.93 Y147 E180.72423
G1 X162.896 Y147.215 E180.72728
G1 X162.831 Y147.5 E180.73138
G1 X117.169 Y147.5 E181.372
G1 X117.276 Y148 E181.37917
G1 X162.718 Y148 E182.0167
G1 X162.618 Y148.446 E182.02312
G1 X162.602 Y148.5 E182.02391
G1 X117.4 Y148.5 E182.65807
G1 X117.54 Y149 E182.66535
G1 X162.456 Y149 E183.29551
G1 X162.31 Y149.5 E183.30281
G1 X117.685 Y149.5 E183.92888
G1 X117.861 Y150 E183.93632
G1 X162.139 Y150 E184.55752
G1 X161.957 Y150.5 E184.56498
G1 X118.036 Y150.5 E185.18117
G1 X118.086 Y150.64 E185.18326
G1 X118.238 Y151 E185.18874
G1 X161.762 Y151 E185.79936
G1 X161.545 Y151.5 E185.80701
G1 X118.449 Y151.5 E186.41163
G1 X118.564 Y151.772 E186.41577
G1 X118.678 Y152 E186.41935
G1 X161.325 Y152 E187.01767
G1 X161.067 Y152.5 E187.02556
G1 X118.928 Y152.5 E187.61675
G1 X119.123 Y152.887 E187.62283
G1 X119.188 Y153 E187.62466
G1 X160.81 Y153 E188.2086
G1 X160.781 Y153.058 E188.20951
G1 X160.517 Y153.5 E188.21673
G1 X119.478 Y153.5 E188.79249
G1 X119.75 Y153.967 E188.80007
G1 X119.772 Y154 E188.80063
G1 X160.219 Y154 E189.36808
G1 X160.134 Y154.144 E189.37042
G1 X159.889 Y154.5 E189.37649
G1 X120.107 Y154.5 E189.93461
G1 X120.44 Y154.995 E189.94298
G0 F2625 X120.443 Y155
G1 F1800 X159.547 Y155 E190.49159
G1 X159.43 Y155.171 E190.4945
G1 X159.172 Y155.5 E190.50036
G1 X120.826 Y155.5 E191.03834
G1 X121.209 Y156 E191.04718
G1 X158.781 Y156 E191.57429
G1 X158.659 Y156.157 E191.57708
G1 X158.353 Y156.5 E191.58353
G1 X121.644 Y156.5 E192.09854
G1 X122.027 Y156.938 E192.10671
G1 X122.088 Y157 E192.10793
G1 X157.909 Y157 E192.61048
G1 X157.831 Y157.088 E192.61213
G1 X157.414 Y157.5 E192.62035
G1 X122.582 Y157.5 E193.10903
G1 X122.907 Y157.828 E193.11551
G1 X123.1 Y158 E193.11913
G1 X156.904 Y158 E193.59339
G1 X156.331 Y158.5 E193.60406
G1 X123.661 Y158.5 E194.0624
G1 X123.839 Y158.658 E194.06574
G1 X124.276 Y159 E194.07353
G1 X155.724 Y159 E194.51473
G1 X155.071 Y159.5 E194.52627
