;Generated by Cura LulzBot Edition GCodeWriter Version: 2.6.69
;FLAVOR:RepRap
;TIME:1581
;Filament used: 0.326898m
;Layer height: 0.18
;Generated with Cura_SteamEngine 2.6.69
;This G-Code has been generated specifically for the LulzBot TAZ 6 with standard extruder
G26 ; clear potential 'probe fail' condition
G21 ; set units to Millimetres
M107 ; disable fans
G90 ; absolute positioning
M82 ; set extruder to absolute mode
G92 E0 ; set extruder position to 0
M140 S110 ; start bed heating up
G28 XY ; home X and Y
G1 X-19 Y258 F1000 ; move to safe homing position
M109 R175 ; soften filament before homing Z
G28 Z ; home Z
G1 E-30 F100 ; retract filament
M109 R170 ; wait for extruder to reach wiping temp
G1 X-15 Y100 F3000 ; move above wiper pad
G1 Z1 ; push nozzle into wiper
G1 X-17 Y95 F1000 ; slow wipe
G1 X-17 Y90 F1000 ; slow wipe
G1 X-17 Y85 F1000 ; slow wipe
G1 X-15 Y90 F1000 ; slow wipe
G1 X-17 Y80 F1000 ; slow wipe
G1 X-15 Y95 F1000 ; slow wipe
G1 X-17 Y75 F2000 ; fast wipe
G1 X-15 Y65 F2000 ; fast wipe
G1 X-17 Y70 F2000 ; fast wipe
G1 X-15 Y60 F2000 ; fast wipe
G1 X-17 Y55 F2000 ; fast wipe
G1 X-15 Y50 F2000 ; fast wipe
G1 X-17 Y40 F2000 ; fast wipe
G1 X-15 Y45 F2000 ; fast wipe
G1 X-17 Y35 F2000 ; fast wipe
G1 X-15 Y40 F2000 ; fast wipe
G1 X-17 Y70 F2000 ; fast wipe
G1 X-15 Y30 Z2 F2000 ; fast wipe
G1 X-17 Y35 F2000 ; fast wipe
G1 X-15 Y25 F2000 ; fast wipe
G1 X-17 Y30 F2000 ; fast wipe
G1 X-15 Y25 Z1.5 F1000 ; slow wipe
G1 X-17 Y23 F1000 ; slow wipe
G1 Z10 ; raise extruder
M109 R170 ; wait for extruder to reach probe temp
G1 X-9 Y-9 ; move above first probe point
M204 S100 ; set probing acceleration
G29 ; start auto-leveling sequence
M204 S500 ; restore standard acceleration
G1 X0 Y0 Z15 F5000 ; move up off last probe point
G4 S1 ; pause
M400 ; wait for moves to finish
M117 Heating... ; progress indicator message on LCD
M109 R240 ; wait for extruder to reach printing temp
M190 S110 ; wait for bed to reach printing temp
G1 Z2 E0 F75 ; prime tiny bit of filament into the nozzle
M117 TAZ 6 Printing... ; progress indicator message on LCD

M221 S100
;LAYER_COUNT:155
;LAYER:-6
M107
G0 F2625 X126.38 Y126.26 Z0.51
G1 F1350 X126.379 Y126.259 E0.00011
G1 X127.18 Y125.515 E0.08751
G1 X127.982 Y124.874 E0.16959
G1 X128.865 Y124.266 E0.2553
G1 X129.783 Y123.728 E0.34036
G1 X130.731 Y123.261 E0.42484
G1 X131.711 Y122.866 E0.50932
G1 X132.716 Y122.543 E0.59371
G1 X133.752 Y122.291 E0.67895
G1 X134.793 Y122.119 E0.7633
G1 X135.844 Y122.023 E0.84767
G1 X136.674 Y122 E0.91405
G1 X143.345 Y122 E1.44736
G1 X144.41 Y122.038 E1.53256
G1 X145.468 Y122.156 E1.61766
G1 X146.505 Y122.347 E1.70196
G1 X147.531 Y122.615 E1.78673
G1 X148.541 Y122.959 E1.87203
G1 X149.503 Y123.368 E1.9556
G1 X150.431 Y123.844 E2.03898
G1 X151.359 Y124.411 E2.12592
G1 X152.22 Y125.026 E2.21051
G1 X153.018 Y125.692 E2.29361
G1 X153.617 Y126.257 E2.35943
G1 X153.74 Y126.38 E2.37334
G1 X153.741 Y126.379 E2.37345
G1 X154.485 Y127.18 E2.46085
G1 X155.126 Y127.982 E2.54293
G1 X155.734 Y128.865 E2.62864
G1 X156.272 Y129.783 E2.7137
G1 X156.739 Y130.731 E2.79819
G1 X157.134 Y131.711 E2.88266
G1 X157.457 Y132.716 E2.96705
G1 X157.709 Y133.752 E3.05229
G1 X157.881 Y134.793 E3.13664
G1 X157.977 Y135.844 E3.22101
G1 X158 Y136.66 E3.28627
G1 X158 Y143.354 E3.82142
G1 X157.962 Y144.41 E3.9059
G1 X157.844 Y145.468 E3.991
G1 X157.653 Y146.505 E4.0753
G1 X157.385 Y147.531 E4.16008
G1 X157.041 Y148.541 E4.24538
G1 X156.632 Y149.503 E4.32894
G1 X156.154 Y150.434 E4.41261
G1 X155.589 Y151.359 E4.49926
G1 X154.974 Y152.22 E4.58385
G1 X154.308 Y153.018 E4.66695
G1 X153.743 Y153.617 E4.73277
G1 X153.62 Y153.74 E4.74668
G1 X153.621 Y153.741 E4.74679
G1 X152.82 Y154.485 E4.83419
G1 X152.018 Y155.126 E4.91627
G1 X151.135 Y155.734 E5.00198
G1 X150.217 Y156.272 E5.08704
G1 X149.269 Y156.739 E5.17153
G1 X148.289 Y157.134 E5.256
G1 X147.284 Y157.457 E5.34039
G1 X146.248 Y157.709 E5.42563
G1 X145.207 Y157.881 E5.50998
G1 X144.156 Y157.977 E5.59435
G1 X143.326 Y158 E5.66073
G1 X136.655 Y158 E6.19404
G1 X135.59 Y157.962 E6.27924
G1 X134.532 Y157.844 E6.36434
G1 X133.495 Y157.653 E6.44864
G1 X132.469 Y157.385 E6.53341
G1 X131.459 Y157.041 E6.61871
G1 X130.497 Y156.632 E6.70228
G1 X129.566 Y156.154 E6.78595
G1 X128.641 Y155.589 E6.8726
G1 X127.78 Y154.974 E6.95719
G1 X126.982 Y154.308 E7.04028
G1 X126.383 Y153.743 E7.10611
G1 X126.257 Y153.617 E7.12036
G1 X126.256 Y153.618 E7.12047
G1 X125.515 Y152.82 E7.20753
G1 X124.874 Y152.018 E7.28961
G1 X124.266 Y151.135 E7.37532
G1 X123.728 Y150.217 E7.46038
G1 X123.261 Y149.269 E7.54486
G1 X122.866 Y148.289 E7.62933
G1 X122.543 Y147.284 E7.71373
G1 X122.291 Y146.248 E7.79897
G1 X122.119 Y145.207 E7.88332
G1 X122.023 Y144.156 E7.96769
G1 X122 Y143.34 E8.03295
G1 X122 Y136.646 E8.5681
G1 X122.038 Y135.59 E8.65258
G1 X122.156 Y134.532 E8.73768
G1 X122.347 Y133.495 E8.82198
G1 X122.615 Y132.469 E8.90675
G1 X122.959 Y131.459 E8.99205
G1 X123.368 Y130.497 E9.07562
G1 X123.846 Y129.566 E9.15929
G1 X124.411 Y128.641 E9.24594
G1 X125.026 Y127.78 E9.33053
G1 X125.692 Y126.982 E9.41362
G1 X126.257 Y126.383 E9.47945
G1 X126.38 Y126.26 E9.49336
G0 F2625 X126 Y126.655
G1 F1350 X126 Y153.342 E11.62685
G0 F2625 X128 Y155.131
G1 F1350 X128 Y124.861 E14.04678
G0 F2625 X130 Y123.621
G1 F1350 X130 Y156.376 E16.66537
G0 F2625 X132 Y157.225
G1 F1350 X132 Y122.773 E19.41963
G0 F2625 X134 Y122.25
G1 F1350 X134 Y157.746 E22.25736
G0 F2625 X136 Y157.976
G1 F1350 X136 Y122.018 E25.13201
G0 F2625 X138 Y122
G1 F1350 X138 Y158 E28.01003
G0 F2625 X140 Y158
G1 F1350 X140 Y122 E30.88804
G0 F2625 X142 Y122
G1 F1350 X142 Y158 E33.76606
G0 F2625 X144 Y157.982
G1 F1350 X144 Y122.024 E36.64072
G0 F2625 X146 Y122.254
G1 F1350 X146 Y157.75 E39.47844
G0 F2625 X148 Y157.227
G1 F1350 X148 Y122.775 E42.2327
G0 F2625 X150 Y123.623
G1 F1350 X150 Y156.379 E44.85137
G0 F2625 X152 Y155.139
G1 F1350 X152 Y124.869 E47.27131
G0 F2625 X154 Y126.658
G1 F1350 X154 Y153.345 E49.40479
G0 F2625 X156 Y150.687
G1 F1350 X156 Y129.319 E51.11306
G0 F2625 X124 Y129.313
M104 S240
G1 F1350 X124 Y150.681 E52.82132
G0 F2625 X126.378 Y126.259
;TIME_ELAPSED:36.477198
;LAYER:-5
M140 S110
M221 S100
G0 X126.378 Y126.259 Z0.78
;TYPE:SUPPORT
G1 F1350 X126.379 Y126.26 E52.82138
G1 X126.319 Y126.319 E52.82494
G1 X153.679 Y153.679 E54.46257
G1 X153.62 Y153.739 E54.46613
G1 X153.621 Y153.739 E54.46617
G1 X152.819 Y154.484 E54.5125
G1 X152.802 Y154.497 E54.51341
G1 X125.506 Y127.202 E56.14717
G1 X125.025 Y127.779 E56.17897
G1 X124.759 Y128.151 E56.19832
G1 X151.849 Y155.241 E57.81979
G1 X151.135 Y155.733 E57.85649
G1 X150.826 Y155.913 E57.87162
G1 X124.085 Y129.172 E59.4722
G1 X123.846 Y129.565 E59.49167
G1 X123.484 Y130.267 E59.5251
G1 X149.729 Y156.511 E61.09596
G1 X149.268 Y156.738 E61.11771
G1 X148.549 Y157.027 E61.1505
G1 X122.964 Y131.442 E62.68189
G1 X122.958 Y131.458 E62.68261
G1 X122.615 Y132.467 E62.72772
G1 X122.547 Y132.721 E62.73885
G1 X147.282 Y157.456 E64.21935
G1 X146.248 Y157.708 E64.2644
G1 X145.896 Y157.766 E64.2795
G1 X122.234 Y134.103 E65.69581
G1 X122.155 Y134.531 E65.71423
G1 X122.038 Y135.589 E65.75928
G1 X122.037 Y135.602 E65.75984
G1 X144.389 Y157.954 E67.09771
G1 X144.156 Y157.976 E67.10762
G1 X143.325 Y157.999 E67.1428
G1 X142.738 Y157.999 E67.16764
G1 X121.999 Y137.26 E68.40897
G1 X121.999 Y138.956 E68.48076
G1 X141.043 Y157.999 E69.6206
G1 X139.347 Y157.999 E69.69238
G1 X121.999 Y140.652 E70.73071
G1 X121.999 Y142.347 E70.80245
G1 X137.651 Y157.999 E71.7393
G1 X136.654 Y157.999 E71.7815
G1 X135.929 Y157.973 E71.8122
G1 X122.019 Y144.063 E72.64478
G1 X122.022 Y144.155 E72.64868
G1 X122.119 Y145.206 E72.69335
G1 X122.247 Y145.986 E72.7268
G1 X134.008 Y157.747 E73.43076
G1 X133.494 Y157.652 E73.45288
G1 X132.468 Y157.384 E73.49776
G1 X131.681 Y157.116 E73.53295
G1 X122.874 Y148.309 E74.06009
G1 X123.26 Y149.268 E74.10384
G1 X123.728 Y150.216 E74.14859
G1 X124.265 Y151.134 E74.1936
G1 X124.846 Y151.976 E74.2369
G1 X128.001 Y155.132 E74.42577
G0 F2625 X154.492 Y152.796
G1 F1350 X127.197 Y125.501 E76.05951
G1 X127.179 Y125.514 E76.06045
G1 X126.378 Y126.259 E76.10674
G0 F2625 X128.149 Y124.758
G1 F1350 X155.239 Y151.848 E77.72821
G1 X154.973 Y152.219 E77.74753
G1 X154.492 Y152.796 E77.77932
G0 F2625 X155.914 Y150.827
G1 F1350 X129.172 Y124.085 E79.37996
G1 X128.863 Y124.266 E79.39512
G1 X128.149 Y124.758 E79.43182
G0 F2625 X130.27 Y123.487
G1 F1350 X156.514 Y149.731 E81.00265
G1 X156.153 Y150.434 E81.0361
G1 X155.914 Y150.827 E81.05556
G0 F2625 X157.034 Y148.556
G1 F1350 X131.449 Y122.971 E82.58695
G1 X130.73 Y123.26 E82.61975
G1 X130.27 Y123.487 E82.64146
G0 F2625 X132.716 Y122.543
G1 F1350 X157.451 Y147.277 E84.12194
G1 X157.384 Y147.531 E84.13305
G1 X157.04 Y148.541 E84.17821
G1 X157.034 Y148.556 E84.1789
G0 F2625 X157.764 Y145.895
G1 F1350 X134.102 Y122.233 E85.59518
G1 X133.751 Y122.29 E85.61023
G1 X132.716 Y122.543 E85.65533
G0 F2625 X135.61 Y122.045
G1 F1350 X157.961 Y144.396 E86.99314
G1 X157.961 Y144.41 E86.99373
G1 X157.843 Y145.467 E87.03875
G1 X157.764 Y145.895 E87.05717
G0 F2625 X157.999 Y142.738
G1 F1350 X137.26 Y121.999 E88.2985
G1 X136.673 Y121.999 E88.32334
G1 X135.842 Y122.023 E88.35853
G1 X135.61 Y122.045 E88.36839
G0 F2625 X138.956 Y121.999
G1 F1350 X157.999 Y141.043 E89.50823
G1 X157.999 Y142.738 E89.57997
G0 F2625 X157.999 Y139.347
G1 F1350 X140.652 Y121.999 E90.61831
G1 X138.956 Y121.999 E90.69009
G0 F2625 X142.347 Y121.999
G1 F1350 X157.999 Y137.651 E91.62693
G1 X157.999 Y139.347 E91.69872
G0 F2625 X157.978 Y135.935
G1 F1350 X144.069 Y122.026 E92.53124
G1 X143.344 Y121.999 E92.56194
G0 F2625 X145.991 Y122.252
G1 F1350 X157.751 Y134.012 E93.26583
G1 X157.879 Y134.792 E93.29929
G1 X157.976 Y135.843 E93.34396
G1 X157.978 Y135.935 E93.34785
G0 F2625 X157.124 Y131.69
G1 F1350 X148.317 Y122.883 E93.875
G1 X147.53 Y122.615 E93.91018
G1 X146.504 Y122.347 E93.95506
G1 X145.991 Y122.252 E93.97715
G0 F2625 X151.996 Y124.866
G1 F1350 X155.153 Y128.023 E94.16611
G1 X155.733 Y128.864 E94.20935
G1 X156.271 Y129.783 E94.25442
G1 X156.737 Y130.73 E94.29909
G1 X157.124 Y131.69 E94.34289
G0 F2625 X126.291 Y126
;TIME_ELAPSED:83.709640
;LAYER:-4
G0 X126.291 Y126 Z0.959
G1 F1800 X126.828 Y125.5 E94.35319
G1 X153.179 Y125.5 E94.72288
G1 X152.58 Y125 E94.73383
G1 X127.422 Y125 E95.08678
G1 X127.829 Y124.674 E95.0941
G1 X128.082 Y124.5 E95.09841
G1 X151.917 Y124.5 E95.4328
G1 X151.496 Y124.2 E95.44005
G1 X151.169 Y124 E95.44543
G1 X128.822 Y124 E95.75895
G1 X129.676 Y123.5 E95.77283
G1 X150.31 Y123.5 E96.06232
G1 X149.621 Y123.146 E96.07319
G1 X149.278 Y123 E96.07842
G1 X130.706 Y123 E96.33897
G1 X131.619 Y122.632 E96.35278
G1 X132.031 Y122.5 E96.35885
G1 X147.969 Y122.5 E96.58246
G1 X147.587 Y122.37 E96.58812
G1 X146.559 Y122.101 E96.60302
G1 X146.012 Y122 E96.61083
G1 X133.977 Y122 E96.77967
G0 F2625 X126.291 Y126
G1 F1800 X153.71 Y126 E97.16435
G1 X153.793 Y126.079 E97.16596
G1 X153.916 Y126.202 E97.1684
G1 X154.194 Y126.5 E97.17412
G1 X125.801 Y126.5 E97.57246
G1 X125.502 Y126.817 E97.57857
G1 X125.35 Y127 E97.58191
G1 X154.659 Y127 E97.9931
G1 X154.672 Y127.015 E97.99338
G1 X155.061 Y127.5 E98.0021
G1 X124.933 Y127.5 E98.42478
G1 X124.817 Y127.638 E98.42731
G1 X124.559 Y128 E98.43355
G1 X155.442 Y128 E98.86682
G1 X155.786 Y128.5 E98.87534
G1 X124.202 Y128.5 E99.31845
G0 F2625 X124.2 Y128.502
G1 F1800 X123.896 Y129 E99.32663
G1 X156.103 Y129 E99.77848
G1 X156.396 Y129.5 E99.78661
G1 X123.597 Y129.5 E100.24677
G1 X123.34 Y130 E100.25465
G1 X156.659 Y130 E100.7221
G1 X156.905 Y130.5 E100.72992
G1 X123.094 Y130.5 E101.20427
G1 X122.882 Y131 E101.21189
G1 X157.117 Y131 E101.69219
G1 X157.319 Y131.5 E101.69976
G1 X122.681 Y131.5 E102.18572
G1 X122.511 Y132 E102.19312
G1 X157.489 Y132 E102.68385
G1 X157.649 Y132.5 E102.69121
G1 X122.347 Y132.5 E103.18649
G1 X122.216 Y133 E103.19374
G1 X157.783 Y133 E103.69273
G1 X157.905 Y133.5 E103.69995
G1 X122.09 Y133.5 E104.20241
G1 X121.998 Y134 E104.20955
G1 X158.002 Y134 E104.71467
G1 X158.085 Y134.5 E104.72178
G1 X121.906 Y134.5 E105.22935
G1 X121.851 Y135 E105.23641
G1 X158.151 Y135 E105.74568
G1 X158.197 Y135.5 E105.75273
G1 X121.796 Y135.5 E106.26341
G1 X121.788 Y135.565 E106.26433
G1 X121.773 Y136 E106.27044
G1 X158.231 Y136 E106.78193
G1 X158.245 Y136.5 E106.78895
G1 X121.754 Y136.5 E107.3009
G1 X121.749 Y136.636 E107.30281
G1 X121.749 Y137 E107.30791
G1 X158.249 Y137 E107.81999
G1 X158.249 Y137.5 E107.82701
G1 X121.749 Y137.5 E108.33909
G1 X121.749 Y138 E108.3461
G1 X158.249 Y138 E108.85818
G1 X158.249 Y138.5 E108.86519
G1 X121.749 Y138.5 E109.37727
G1 X121.749 Y139 E109.38429
G1 X158.249 Y139 E109.89636
G1 X158.249 Y139.5 E109.90338
G1 X121.749 Y139.5 E110.41546
G1 X121.749 Y140 E110.42247
G1 X158.249 Y140 E110.93455
G1 X158.249 Y140.5 E110.94157
G1 X121.749 Y140.5 E111.45364
G1 X121.749 Y141 E111.46066
G1 X158.249 Y141 E111.97274
G1 X158.249 Y141.5 E111.97975
G1 X121.749 Y141.5 E112.49183
G1 X121.749 Y142 E112.49884
G1 X158.249 Y142 E113.01092
G1 X158.249 Y142.5 E113.01794
G1 X121.749 Y142.5 E113.53002
G1 X121.749 Y143 E113.53703
G1 X158.249 Y143 E114.04911
G1 X158.249 Y143.362 E114.05419
G1 X158.243 Y143.5 E114.05613
G1 X121.753 Y143.5 E114.56806
G1 X121.767 Y144 E114.57508
G1 X158.225 Y144 E115.08657
G1 X158.21 Y144.432 E115.09263
G1 X158.202 Y144.5 E115.09359
G1 X121.802 Y144.5 E115.60427
G1 X121.847 Y145 E115.61131
G1 X158.147 Y145 E116.12059
G1 X158.092 Y145.499 E116.12763
G0 F2625 X158.091 Y145.5
G1 F1800 X121.913 Y145.5 E116.63519
G1 X121.996 Y146 E116.6423
G1 X157.999 Y146 E117.14741
G1 X157.907 Y146.5 E117.15454
G1 X122.094 Y146.5 E117.65698
G1 X122.216 Y147 E117.6642
G1 X157.781 Y147 E118.16316
G1 X157.65 Y147.5 E118.17041
G1 X122.349 Y147.5 E118.66567
G1 X122.51 Y148 E118.67304
G1 X157.486 Y148 E119.16373
G1 X157.316 Y148.5 E119.17114
G1 X122.68 Y148.5 E119.65707
G1 X122.882 Y149 E119.66464
G1 X157.115 Y149 E120.14491
G1 X156.903 Y149.5 E120.15253
G1 X123.094 Y149.5 E120.62685
G1 X123.34 Y150 E120.63467
G1 X156.657 Y150 E121.10209
G1 X156.4 Y150.5 E121.10998
G1 X123.603 Y150.5 E121.57011
G1 X123.896 Y151 E121.57824
G1 X156.1 Y151 E122.03004
G1 X155.798 Y151.496 E122.03819
G0 F2625 X155.795 Y151.5
G1 F1800 X124.213 Y151.5 E122.48127
G1 X124.557 Y152 E122.48979
G1 X155.438 Y152 E122.92303
G1 X155.181 Y152.36 E122.92924
G1 X155.064 Y152.5 E122.9318
G1 X124.939 Y152.5 E123.35444
G1 X125.326 Y152.983 E123.36312
G1 X125.341 Y153 E123.36344
G1 X154.647 Y153 E123.77459
G1 X154.496 Y153.181 E123.7779
G1 X154.195 Y153.5 E123.78405
G1 X125.806 Y153.5 E124.18233
G1 X126.079 Y153.793 E124.18795
G1 X126.2 Y153.914 E124.19035
G1 X126.291 Y154 E124.19211
G1 X153.705 Y154 E124.57672
G1 X153.167 Y154.5 E124.58702
G1 X126.821 Y154.5 E124.95664
G1 X127.421 Y155 E124.9676
G1 X152.573 Y155 E125.32047
G1 X152.169 Y155.324 E125.32774
G1 X151.913 Y155.5 E125.3321
G1 X128.085 Y155.5 E125.66639
G1 X128.502 Y155.798 E125.67358
G1 X128.832 Y156 E125.67901
G1 X151.172 Y156 E125.99243
G1 X150.32 Y156.499 E126.00628
G0 F2625 X150.317 Y156.5
G1 F1800 X129.691 Y156.5 E126.29566
G1 X130.377 Y156.852 E126.30647
G1 X130.725 Y157 E126.31178
G1 X149.287 Y157 E126.57219
G1 X148.379 Y157.366 E126.58593
G1 X147.961 Y157.5 E126.59209
G1 X132.035 Y157.5 E126.81552
G1 X132.411 Y157.628 E126.82109
G1 X133.439 Y157.897 E126.836
G1 X133.997 Y158 E126.84396
G1 X146.009 Y158 E127.01249
G0 F2625 X150.317 Y156.5
G1 F1800 X150.32 Y156.499 E127.01253
G0 F2625 X155.795 Y151.5
G1 F1800 X155.798 Y151.496 E127.0126
G0 F2625 X158.091 Y145.5
G1 F1800 X158.092 Y145.499 E127.01262
G0 F2625 X124.202 Y128.5
G1 F1800 X124.2 Y128.502 E127.01266
G0 F2625 X126.079 Y126.205
;TIME_ELAPSED:165.088655
;LAYER:-3
G0 X126.079 Y126.205 Z1.138
G1 F1800 X125.999 Y126.289 E127.01429
G1 X125.999 Y153.706 E127.39894
G1 X125.499 Y153.169 E127.40923
G1 X125.499 Y126.82 E127.77889
G1 X124.999 Y127.419 E127.78984
G1 X124.999 Y152.574 E128.14275
G1 X124.673 Y152.167 E128.15007
G1 X124.499 Y151.914 E128.15438
G1 X124.499 Y128.083 E128.48872
G1 X124.2 Y128.502 E128.49594
G1 X123.999 Y128.831 E128.50135
G1 X123.999 Y151.174 E128.81481
G1 X123.499 Y150.32 E128.82869
G1 X123.499 Y129.69 E129.11812
