;Generated by Cura LulzBot Edition GCodeWriter Version: 2.6.69
;FLAVOR:RepRap
;TIME:856
;Filament used: 0.280082m
;Layer height: 0.18
;Generated with Cura_SteamEngine 2.6.69
;This G-Code has been generated specifically for the LulzBot TAZ 6 with standard extruder
G26 ; clear potential 'probe fail' condition
G21 ; set units to Millimetres
M107 ; disable fans
G90 ; absolute positioning
M82 ; set extruder to absolute mode
G92 E0 ; set extruder position to 0
M140 S110 ; start bed heating up
G28 XY ; home X and Y
G1 X-19 Y258 F1000 ; move to safe homing position
M109 R175 ; soften filament before homing Z
G28 Z ; home Z
G1 E-30 F100 ; retract filament
M109 R170 ; wait for extruder to reach wiping temp
G1 X-15 Y100 F3000 ; move above wiper pad
G1 Z1 ; push nozzle into wiper
G1 X-17 Y95 F1000 ; slow wipe
G1 X-17 Y90 F1000 ; slow wipe
G1 X-17 Y85 F1000 ; slow wipe
G1 X-15 Y90 F1000 ; slow wipe
G1 X-17 Y80 F1000 ; slow wipe
G1 X-15 Y95 F1000 ; slow wipe
G1 X-17 Y75 F2000 ; fast wipe
G1 X-15 Y65 F2000 ; fast wipe
G1 X-17 Y70 F2000 ; fast wipe
G1 X-15 Y60 F2000 ; fast wipe
G1 X-17 Y55 F2000 ; fast wipe
G1 X-15 Y50 F2000 ; fast wipe
G1 X-17 Y40 F2000 ; fast wipe
G1 X-15 Y45 F2000 ; fast wipe
G1 X-17 Y35 F2000 ; fast wipe
G1 X-15 Y40 F2000 ; fast wipe
G1 X-17 Y70 F2000 ; fast wipe
G1 X-15 Y30 Z2 F2000 ; fast wipe
G1 X-17 Y35 F2000 ; fast wipe
G1 X-15 Y25 F2000 ; fast wipe
G1 X-17 Y30 F2000 ; fast wipe
G1 X-15 Y25 Z1.5 F1000 ; slow wipe
G1 X-17 Y23 F1000 ; slow wipe
G1 Z10 ; raise extruder
M109 R170 ; wait for extruder to reach probe temp
G1 X-9 Y-9 ; move above first probe point
M204 S100 ; set probing acceleration
G29 ; start auto-leveling sequence
M204 S500 ; restore standard acceleration
G1 X0 Y0 Z15 F5000 ; move up off last probe point
G4 S1 ; pause
M400 ; wait for moves to finish
M117 Heating... ; progress indicator message on LCD
M109 R240 ; wait for extruder to reach printing temp
M190 S110 ; wait for bed to reach printing temp
G1 Z2 E0 F75 ; prime tiny bit of filament into the nozzle
M117 TAZ 6 Printing... ; progress indicator message on LCD

M221 S100
;LAYER_COUNT:149
;LAYER:-6
M107
G0 F2625 X124.149 Y124.422 Z0.51
G1 F1350 X125.082 Y123.593 E0.09978
G1 X126.044 Y122.844 E0.19725
G1 X127.068 Y122.143 E0.29646
G1 X128.137 Y121.509 E0.39582
G1 X129.208 Y120.961 E0.49199
G1 X130.373 Y120.455 E0.59354
G1 X131.511 Y120.046 E0.69021
G1 X132.517 Y119.747 E0.77411
G1 X136.346 Y118.721 E1.09102
G1 X137.578 Y118.433 E1.19217
G1 X138.779 Y118.231 E1.28953
G1 X140.01 Y118.102 E1.38848
G1 X141.239 Y118.053 E1.48681
G1 X142.492 Y118.082 E1.58701
G1 X143.696 Y118.184 E1.68361
G1 X144.915 Y118.369 E1.78218
G1 X146.134 Y118.631 E1.88185
G1 X147.325 Y118.969 E1.98083
G1 X148.482 Y119.378 E2.07893
G1 X149.597 Y119.851 E2.17576
G1 X150.714 Y120.413 E2.27573
G1 X151.781 Y121.036 E2.3745
G1 X152.803 Y121.723 E2.47295
G1 X153.785 Y122.477 E2.57193
G1 X154.706 Y123.283 E2.66977
G1 X155.578 Y124.149 E2.76802
G1 X156.407 Y125.082 E2.8678
G1 X157.153 Y126.039 E2.9648
G1 X157.857 Y127.068 E3.06448
G1 X158.491 Y128.137 E3.16384
G1 X159.039 Y129.208 E3.26002
G1 X159.546 Y130.376 E3.36181
G1 X159.954 Y131.511 E3.45823
G1 X160.253 Y132.517 E3.54213
G1 X161.277 Y136.337 E3.8583
G1 X161.567 Y137.578 E3.96019
G1 X161.769 Y138.779 E4.05755
G1 X161.898 Y140.005 E4.1561
G1 X161.947 Y141.238 E4.25475
G1 X161.918 Y142.492 E4.35503
G1 X161.816 Y143.696 E4.45163
G1 X161.633 Y144.908 E4.54962
G1 X161.369 Y146.134 E4.64988
G1 X161.031 Y147.325 E4.74886
G1 X160.626 Y148.473 E4.84618
G1 X160.151 Y149.594 E4.94351
G1 X159.587 Y150.714 E5.04376
G1 X158.964 Y151.781 E5.14253
G1 X158.274 Y152.807 E5.24138
G1 X157.523 Y153.785 E5.33996
G1 X156.717 Y154.706 E5.4378
G1 X155.851 Y155.578 E5.53605
G1 X154.918 Y156.407 E5.63583
G1 X153.956 Y157.156 E5.7333
G1 X152.932 Y157.857 E5.83251
G1 X151.863 Y158.491 E5.93187
G1 X150.792 Y159.039 E6.02805
G1 X149.627 Y159.545 E6.12959
G1 X148.493 Y159.953 E6.22593
G1 X147.478 Y160.254 E6.31057
G1 X143.654 Y161.279 E6.62707
G1 X142.422 Y161.567 E6.72822
G1 X141.221 Y161.769 E6.82558
G1 X139.99 Y161.898 E6.92453
G1 X138.761 Y161.947 E7.02286
G1 X137.508 Y161.918 E7.12306
G1 X136.304 Y161.816 E7.21966
G1 X135.085 Y161.631 E7.31823
G1 X133.866 Y161.369 E7.41791
G1 X132.675 Y161.031 E7.51688
G1 X131.518 Y160.622 E7.61499
G1 X130.403 Y160.149 E7.71181
G1 X129.286 Y159.587 E7.81178
G1 X128.219 Y158.964 E7.91055
G1 X127.193 Y158.274 E8.0094
G1 X126.215 Y157.523 E8.10798
G1 X125.294 Y156.717 E8.20582
G1 X124.422 Y155.851 E8.30407
G1 X123.593 Y154.918 E8.40385
G1 X122.844 Y153.956 E8.50132
G1 X122.143 Y152.932 E8.60053
G1 X121.509 Y151.863 E8.69989
G1 X120.961 Y150.792 E8.79607
G1 X120.454 Y149.624 E8.89786
G1 X120.046 Y148.489 E8.99428
G1 X119.747 Y147.483 E9.07818
G1 X118.717 Y143.639 E9.39633
G1 X118.433 Y142.422 E9.49624
G1 X118.231 Y141.218 E9.59384
G1 X118.102 Y139.99 E9.69255
G1 X118.053 Y138.76 E9.79096
G1 X118.082 Y137.508 E9.89108
G1 X118.184 Y136.304 E9.98768
G1 X118.367 Y135.092 E10.08567
G1 X118.631 Y133.866 E10.18593
G1 X118.97 Y132.672 E10.28515
G1 X119.378 Y131.518 E10.38301
G1 X119.849 Y130.406 E10.47955
G1 X120.413 Y129.286 E10.5798
G1 X121.036 Y128.219 E10.67858
G1 X121.726 Y127.193 E10.77742
G1 X122.477 Y126.215 E10.876
G1 X123.283 Y125.294 E10.97385
G1 X124.149 Y124.422 E11.07209
G0 F2625 X124 Y124.572
G1 F1350 X124 Y155.376 E13.53472
G0 F2625 X126 Y157.334
G1 F1350 X126 Y122.878 E16.2893
G0 F2625 X128 Y121.59
G1 F1350 X128 Y158.816 E19.26532
G0 F2625 X130 Y159.946
G1 F1350 X130 Y120.617 E22.40948
G0 F2625 X132 Y119.9
G1 F1350 X132 Y160.792 E25.67858
G0 F2625 X134 Y161.397
G1 F1350 X134 Y119.349 E29.0401
G0 F2625 X136 Y118.813
G1 F1350 X136 Y161.769 E32.47421
G0 F2625 X138 Y161.929
G1 F1350 X138 Y118.362 E35.95717
G0 F2625 X140 Y118.103
G1 F1350 X140 Y161.897 E39.45828
G0 F2625 X142 Y161.638
G1 F1350 X142 Y118.071 E42.94124
G0 F2625 X144 Y118.231
G1 F1350 X144 Y161.187 E46.37535
G0 F2625 X146 Y160.651
G1 F1350 X146 Y118.603 E49.73687
G0 F2625 X148 Y119.208
G1 F1350 X148 Y160.1 E53.00597
G0 F2625 X150 Y159.383
G1 F1350 X150 Y120.054 E56.15013
G0 F2625 X152 Y121.184
G1 F1350 X152 Y158.41 E59.12615
G0 F2625 X154 Y157.122
G1 F1350 X154 Y122.666 E61.88073
G0 F2625 X156 Y124.624
G1 F1350 X156 Y155.428 E64.34336
G0 F2625 X158 Y153.164
G1 F1350 X158 Y127.31 E66.41025
G0 F2625 X160 Y131.666
G1 F1350 X160 Y149.894 E67.86748
G0 F2625 X122 Y152.69
M104 S240
G1 F1350 X122 Y126.836 E69.93438
G0 F2625 X120 Y130.106
G1 F1350 X120 Y148.334 E71.39161
G0 F2625 X123.439 Y125.135
;TIME_ELAPSED:47.289328
;LAYER:-5
M140 S110
M221 S100
G0 X123.439 Y125.135 Z0.78
;TYPE:SUPPORT
G1 F1350 X123.283 Y125.292 E71.40098
G1 X122.637 Y126.029 E71.44246
G1 X153.841 Y157.232 E73.31014
G1 X152.932 Y157.856 E73.35681
G1 X152.829 Y157.916 E73.36185
G1 X121.89 Y126.977 E75.2137
G1 X121.726 Y127.192 E75.22514
G1 X121.195 Y127.978 E75.26529
G1 X151.759 Y158.542 E77.09469
G1 X150.791 Y159.038 E77.14073
G1 X150.63 Y159.108 E77.14816
G1 X120.557 Y129.035 E78.94817
G1 X120.412 Y129.285 E78.9604
G1 X119.976 Y130.15 E79.0014
G1 X149.437 Y159.611 E80.76478
G1 X148.493 Y159.952 E80.80726
G1 X148.176 Y160.045 E80.82125
G1 X119.457 Y131.327 E82.54019
G1 X119.378 Y131.517 E82.5489
G1 X119.005 Y132.57 E82.59618
G1 X146.854 Y160.419 E84.26307
G1 X145.517 Y160.778 E84.32167
G1 X118.626 Y133.887 E85.93122
G1 X118.366 Y135.091 E85.98335
G1 X118.336 Y135.292 E85.99196
G1 X144.18 Y161.136 E87.53884
G1 X143.654 Y161.278 E87.5619
G1 X142.82 Y161.472 E87.59814
G1 X118.141 Y136.794 E89.07527
G1 X118.081 Y137.507 E89.10555
G1 X118.06 Y138.408 E89.1437
G1 X141.391 Y161.739 E90.54017
G1 X141.221 Y161.768 E90.54747
G1 X139.99 Y161.897 E90.59986
G1 X139.859 Y161.902 E90.6054
G1 X118.119 Y140.162 E91.90665
G1 X118.231 Y141.217 E91.95155
G1 X118.382 Y142.121 E91.99034
G1 X138.193 Y161.932 E93.17612
G1 X137.508 Y161.917 E93.20512
G1 X136.387 Y161.822 E93.25274
G1 X118.904 Y144.338 E94.29921
G1 X119.525 Y146.655 E94.40074
G1 X134.338 Y161.469 E95.2874
G1 X133.865 Y161.368 E95.30787
G1 X132.675 Y161.03 E95.36022
G1 X131.946 Y160.772 E95.39295
G1 X120.26 Y149.086 E96.09242
G1 X120.453 Y149.623 E96.11657
G1 X120.961 Y150.791 E96.17047
G1 X121.509 Y151.862 E96.22139
G1 X121.753 Y152.275 E96.24169
G1 X128.754 Y159.275 E96.66071
G0 F2625 X154.801 Y156.496
G1 F1350 X123.439 Y125.135 E98.53785
G0 F2625 X124.293 Y124.293
G1 F1350 X155.705 Y155.705 E100.41801
G1 X154.918 Y156.406 E100.46261
G1 X154.801 Y156.496 E100.46886
G0 F2625 X156.559 Y154.864
G1 F1350 X125.198 Y123.502 E102.346
G1 X125.08 Y123.593 E102.3523
G1 X124.293 Y124.293 E102.39688
G0 F2625 X126.157 Y122.766
G1 F1350 X157.36 Y153.969 E104.26453
G1 X156.716 Y154.706 E104.30595
G1 X156.559 Y154.864 E104.31538
G0 F2625 X158.109 Y153.022
G1 F1350 X127.169 Y122.082 E106.16729
G1 X127.067 Y122.142 E106.1723
G1 X126.157 Y122.766 E106.219
G0 F2625 X128.239 Y121.456
G1 F1350 X158.802 Y152.02 E108.04837
G1 X158.273 Y152.807 E108.08851
G1 X158.109 Y153.022 E108.09995
G0 F2625 X159.441 Y150.963
G1 F1350 X129.369 Y120.891 E109.8999
G1 X129.207 Y120.961 E109.90737
G1 X128.239 Y121.456 E109.95339
G0 F2625 X130.561 Y120.387
G1 F1350 X160.022 Y149.848 E111.71677
G1 X159.586 Y150.713 E111.75777
G1 X159.441 Y150.963 E111.77
G0 F2625 X160.54 Y148.671
G1 F1350 X131.823 Y119.953 E113.48888
G1 X131.509 Y120.046 E113.50274
G1 X130.561 Y120.387 E113.54538
G0 F2625 X133.144 Y119.579
G1 F1350 X160.994 Y147.428 E115.21231
G1 X160.624 Y148.472 E115.25919
G1 X160.54 Y148.671 E115.26833
G0 F2625 X161.373 Y146.112
G1 F1350 X134.481 Y119.221 E116.87792
G1 X133.144 Y119.579 E116.9365
G0 F2625 X135.818 Y118.862
G1 F1350 X161.662 Y144.706 E118.48338
G1 X161.632 Y144.908 E118.49203
G1 X161.373 Y146.112 E118.54415
G0 F2625 X161.857 Y143.205
G1 F1350 X137.178 Y118.526 E120.02131
G1 X136.345 Y118.721 E120.05752
G1 X135.818 Y118.862 E120.08061
G0 F2625 X138.607 Y118.26
G1 F1350 X161.938 Y141.591 E121.47708
G1 X161.917 Y142.491 E121.51518
G1 X161.857 Y143.205 E121.54551
G0 F2625 X161.879 Y139.836
G1 F1350 X140.14 Y118.096 E122.84672
G1 X140.009 Y118.101 E122.85227
G1 X138.778 Y118.231 E122.90466
G1 X138.607 Y118.26 E122.912
G0 F2625 X141.806 Y118.067
G1 F1350 X161.617 Y137.878 E124.09778
G1 X161.768 Y138.778 E124.13641
G1 X161.879 Y139.836 E124.18143
G0 F2625 X161.095 Y135.66
G1 F1350 X143.611 Y118.177 E125.2279
G1 X142.491 Y118.081 E125.27548
G1 X141.806 Y118.067 E125.30448
G0 F2625 X145.659 Y118.529
G1 F1350 X160.474 Y133.344 E126.19123
G1 X161.095 Y135.66 E126.29271
G0 F2625 X159.738 Y130.912
G1 F1350 X148.052 Y119.226 E126.99217
G1 X147.324 Y118.969 E127.02485
G1 X146.133 Y118.631 E127.07725
G1 X145.659 Y118.529 E127.09777
G0 F2625 X151.245 Y120.723
G1 F1350 X158.245 Y127.723 E127.51675
G1 X158.49 Y128.136 E127.53708
G1 X159.038 Y129.208 E127.58803
G1 X159.545 Y130.375 E127.64188
G1 X159.738 Y130.912 E127.66604
G0 F2625 X123.717 Y124.5
;TIME_ELAPSED:110.573809
;LAYER:-4
G0 X123.717 Y124.5 Z0.959
G1 F1800 X123.221 Y125 E127.67592
G1 X156.66 Y125 E128.14505
G1 X157.049 Y125.5 E128.15394
G1 X122.77 Y125.5 E128.63486
G1 X122.332 Y126 E128.64418
G1 X157.43 Y126 E129.13659
G1 X157.772 Y126.5 E129.14509
G1 X121.941 Y126.5 E129.64778
G1 X121.557 Y127 E129.65663
G1 X158.107 Y127 E130.16941
G1 X158.404 Y127.5 E130.17757
G1 X121.216 Y127.5 E130.6993
G1 X120.881 Y128 E130.70774
G1 X158.701 Y128 E131.23834
G1 X158.706 Y128.01 E131.23849
G1 X158.957 Y128.5 E131.24622
G1 X120.582 Y128.5 E131.7846
G1 X120.289 Y129 E131.79273
G1 X159.213 Y129 E132.33882
G1 X159.269 Y129.111 E132.34056
G1 X159.438 Y129.5 E132.34651
G1 X120.023 Y129.5 E132.89949
G1 X119.772 Y130 E132.90734
G1 X159.655 Y130 E133.46688
G1 X159.771 Y130.268 E133.47097
G1 X159.855 Y130.5 E133.47443
G1 X119.537 Y130.5 E134.04008
G1 X119.325 Y131 E134.0477
G1 X160.035 Y131 E134.61884
G1 X160.189 Y131.428 E134.62522
G1 X160.211 Y131.5 E134.62628
G1 X119.119 Y131.5 E135.20278
G1 X118.942 Y132 E135.21022
G1 X160.359 Y132 E135.79128
G1 X160.495 Y132.458 E135.79798
G1 X160.496 Y132.458 E135.798
G1 X160.508 Y132.5 E135.79861
G1 X118.766 Y132.5 E136.38423
G1 X118.724 Y132.617 E136.38598
G1 X118.615 Y133 E136.39156
G1 X160.642 Y133 E136.98118
G1 X160.776 Y133.5 E136.98844
G1 X118.473 Y133.5 E137.58194
G1 X118.388 Y133.797 E137.58627
G1 X118.345 Y134 E137.58918
G1 X160.91 Y134 E138.18635
G1 X161.044 Y134.5 E138.19361
G1 X118.237 Y134.5 E138.79417
G1 X118.129 Y135 E138.80135
G1 X161.178 Y135 E139.40531
G1 X161.312 Y135.5 E139.41257
G1 X118.052 Y135.5 E140.01949
G1 X117.976 Y136 E140.02658
G1 X161.446 Y136 E140.63645
G1 X161.52 Y136.279 E140.6405
G1 X161.572 Y136.5 E140.64368
G1 X117.916 Y136.5 E141.25616
G1 X117.873 Y137 E141.2632
G1 X161.689 Y137 E141.87791
G1 X161.806 Y137.5 E141.88512
G1 X117.831 Y137.5 E142.50207
G1 X117.82 Y138 E142.50908
G1 X161.891 Y138 E143.12738
G1 X161.975 Y138.5 E143.13449
G1 X117.808 Y138.5 E143.75414
G1 X117.802 Y138.759 E143.75777
G1 X117.811 Y139 E143.76115
G1 X162.043 Y139 E144.38171
G1 X162.095 Y139.5 E144.38876
G1 X117.83 Y139.5 E145.00978
G1 X117.85 Y139.988 E145.01663
G1 X117.851 Y140 E145.0168
G1 X162.147 Y140 E145.63825
G1 X162.148 Y140.01 E145.63839
G1 X162.168 Y140.5 E145.64527
G1 X117.903 Y140.5 E146.26629
G1 X117.955 Y141 E146.27334
G1 X162.187 Y141 E146.8939
G1 X162.196 Y141.238 E146.89724
G1 X162.189 Y141.5 E146.90092
G1 X118.024 Y141.5 E147.52053
G1 X118.108 Y142 E147.52764
G1 X162.178 Y142 E148.14593
G1 X162.167 Y142.5 E148.15294
G1 X118.193 Y142.5 E148.76988
G1 X118.31 Y143 E148.77708
G1 X162.125 Y143 E149.39179
G1 X162.082 Y143.5 E149.39883
G1 X118.426 Y143.5 E150.0113
G1 X118.474 Y143.702 E150.01421
G1 X118.553 Y144 E150.01854
G1 X162.022 Y144 E150.62839
G1 X161.946 Y144.5 E150.63548
G1 X118.687 Y144.5 E151.24239
G1 X118.821 Y145 E151.24965
G1 X161.868 Y145 E151.85358
G1 X161.76 Y145.5 E151.86076
G1 X118.955 Y145.5 E152.46129
G1 X119.089 Y146 E152.46855
G1 X161.653 Y146 E153.06571
G1 X161.611 Y146.197 E153.06853
G1 X161.524 Y146.5 E153.07296
G1 X119.223 Y146.5 E153.66642
G1 X119.357 Y147 E153.67368
G1 X161.382 Y147 E154.26327
G1 X161.274 Y147.381 E154.26883
G1 X161.232 Y147.5 E154.2706
G1 X119.491 Y147.5 E154.85621
G1 X119.502 Y147.54 E154.85679
G0 F2625 X119.503 Y147.54
G1 F1800 X119.639 Y148 E154.86352
G1 X161.055 Y148 E155.44457
G1 X160.879 Y148.5 E155.452
G1 X119.788 Y148.5 E156.02849
G1 X119.808 Y148.567 E156.02947
G1 X119.963 Y149 E156.03592
G1 X160.672 Y149 E156.60705
G1 X160.46 Y149.5 E156.61467
G1 X120.144 Y149.5 E157.18029
G1 X120.227 Y149.73 E157.18372
G1 X120.344 Y150 E157.18784
G1 X160.225 Y150 E157.74736
G1 X159.974 Y150.5 E157.75521
G1 X120.561 Y150.5 E158.30815
G1 X120.729 Y150.887 E158.31407
G1 X120.786 Y151 E158.31585
G1 X159.707 Y151 E158.86189
G1 X159.415 Y151.5 E158.87001
G1 X121.042 Y151.5 E159.40837
G1 X121.29 Y151.984 E159.416
G1 X121.299 Y152 E159.41626
G1 X159.116 Y152 E159.94681
G1 X158.78 Y152.5 E159.95526
G1 X121.596 Y152.5 E160.47694
G1 X121.893 Y153 E160.4851
G1 X158.439 Y153 E160.99782
G1 X158.055 Y153.5 E161.00667
G1 X122.228 Y153.5 E161.5093
G1 X122.569 Y154 E161.51779
G1 X157.664 Y154 E162.01016
G1 X157.226 Y154.5 E162.01948
G1 X122.95 Y154.5 E162.50036
G1 X123.34 Y155 E162.50926
G1 X156.775 Y155 E162.97834
G1 X156.279 Y155.5 E162.98822
G1 X123.775 Y155.5 E163.44423
G1 X124.219 Y156 E163.45361
G1 X155.75 Y156 E163.89598
G1 X155.187 Y156.5 E163.90654
G1 X124.72 Y156.5 E164.33398
G1 X125.113 Y156.89 E164.34175
G1 X125.238 Y157 E164.34408
G1 X154.56 Y157 E164.75546
G1 X154.089 Y157.367 E164.76384
G1 X153.894 Y157.5 E164.76715
G1 X125.809 Y157.5 E165.16117
G1 X126.067 Y157.725 E165.16597
G1 X126.425 Y158 E165.1723
G1 X153.163 Y158 E165.54742
G1 X153.074 Y158.061 E165.54894
G1 X152.334 Y158.5 E165.56101
G1 X127.079 Y158.5 E165.91533
G1 X127.824 Y159 E165.92791
G1 X151.413 Y159 E166.25886
G1 X150.887 Y159.269 E166.26714
G1 X150.354 Y159.5 E166.27529
G1 X128.642 Y159.5 E166.5799
G1 X129.177 Y159.812 E166.58859
G1 X129.549 Y160 E166.59444
G1 X149.094 Y160 E166.86865
G1 X148.57 Y160.189 E166.87646
G1 X147.541 Y160.495 E166.89152
G1 X147.541 Y160.496 E166.89154
G1 X147.526 Y160.5 E166.89176
G1 X130.591 Y160.5 E167.12935
