;Generated by Cura LulzBot Edition GCodeWriter Version: 2.6.69
;FLAVOR:RepRap
;TIME:1799
;Filament used: 0.49383m
;Layer height: 0.18
;Generated with Cura_SteamEngine 2.6.69
;This G-Code has been generated specifically for the LulzBot TAZ 6 with standard extruder
G26 ; clear potential 'probe fail' condition
G21 ; set units to Millimetres
M107 ; disable fans
G90 ; absolute positioning
M82 ; set extruder to absolute mode
G92 E0 ; set extruder position to 0
M140 S110 ; start bed heating up
G28 XY ; home X and Y
G1 X-19 Y258 F1000 ; move to safe homing position
M109 R175 ; soften filament before homing Z
G28 Z ; home Z
G1 E-30 F100 ; retract filament
M109 R170 ; wait for extruder to reach wiping temp
G1 X-15 Y100 F3000 ; move above wiper pad
G1 Z1 ; push nozzle into wiper
G1 X-17 Y95 F1000 ; slow wipe
G1 X-17 Y90 F1000 ; slow wipe
G1 X-17 Y85 F1000 ; slow wipe
G1 X-15 Y90 F1000 ; slow wipe
G1 X-17 Y80 F1000 ; slow wipe
G1 X-15 Y95 F1000 ; slow wipe
G1 X-17 Y75 F2000 ; fast wipe
G1 X-15 Y65 F2000 ; fast wipe
G1 X-17 Y70 F2000 ; fast wipe
G1 X-15 Y60 F2000 ; fast wipe
G1 X-17 Y55 F2000 ; fast wipe
G1 X-15 Y50 F2000 ; fast wipe
G1 X-17 Y40 F2000 ; fast wipe
G1 X-15 Y45 F2000 ; fast wipe
G1 X-17 Y35 F2000 ; fast wipe
G1 X-15 Y40 F2000 ; fast wipe
G1 X-17 Y70 F2000 ; fast wipe
G1 X-15 Y30 Z2 F2000 ; fast wipe
G1 X-17 Y35 F2000 ; fast wipe
G1 X-15 Y25 F2000 ; fast wipe
G1 X-17 Y30 F2000 ; fast wipe
G1 X-15 Y25 Z1.5 F1000 ; slow wipe
G1 X-17 Y23 F1000 ; slow wipe
G1 Z10 ; raise extruder
M109 R170 ; wait for extruder to reach probe temp
G1 X-9 Y-9 ; move above first probe point
M204 S100 ; set probing acceleration
G29 ; start auto-leveling sequence
M204 S500 ; restore standard acceleration
G1 X0 Y0 Z15 F5000 ; move up off last probe point
G4 S1 ; pause
M400 ; wait for moves to finish
M117 Heating... ; progress indicator message on LCD
M109 R240 ; wait for extruder to reach printing temp
M190 S110 ; wait for bed to reach printing temp
G1 Z2 E0 F75 ; prime tiny bit of filament into the nozzle
M117 TAZ 6 Printing... ; progress indicator message on LCD

M221 S100
;LAYER_COUNT:91
;LAYER:-6
M107
G0 F2625 X124.85 Y124.411 Z0.51
G1 F1350 X125.704 Y123.625 E0.09279
G1 X126.152 Y123.243 E0.13986
G1 X126.844 Y122.688 E0.21077
G1 X127.129 Y122.48 E0.23898
G1 X127.589 Y122.151 E0.28419
G1 X127.986 Y121.877 E0.32275
G1 X128.612 Y121.483 E0.38189
G1 X129.146 Y121.165 E0.43157
G1 X130.074 Y120.66 E0.51604
G1 X130.704 Y120.351 E0.57213
G1 X131.21 Y120.114 E0.6168
G1 X131.793 Y119.87 E0.66733
G1 X132.353 Y119.651 E0.7154
G1 X133.484 Y119.26 E0.81107
G1 X133.488 Y119.259 E0.8114
G1 X133.527 Y119.247 E0.81466
G1 X134.026 Y119.099 E0.85627
G1 X135.271 Y118.782 E0.95898
G1 X135.836 Y118.664 E1.00512
G1 X137.511 Y118.408 E1.14058
G1 X137.511 Y118.405 E1.14082
G1 X137.581 Y118.397 E1.14646
G1 X137.974 Y118.353 E1.17807
G1 X138.784 Y118.295 E1.24299
G1 X139.372 Y118.27 E1.29004
G1 X140 Y118.257 E1.34026
G1 X140.628 Y118.27 E1.39047
G1 X141.216 Y118.295 E1.43752
G1 X142.026 Y118.353 E1.50244
G1 X142.419 Y118.397 E1.53406
G1 X142.489 Y118.405 E1.53969
G1 X142.489 Y118.408 E1.53993
G1 X144.164 Y118.664 E1.67539
G1 X144.729 Y118.782 E1.72154
G1 X145.974 Y119.099 E1.82424
G1 X146.464 Y119.244 E1.8651
G1 X146.464 Y119.245 E1.86518
G1 X146.513 Y119.26 E1.86927
G1 X146.525 Y119.263 E1.87026
G1 X147.647 Y119.651 E1.96517
G1 X148.207 Y119.87 E2.01324
G1 X148.79 Y120.114 E2.06377
G1 X149.296 Y120.351 E2.10844
G1 X150.174 Y120.781 E2.1866
G1 X150.873 Y121.177 E2.25082
G1 X151.376 Y121.475 E2.29756
G1 X152.014 Y121.877 E2.35785
G1 X152.391 Y122.137 E2.39446
G1 X152.871 Y122.48 E2.44162
G1 X153.156 Y122.688 E2.46983
G1 X153.837 Y123.234 E2.53961
G1 X154.296 Y123.625 E2.58781
G1 X155.15 Y124.411 E2.6806
G1 X155.589 Y124.85 E2.73023
G1 X156.375 Y125.704 E2.82302
G1 X156.757 Y126.152 E2.87009
G1 X157.307 Y126.838 E2.94038
G1 X157.311 Y126.843 E2.94089
G1 X157.52 Y127.129 E2.96921
G1 X157.854 Y127.596 E3.01511
G1 X157.855 Y127.596 E3.01519
G1 X158.111 Y127.967 E3.05123
G1 X158.112 Y127.968 E3.05134
G1 X158.517 Y128.612 E3.11216
G1 X158.838 Y129.152 E3.16238
G1 X159.336 Y130.066 E3.24559
G1 X159.641 Y130.687 E3.3009
G1 X159.886 Y131.21 E3.34708
G1 X160.131 Y131.794 E3.39771
G1 X160.348 Y132.347 E3.4452
G1 X160.733 Y133.465 E3.53973
G1 X160.739 Y133.484 E3.54132
G1 X160.74 Y133.484 E3.5414
G1 X160.751 Y133.52 E3.54441
G1 X160.902 Y134.028 E3.58678
G1 X161.216 Y135.262 E3.68857
G1 X161.335 Y135.828 E3.73481
G1 X161.592 Y137.511 E3.87092
G1 X161.595 Y137.511 E3.87116
G1 X161.603 Y137.581 E3.87679
G1 X161.647 Y137.974 E3.9084
G1 X161.705 Y138.777 E3.97277
G1 X161.73 Y139.361 E4.0195
G1 X161.743 Y139.985 E4.06939
G1 X161.73 Y140.628 E4.12081
G1 X161.706 Y141.203 E4.16682
G1 X161.647 Y142.025 E4.2327
G1 X161.604 Y142.413 E4.26391
G1 X161.595 Y142.489 E4.27003
G1 X161.592 Y142.489 E4.27027
G1 X161.336 Y144.164 E4.40573
G1 X161.218 Y144.729 E4.45187
G1 X160.901 Y145.974 E4.55458
G1 X160.753 Y146.473 E4.59619
G1 X160.74 Y146.516 E4.59978
G1 X160.739 Y146.516 E4.59986
G1 X160.737 Y146.523 E4.60044
G1 X160.348 Y147.653 E4.69599
G1 X160.135 Y148.196 E4.74262
G1 X159.89 Y148.781 E4.79332
G1 X159.652 Y149.29 E4.83824
G1 X159.216 Y150.178 E4.91733
G1 X158.841 Y150.845 E4.9785
G1 X158.537 Y151.356 E5.02603
G1 X158.538 Y151.356 E5.02611
G1 X158.13 Y152.005 E5.0874
G1 X158.129 Y152.005 E5.08748
G1 X158.12 Y152.019 E5.08881
G1 X157.86 Y152.396 E5.12542
G1 X157.859 Y152.396 E5.1255
G1 X157.523 Y152.866 E5.17169
G1 X157.524 Y152.866 E5.17177
G1 X157.328 Y153.135 E5.19838
G1 X157.317 Y153.148 E5.19974
G1 X156.766 Y153.837 E5.27027
G1 X156.375 Y154.296 E5.31847
G1 X155.59 Y155.15 E5.41121
G1 X155.153 Y155.586 E5.46056
G1 X154.305 Y156.369 E5.55283
G1 X153.853 Y156.753 E5.60024
G1 X153.134 Y157.328 E5.67384
G1 X152.872 Y157.521 E5.69986
G1 X152.871 Y157.52 E5.69997
G1 X152.411 Y157.849 E5.74518
G1 X152.014 Y158.123 E5.78375
G1 X151.387 Y158.518 E5.84299
G1 X151.387 Y158.517 E5.84307
G1 X150.854 Y158.834 E5.89265
G1 X149.935 Y159.336 E5.97636
G1 X149.298 Y159.648 E6.03307
G1 X148.791 Y159.886 E6.07785
G1 X148.207 Y160.13 E6.12844
G1 X147.647 Y160.349 E6.17652
G1 X146.518 Y160.739 E6.27201
G1 X146.512 Y160.741 E6.27251
G1 X146.48 Y160.751 E6.27519
G1 X145.974 Y160.901 E6.31738
G1 X144.729 Y161.218 E6.42009
G1 X144.164 Y161.336 E6.46623
G1 X142.489 Y161.592 E6.6017
G1 X142.489 Y161.595 E6.60194
G1 X142.419 Y161.603 E6.60757
G1 X142.026 Y161.647 E6.63918
G1 X141.216 Y161.705 E6.70411
G1 X140.628 Y161.73 E6.75116
G1 X140 Y161.743 E6.80137
G1 X139.372 Y161.73 E6.85159
G1 X138.784 Y161.705 E6.89864
G1 X137.974 Y161.647 E6.96356
G1 X137.581 Y161.603 E6.99517
G1 X137.511 Y161.595 E7.00081
G1 X137.511 Y161.592 E7.00105
G1 X135.836 Y161.336 E7.13651
G1 X135.271 Y161.218 E7.18265
G1 X134.026 Y160.901 E7.28536
G1 X133.52 Y160.751 E7.32755
G1 X133.488 Y160.741 E7.33023
G1 X133.482 Y160.739 E7.33074
G1 X132.353 Y160.349 E7.42623
G1 X131.793 Y160.13 E7.4743
G1 X131.209 Y159.886 E7.5249
G1 X130.702 Y159.648 E7.56967
G1 X129.826 Y159.219 E7.64765
G1 X129.127 Y158.823 E7.71188
G1 X128.624 Y158.525 E7.75862
G1 X127.986 Y158.123 E7.8189
G1 X127.589 Y157.849 E7.85747
G1 X127.129 Y157.52 E7.90268
G1 X127.128 Y157.521 E7.90279
G1 X126.866 Y157.328 E7.92881
G1 X126.147 Y156.753 E8.00241
G1 X125.695 Y156.369 E8.04982
G1 X124.847 Y155.586 E8.1421
G1 X124.41 Y155.15 E8.19145
G1 X123.625 Y154.296 E8.28418
G1 X123.234 Y153.837 E8.33238
G1 X122.683 Y153.148 E8.40291
G1 X122.672 Y153.135 E8.40427
G1 X122.476 Y152.866 E8.43088
G1 X122.477 Y152.866 E8.43096
G1 X122.141 Y152.396 E8.47715
G1 X122.14 Y152.396 E8.47723
G1 X121.88 Y152.019 E8.51384
G1 X121.871 Y152.005 E8.51517
G1 X121.87 Y152.005 E8.51525
G1 X121.47 Y151.368 E8.57539
G1 X120.876 Y150.367 E8.66844
G1 X120.355 Y149.305 E8.76301
G1 X120.11 Y148.781 E8.80925
G1 X119.865 Y148.196 E8.85995
G1 X119.652 Y147.653 E8.90659
G1 X119.263 Y146.525 E9.00197
G1 X119.26 Y146.513 E9.00296
G1 X119.245 Y146.464 E9.00706
G1 X119.244 Y146.464 E9.00714
G1 X119.099 Y145.974 E9.04799
G1 X118.782 Y144.729 E9.1507
G1 X118.664 Y144.164 E9.19684
G1 X118.408 Y142.489 E9.33231
G1 X118.405 Y142.489 E9.33255
G1 X118.396 Y142.413 E9.33866
G1 X118.353 Y142.025 E9.36987
G1 X118.294 Y141.203 E9.43576
G1 X118.27 Y140.628 E9.48176
G1 X118.257 Y140.015 E9.53078
G1 X118.27 Y139.372 E9.5822
G1 X118.294 Y138.792 E9.6286
G1 X118.353 Y137.974 E9.69417
G1 X118.396 Y137.587 E9.7253
G1 X118.405 Y137.511 E9.73142
G1 X118.408 Y137.511 E9.73166
G1 X118.665 Y135.828 E9.86776
G1 X118.784 Y135.262 E9.914
G1 X119.098 Y134.028 E10.0158
G1 X119.247 Y133.527 E10.05758
G1 X119.26 Y133.484 E10.06117
G1 X119.261 Y133.484 E10.06125
G1 X119.263 Y133.477 E10.06184
G1 X119.652 Y132.347 E10.15738
G1 X119.865 Y131.804 E10.20401
G1 X120.11 Y131.219 E10.25471
G1 X120.347 Y130.712 E10.29945
G1 X120.781 Y129.826 E10.37832
G1 X121.177 Y129.127 E10.44255
G1 X121.462 Y128.645 E10.48732
G1 X121.871 Y127.995 E10.54871
G1 X122.137 Y127.609 E10.58619
G1 X122.476 Y127.134 E10.63284
G1 X122.688 Y126.844 E10.66156
G1 X123.234 Y126.163 E10.73134
G1 X123.625 Y125.704 E10.77954
G1 X124.411 Y124.85 E10.87233
G1 X124.85 Y124.411 E10.92196
G0 F2625 X124 Y125.296
G1 F1350 X124 Y154.703 E13.2729
G0 F2625 X126 Y156.628
G1 F1350 X126 Y123.372 E15.93155
G0 F2625 X128 Y121.868
G1 F1350 X128 Y158.131 E18.83059
G0 F2625 X130 Y159.304
G1 F1350 X130 Y120.7 E21.91678
G0 F2625 X132 Y119.789
G1 F1350 X132 Y160.21 E25.14823
G0 F2625 X134 Y160.893
G1 F1350 X134 Y119.106 E28.48889
G0 F2625 X136 Y118.638
G1 F1350 X136 Y161.361 E31.90437
G0 F2625 X138 Y161.648
G1 F1350 X138 Y118.351 E35.36575
G0 F2625 X140 Y118.257
G1 F1350 X140 Y161.743 E38.84223
G0 F2625 X142 Y161.649
G1 F1350 X142 Y118.352 E42.3036
G0 F2625 X144 Y118.639
G1 F1350 X144 Y161.362 E45.71909
G0 F2625 X146 Y160.894
G1 F1350 X146 Y119.107 E49.05974
G0 F2625 X148 Y119.79
G1 F1350 X148 Y160.211 E52.29119
G0 F2625 X150 Y159.301
G1 F1350 X150 Y120.696 E55.37747
G0 F2625 X152 Y121.869
G1 F1350 X152 Y158.132 E58.27651
G0 F2625 X154 Y156.629
G1 F1350 X154 Y123.373 E60.93515
G0 F2625 X156 Y125.297
G1 F1350 X156 Y154.704 E63.28609
G0 F2625 X158 Y152.193
G1 F1350 X158 Y127.807 E65.23563
G0 F2625 X160 Y131.482
G1 F1350 X160 Y148.519 E66.59765
G0 F2625 X122 Y152.193
M104 S240
G1 F1350 X122 Y127.807 E68.54718
G0 F2625 X120 Y131.481
G1 F1350 X120 Y148.518 E69.9092
G0 F2625 X124.63 Y124.63
;TIME_ELAPSED:46.659374
;LAYER:-5
M140 S110
M221 S100
G0 X124.63 Y124.63 Z0.78
;TYPE:SUPPORT
G1 F1350 X124.849 Y124.411 E69.92231
G1 X125.504 Y123.808 E69.95999
G1 X156.191 Y154.495 E71.79676
G1 X156.374 Y154.295 E71.80823
G1 X156.765 Y153.836 E71.83375
G1 X156.971 Y153.58 E71.84766
G1 X126.419 Y123.028 E73.67634
G1 X126.842 Y122.687 E73.69934
G1 X127.128 Y122.48 E73.71428
G1 X127.384 Y122.297 E73.7276
G1 X157.702 Y152.615 E75.54228
G1 X157.858 Y152.396 E75.55366
G1 X157.859 Y152.396 E75.5537
G1 X158.119 Y152.018 E75.57312
G1 X158.128 Y152.004 E75.57382
G1 X158.129 Y152.004 E75.57386
G1 X158.384 Y151.601 E75.59405
G1 X128.399 Y121.616 E77.3888
G1 X128.61 Y121.483 E77.39935
G1 X129.145 Y121.164 E77.42571
G1 X129.467 Y120.989 E77.44123
G1 X159.014 Y150.536 E79.20976
G1 X159.214 Y150.178 E79.22711
G1 X159.589 Y149.415 E79.26309
G1 X130.583 Y120.409 E80.99924
G1 X130.703 Y120.35 E81.0049
G1 X131.209 Y120.113 E81.02855
G1 X131.755 Y119.885 E81.05359
G1 X160.114 Y148.244 E82.75102
G1 X160.134 Y148.195 E82.75326
G1 X160.347 Y147.653 E82.7779
G1 X160.57 Y147.005 E82.80691
G1 X132.994 Y119.428 E84.4575
G1 X133.482 Y119.259 E84.47935
G0 F2625 X133.487 Y119.259
G1 F1350 X133.526 Y119.247 E84.48108
G1 X134.025 Y119.099 E84.50311
G1 X134.292 Y119.031 E84.51477
G1 X160.968 Y145.707 E86.11146
G1 X161.217 Y144.729 E86.15417
G1 X161.298 Y144.342 E86.1709
G1 X135.657 Y118.701 E87.70564
G1 X135.835 Y118.663 E87.71335
G1 X137.12 Y118.468 E87.76835
G1 X161.531 Y142.879 E89.22947
G1 X161.59 Y142.489 E89.24616
G1 X161.593 Y142.489 E89.24629
G1 X161.603 Y142.412 E89.24958
G1 X161.646 Y142.025 E89.26606
G1 X161.695 Y141.347 E89.29483
G1 X138.653 Y118.305 E90.674
G0 F2625 X139.999 Y118.257
G1 F1350 X140.306 Y118.263 E90.687
G1 X161.736 Y139.693 E91.96969
G1 X161.729 Y139.36 E91.98378
G1 X161.704 Y138.776 E92.00852
G1 X161.646 Y137.974 E92.04256
G1 X161.638 Y137.899 E92.04575
G1 X142.1 Y118.361 E93.21519
G1 X142.418 Y118.396 E93.22873
G1 X142.487 Y118.405 E93.23168
G0 F2625 X142.488 Y118.408
G1 F1350 X144.087 Y118.652 E93.30014
G1 X161.347 Y135.912 E94.33323
G1 X161.334 Y135.827 E94.33687
G1 X161.215 Y135.261 E94.36135
G1 X160.901 Y134.028 E94.4152
G1 X160.793 Y133.662 E94.43135
G1 X146.337 Y119.206 E95.29661
G1 X146.463 Y119.243 E95.30217
G0 F2625 X146.463 Y119.245
G1 F1350 X146.511 Y119.259 E95.30429
G1 X146.524 Y119.262 E95.30485
G1 X147.646 Y119.65 E95.3551
G1 X148.206 Y119.87 E95.38056
G1 X148.788 Y120.114 E95.40727
G1 X149.072 Y120.247 E95.42054
G1 X159.752 Y130.926 E96.05976
G1 X159.639 Y130.686 E96.07099
G1 X159.335 Y130.065 E96.10025
G1 X158.837 Y129.151 E96.14431
G1 X158.516 Y128.611 E96.1709
G1 X158.111 Y127.967 E96.20309
G0 F2625 X158.11 Y127.966
G1 F1350 X157.854 Y127.596 E96.22214
G0 F2625 X157.853 Y127.596
G1 F1350 X157.519 Y127.129 E96.24644
G1 X157.31 Y126.842 E96.26146
G1 X157.305 Y126.837 E96.26176
G1 X157.09 Y126.569 E96.2763
G1 X153.428 Y122.906 E96.49552
G0 F2625 X157.853 Y127.596
G1 F1350 X157.854 Y127.596 E96.49557
G0 F2625 X158.11 Y127.966
G1 F1350 X158.111 Y127.967 E96.49563
G0 F2625 X146.463 Y119.245
G1 F1350 X146.463 Y119.243 E96.49571
G0 F2625 X142.488 Y118.408
G1 F1350 X142.487 Y118.405 E96.49584
G0 F2625 X133.487 Y119.259
G1 F1350 X133.482 Y119.259 E96.49606
G0 F2625 X124.63 Y124.63
G1 F1350 X155.369 Y155.369 E98.33593
G1 X155.152 Y155.585 E98.34889
G1 X154.495 Y156.191 E98.38672
G1 X123.808 Y125.503 E100.22352
G1 X123.624 Y125.703 E100.23502
G1 X123.233 Y126.162 E100.26054
G1 X123.027 Y126.418 E100.27444
G1 X153.579 Y156.97 E102.10313
G1 X153.133 Y157.327 E102.12731
G1 X152.871 Y157.52 E102.14108
G0 F2625 X152.87 Y157.519
G1 F1350 X152.614 Y157.701 E102.15437
G1 X122.296 Y127.383 E103.96905
G1 X122.137 Y127.608 E103.98071
G1 X121.87 Y127.994 E104.00058
G1 X121.616 Y128.398 E104.02078
G1 X151.599 Y158.382 E105.81543
G1 X151.386 Y158.517 E105.82611
G0 F2625 X151.387 Y158.516
G1 F1350 X150.854 Y158.833 E105.85235
G1 X150.531 Y159.009 E105.86792
G1 X120.985 Y129.463 E107.63639
G1 X120.78 Y129.824 E107.65396
G1 X120.408 Y130.582 E107.6897
G1 X149.415 Y159.589 E109.42591
G1 X149.297 Y159.647 E109.43147
G1 X148.79 Y159.885 E109.45518
G1 X148.244 Y160.113 E109.48022
G1 X119.884 Y131.753 E111.1777
G1 X119.864 Y131.803 E111.17998
G1 X119.652 Y132.346 E111.20465
G1 X119.428 Y132.994 E111.23367
G1 X147.004 Y160.569 E112.8842
G1 X146.518 Y160.738 E112.90598
G1 X146.511 Y160.74 E112.90628
G1 X146.479 Y160.75 E112.9077
G1 X145.974 Y160.9 E112.93
G1 X145.707 Y160.967 E112.94165
G1 X119.03 Y134.291 E114.53837
G1 X118.784 Y135.261 E114.58072
G1 X118.699 Y135.656 E114.59782
G1 X144.341 Y161.298 E116.13262
G1 X144.164 Y161.335 E116.14027
G1 X142.878 Y161.53 E116.19532
G1 X118.467 Y137.119 E117.65644
G1 X118.408 Y137.51 E117.67317
G1 X118.405 Y137.509 E117.67331
G1 X118.395 Y137.586 E117.67659
G1 X118.352 Y137.973 E117.69307
G1 X118.303 Y138.651 E117.72184
G1 X141.346 Y161.694 E119.10108
G1 X141.216 Y161.704 E119.1066
G1 X140.627 Y161.729 E119.13155
G1 X140 Y161.742 E119.15809
G1 X139.692 Y161.735 E119.17113
G1 X118.262 Y140.306 E120.45379
G1 X118.269 Y140.627 E120.46738
G1 X118.294 Y141.202 E120.49174
G1 X118.353 Y142.024 E120.52662
G1 X118.361 Y142.1 E120.52985
G1 X137.899 Y161.638 E121.6993
G1 X137.581 Y161.602 E121.71284
G1 X137.511 Y161.593 E121.71583
G0 F2625 X137.511 Y161.59
G1 F1350 X135.912 Y161.346 E121.78429
G1 X118.651 Y144.086 E122.81741
G1 X118.663 Y144.163 E122.82071
G1 X118.781 Y144.728 E122.84514
G1 X119.098 Y145.973 E122.89951
G1 X119.206 Y146.336 E122.91554
G1 X133.662 Y160.792 E123.7808
G1 X133.52 Y160.75 E123.78707
G1 X133.488 Y160.74 E123.78849
G1 X133.481 Y160.738 E123.7888
G1 X132.352 Y160.348 E123.83935
G1 X131.792 Y160.129 E123.8648
G1 X131.209 Y159.885 E123.89155
G1 X130.925 Y159.751 E123.90484
