;Generated by Cura LulzBot Edition GCodeWriter Version: 2.6.69
;FLAVOR:RepRap
;TIME:1938
;Filament used: 0.588448m
;Layer height: 0.18
;Generated with Cura_SteamEngine 2.6.69
;This G-Code has been generated specifically for the LulzBot TAZ 6 with standard extruder
G26 ; clear potential 'probe fail' condition
G21 ; set units to Millimetres
M107 ; disable fans
G90 ; absolute positioning
M82 ; set extruder to absolute mode
G92 E0 ; set extruder position to 0
M140 S110 ; start bed heating up
G28 XY ; home X and Y
G1 X-19 Y258 F1000 ; move to safe homing position
M109 R175 ; soften filament before homing Z
G28 Z ; home Z
G1 E-30 F100 ; retract filament
M109 R170 ; wait for extruder to reach wiping temp
G1 X-15 Y100 F3000 ; move above wiper pad
G1 Z1 ; push nozzle into wiper
G1 X-17 Y95 F1000 ; slow wipe
G1 X-17 Y90 F1000 ; slow wipe
G1 X-17 Y85 F1000 ; slow wipe
G1 X-15 Y90 F1000 ; slow wipe
G1 X-17 Y80 F1000 ; slow wipe
G1 X-15 Y95 F1000 ; slow wipe
G1 X-17 Y75 F2000 ; fast wipe
G1 X-15 Y65 F2000 ; fast wipe
G1 X-17 Y70 F2000 ; fast wipe
G1 X-15 Y60 F2000 ; fast wipe
G1 X-17 Y55 F2000 ; fast wipe
G1 X-15 Y50 F2000 ; fast wipe
G1 X-17 Y40 F2000 ; fast wipe
G1 X-15 Y45 F2000 ; fast wipe
G1 X-17 Y35 F2000 ; fast wipe
G1 X-15 Y40 F2000 ; fast wipe
G1 X-17 Y70 F2000 ; fast wipe
G1 X-15 Y30 Z2 F2000 ; fast wipe
G1 X-17 Y35 F2000 ; fast wipe
G1 X-15 Y25 F2000 ; fast wipe
G1 X-17 Y30 F2000 ; fast wipe
G1 X-15 Y25 Z1.5 F1000 ; slow wipe
G1 X-17 Y23 F1000 ; slow wipe
G1 Z10 ; raise extruder
M109 R170 ; wait for extruder to reach probe temp
G1 X-9 Y-9 ; move above first probe point
M204 S100 ; set probing acceleration
G29 ; start auto-leveling sequence
M204 S500 ; restore standard acceleration
G1 X0 Y0 Z15 F5000 ; move up off last probe point
G4 S1 ; pause
M400 ; wait for moves to finish
M117 Heating... ; progress indicator message on LCD
M109 R240 ; wait for extruder to reach printing temp
M190 S110 ; wait for bed to reach printing temp
G1 Z2 E0 F75 ; prime tiny bit of filament into the nozzle
M117 TAZ 6 Printing... ; progress indicator message on LCD

M221 S100
;LAYER_COUNT:102
;LAYER:-6
M107
G0 F2625 X120.909 Y121.279 Z0.51
G1 F1350 X122.109 Y120.129 E0.13287
G1 X122.561 Y119.731 E0.18102
G1 X123.864 Y118.68 E0.31485
G1 X124.333 Y118.332 E0.36154
G1 X125.74 Y117.382 E0.49726
G1 X126.231 Y117.079 E0.54339
G1 X127.695 Y116.262 E0.67742
G1 X128.216 Y115.999 E0.72408
G1 X129.764 Y115.299 E0.8599
G1 X130.331 Y115.071 E0.90875
G1 X131.862 Y114.529 E1.03859
G1 X132.409 Y114.362 E1.08431
G1 X134.094 Y113.923 E1.22352
G1 X134.677 Y113.797 E1.2712
G1 X136.313 Y113.518 E1.40388
G1 X136.924 Y113.439 E1.45313
G1 X138.553 Y113.301 E1.58383
G1 X139.174 Y113.275 E1.63352
G1 X140.826 Y113.275 E1.76559
G1 X141.447 Y113.301 E1.81528
G1 X143.076 Y113.439 E1.94597
G1 X143.687 Y113.518 E1.99523
G1 X145.323 Y113.797 E2.1279
G1 X145.906 Y113.923 E2.17559
G1 X147.591 Y114.362 E2.31479
G1 X148.138 Y114.529 E2.36051
G1 X149.669 Y115.071 E2.49035
G1 X150.236 Y115.299 E2.53921
G1 X151.784 Y115.999 E2.67503
G1 X152.305 Y116.262 E2.72169
G1 X153.769 Y117.079 E2.85572
G1 X154.26 Y117.382 E2.90184
G1 X155.667 Y118.332 E3.03756
G1 X156.136 Y118.68 E3.08425
G1 X157.439 Y119.731 E3.21808
G1 X157.891 Y120.129 E3.26623
G1 X159.091 Y121.279 E3.3991
G1 X159.512 Y121.718 E3.44773
G1 X160.621 Y122.979 E3.58198
G1 X161.011 Y123.462 E3.63161
G1 X161.952 Y124.736 E3.75823
G1 X162.312 Y125.267 E3.80952
G1 X163.215 Y126.732 E3.9471
G1 X163.495 Y127.237 E3.99326
G1 X164.237 Y128.71 E4.12512
G1 X164.478 Y129.24 E4.17166
G1 X165.103 Y130.792 E4.30542
G1 X165.308 Y131.374 E4.35475
G1 X165.805 Y132.995 E4.49029
G1 X165.948 Y133.548 E4.53596
G1 X166.297 Y135.165 E4.6682
G1 X166.395 Y135.73 E4.71405
G1 X166.62 Y137.475 E4.85471
G1 X166.664 Y138.002 E4.89698
G1 X166.737 Y139.713 E5.03389
G1 X166.737 Y140.287 E5.07978
G1 X166.664 Y141.987 E5.21581
G1 X166.62 Y142.525 E5.25897
G1 X166.396 Y144.264 E5.39914
G1 X166.298 Y144.828 E5.44491
G1 X165.949 Y146.447 E5.57731
G1 X165.807 Y146.996 E5.62264
G1 X165.308 Y148.626 E5.75892
G1 X165.106 Y149.199 E5.80749
G1 X164.479 Y150.758 E5.94183
G1 X164.237 Y151.29 E5.98855
G1 X163.495 Y152.763 E6.12041
G1 X163.215 Y153.268 E6.16657
G1 X162.312 Y154.733 E6.30415
G1 X161.956 Y155.258 E6.35486
G1 X161.011 Y156.538 E6.48206
G1 X160.622 Y157.02 E6.53158
G1 X159.512 Y158.282 E6.66594
G1 X159.091 Y158.721 E6.71457
G1 X157.906 Y159.857 E6.8458
G1 X157.431 Y160.276 E6.89644
G1 X156.136 Y161.32 E7.02942
G1 X155.667 Y161.668 E7.07611
G1 X154.26 Y162.618 E7.21183
G1 X153.769 Y162.921 E7.25795
G1 X152.305 Y163.738 E7.39198
G1 X151.784 Y164.001 E7.43864
G1 X150.236 Y164.701 E7.57446
G1 X149.669 Y164.929 E7.62332
G1 X148.138 Y165.471 E7.75316
G1 X147.591 Y165.638 E7.79888
G1 X145.906 Y166.077 E7.93808
G1 X145.323 Y166.203 E7.98577
G1 X143.687 Y166.482 E8.11844
G1 X143.076 Y166.561 E8.1677
G1 X141.447 Y166.699 E8.29839
G1 X140.826 Y166.725 E8.34808
G1 X139.174 Y166.725 E8.48015
G1 X138.553 Y166.699 E8.52984
G1 X136.924 Y166.561 E8.66054
G1 X136.313 Y166.482 E8.70979
G1 X134.677 Y166.203 E8.84247
G1 X134.094 Y166.077 E8.89015
G1 X132.409 Y165.638 E9.02936
G1 X131.862 Y165.471 E9.07508
G1 X130.331 Y164.929 E9.20492
G1 X129.764 Y164.701 E9.25377
G1 X128.216 Y164.001 E9.38959
G1 X127.695 Y163.738 E9.43625
G1 X126.231 Y162.921 E9.57028
G1 X125.74 Y162.618 E9.61641
G1 X124.333 Y161.668 E9.75213
G1 X123.864 Y161.32 E9.79882
G1 X122.569 Y160.276 E9.9318
G1 X122.094 Y159.857 E9.98244
G1 X120.909 Y158.721 E10.11367
G1 X120.488 Y158.282 E10.1623
G1 X119.378 Y157.02 E10.29666
G1 X118.989 Y156.538 E10.34618
G1 X118.044 Y155.258 E10.47337
G1 X117.688 Y154.733 E10.52408
G1 X116.785 Y153.268 E10.66166
G1 X116.505 Y152.763 E10.70783
G1 X115.763 Y151.29 E10.83968
G1 X115.521 Y150.758 E10.88641
G1 X114.894 Y149.199 E11.02074
G1 X114.692 Y148.626 E11.06931
G1 X114.193 Y146.996 E11.20559
G1 X114.051 Y146.447 E11.25093
G1 X113.702 Y144.828 E11.38333
G1 X113.604 Y144.264 E11.4291
G1 X113.38 Y142.525 E11.56927
G1 X113.336 Y141.987 E11.61242
G1 X113.263 Y140.287 E11.74845
G1 X113.263 Y139.713 E11.79434
G1 X113.336 Y138.002 E11.93125
G1 X113.38 Y137.475 E11.97353
G1 X113.605 Y135.73 E12.11419
G1 X113.703 Y135.165 E12.16003
G1 X114.052 Y133.548 E12.29228
G1 X114.195 Y132.995 E12.33794
G1 X114.692 Y131.374 E12.47349
G1 X114.897 Y130.792 E12.52282
G1 X115.522 Y129.24 E12.65657
G1 X115.763 Y128.71 E12.70312
G1 X116.505 Y127.237 E12.83498
G1 X116.785 Y126.732 E12.88114
G1 X117.688 Y125.267 E13.01872
G1 X118.048 Y124.736 E13.07001
G1 X118.989 Y123.462 E13.19663
G1 X119.379 Y122.979 E13.24626
G1 X120.488 Y121.718 E13.38051
G1 X120.909 Y121.279 E13.42913
G0 F2625 X120 Y122.272
G1 F1350 X120 Y157.727 E16.26358
G0 F2625 X122 Y159.766
G1 F1350 X122 Y120.233 E19.42404
G0 F2625 X124 Y118.579
G1 F1350 X124 Y161.42 E22.84896
G0 F2625 X126 Y162.778
G1 F1350 X126 Y117.221 E26.491
G0 F2625 X128 Y116.108
G1 F1350 X128 Y163.891 E30.31101
G0 F2625 X130 Y164.795
G1 F1350 X130 Y115.204 E34.27555
G0 F2625 X132 Y114.486
G1 F1350 X132 Y165.513 E38.3549
G0 F2625 X134 Y166.052
G1 F1350 X134 Y113.947 E42.52043
G0 F2625 X136 Y113.571
G1 F1350 X136 Y166.428 E46.74607
G0 F2625 X138 Y166.652
G1 F1350 X138 Y113.347 E51.00754
G0 F2625 X140 Y113.275
G1 F1350 X140 Y166.725 E55.28059
G0 F2625 X142 Y166.653
G1 F1350 X142 Y113.348 E59.54205
G0 F2625 X144 Y113.572
G1 F1350 X144 Y166.429 E63.7677
G0 F2625 X146 Y166.053
G1 F1350 X146 Y113.948 E67.93322
G0 F2625 X148 Y114.487
G1 F1350 X148 Y165.514 E72.01257
G0 F2625 X150 Y164.796
G1 F1350 X150 Y115.205 E75.97711
G0 F2625 X152 Y116.109
G1 F1350 X152 Y163.892 E79.79712
G0 F2625 X154 Y162.779
G1 F1350 X154 Y117.222 E83.43917
G0 F2625 X156 Y118.58
G1 F1350 X156 Y161.421 E86.86409
G0 F2625 X158 Y159.767
G1 F1350 X158 Y120.234 E90.02455
G0 F2625 X160 Y122.273
G1 F1350 X160 Y157.728 E92.85899
G0 F2625 X162 Y155.194
G1 F1350 X162 Y124.807 E95.28828
G0 F2625 X164 Y128.24
G1 F1350 X164 Y151.761 E97.16866
G0 F2625 X166 Y146.211
G1 F1350 X166 Y133.789 E98.16174
G0 F2625 X118 Y124.806
G1 F1350 X118 Y155.193 E100.59102
G0 F2625 X116 Y151.76
M104 S240
G1 F1350 X116 Y128.239 E102.4714
G0 F2625 X114 Y133.788
G1 F1350 X114 Y146.21 E103.46448
G0 F2625 X121.097 Y121.097
;TIME_ELAPSED:66.120892
;LAYER:-5
M140 S110
M221 S100
G0 X121.097 Y121.097 Z0.78
;TYPE:SUPPORT
G1 F1350 X121.963 Y120.268 E103.51522
G1 X159.729 Y158.034 E105.77569
G1 X160.523 Y157.131 E105.82659
G1 X122.871 Y119.48 E108.08021
G1 X123.81 Y118.723 E108.13126
G1 X161.271 Y156.185 E110.37351
G1 X161.955 Y155.258 E110.42227
G1 X161.99 Y155.207 E110.42489
G1 X124.8 Y118.017 E112.65089
G1 X125.739 Y117.382 E112.69886
G1 X125.814 Y117.336 E112.70259
G1 X162.655 Y154.176 E114.90767
G1 X163.214 Y153.268 E114.9528
G1 X163.295 Y153.121 E114.9599
G1 X126.886 Y116.712 E117.13916
G1 X127.694 Y116.261 E117.17832
G1 X127.985 Y116.116 E117.19208
G1 X163.876 Y152.006 E119.3403
G1 X164.236 Y151.29 E119.37422
G1 X164.43 Y150.865 E119.39399
G1 X129.144 Y115.579 E121.50603
G1 X129.763 Y115.298 E121.5348
G1 X130.33 Y115.071 E121.56065
G1 X130.331 Y115.071 E121.56069
G1 X164.92 Y149.659 E123.63098
G1 X165.105 Y149.199 E123.65196
G1 X165.306 Y148.626 E123.67766
G1 X165.371 Y148.415 E123.68701
G1 X131.584 Y114.627 E125.70935
G1 X131.861 Y114.528 E125.7218
G1 X132.408 Y114.361 E125.74601
G1 X132.889 Y114.237 E125.76703
G1 X165.769 Y147.117 E127.73506
G1 X165.806 Y146.996 E127.74042
G1 X165.948 Y146.447 E127.76442
G1 X166.098 Y145.75 E127.79459
G1 X134.239 Y113.891 E129.70151
G1 X134.676 Y113.796 E129.72043
G1 X135.671 Y113.627 E129.76315
G1 X166.382 Y144.338 E131.60135
G1 X166.394 Y144.263 E131.60456
G1 X166.578 Y142.839 E131.66533
G1 X137.158 Y113.419 E133.42626
G1 X138.551 Y113.301 E133.48543
G1 X138.728 Y113.294 E133.49293
G1 X166.694 Y141.26 E135.16683
G1 X166.735 Y140.287 E135.20805
G1 X166.735 Y139.712 E135.23238
G1 X166.731 Y139.601 E135.23708
G1 X140.405 Y113.274 E136.81285
G0 F2625 X140.825 Y113.274
G1 F1350 X141.446 Y113.301 E136.83916
G1 X142.189 Y113.364 E136.87072
G1 X166.648 Y137.822 E138.33468
G1 X166.619 Y137.474 E138.34946
G1 X166.415 Y135.893 E138.41693
G1 X144.112 Y113.591 E139.75184
G1 X145.322 Y113.796 E139.80378
G1 X145.905 Y113.922 E139.82902
G1 X146.223 Y114.006 E139.84295
G1 X165.997 Y133.78 E141.02651
G1 X165.947 Y133.547 E141.0366
G1 X165.804 Y132.994 E141.06078
G1 X165.315 Y131.403 E141.13122
G1 X148.608 Y114.695 E142.13125
G1 X149.668 Y115.071 E142.17885
G1 X150.235 Y115.298 E142.2047
G1 X151.462 Y115.854 E142.26171
G1 X164.153 Y128.544 E143.0213
G1 X163.494 Y127.236 E143.08329
G1 X163.214 Y126.731 E143.10773
G1 X162.311 Y125.267 E143.18053
G1 X161.951 Y124.736 E143.20768
G1 X161.7 Y124.396 E143.22557
G1 X155.574 Y118.27 E143.59224
G0 F2625 X121.097 Y121.097
G1 F1350 X158.901 Y158.901 E145.85499
G1 X158.035 Y159.731 E145.90576
G1 X120.269 Y121.965 E148.16623
G1 X119.475 Y122.866 E148.21706
G1 X157.127 Y160.518 E150.47072
G1 X156.189 Y161.276 E150.52176
G1 X118.727 Y123.814 E152.76404
G1 X118.047 Y124.735 E152.81249
G1 X118.009 Y124.791 E152.81536
G1 X155.199 Y161.981 E155.04136
G1 X154.26 Y162.616 E155.08933
G1 X154.184 Y162.662 E155.09309
G1 X117.344 Y125.822 E157.29815
G1 X116.785 Y126.731 E157.34331
G1 X116.703 Y126.877 E157.3504
G1 X153.112 Y163.286 E159.52965
G1 X152.305 Y163.737 E159.56878
G1 X152.013 Y163.883 E159.5826
G1 X116.123 Y127.992 E161.73082
G1 X115.763 Y128.708 E161.76473
G1 X115.568 Y129.133 E161.78452
G1 X150.854 Y164.42 E163.89659
G1 X150.236 Y164.7 E163.92531
G1 X149.669 Y164.928 E163.95117
G0 F2625 X149.667 Y164.928
G1 F1350 X115.078 Y130.339 E166.02149
G1 X114.897 Y130.791 E166.0421
G1 X114.692 Y131.372 E166.06817
G1 X114.626 Y131.583 E166.07753
G1 X148.415 Y165.371 E168.09994
G1 X148.138 Y165.47 E168.11239
G1 X147.59 Y165.637 E168.13663
G1 X147.11 Y165.762 E168.15763
G1 X114.228 Y132.88 E170.12577
G1 X114.194 Y132.994 E170.13081
G1 X114.052 Y133.547 E170.15497
G1 X113.9 Y134.248 E170.18533
G1 X145.76 Y166.107 E172.09227
G1 X145.323 Y166.202 E172.1112
G1 X144.328 Y166.371 E172.15392
G1 X113.616 Y135.659 E173.99218
G1 X113.605 Y135.729 E173.99518
G1 X113.42 Y137.159 E174.0562
G1 X142.841 Y166.58 E175.81719
G1 X141.447 Y166.698 E175.8764
G1 X141.27 Y166.705 E175.8839
G1 X113.303 Y138.738 E177.55786
G1 X113.263 Y139.712 E177.59912
G1 X113.262 Y140.285 E177.62337
G1 X113.267 Y140.397 E177.62812
G1 X139.594 Y166.724 E179.20391
G1 X139.174 Y166.724 E179.22169
G1 X138.552 Y166.698 E179.24804
G1 X137.809 Y166.635 E179.2796
G1 X113.351 Y142.177 E180.74353
G1 X113.38 Y142.524 E180.75826
G1 X113.583 Y144.105 E180.82573
G1 X135.886 Y166.408 E182.16067
G1 X134.676 Y166.202 E182.21262
G1 X134.093 Y166.076 E182.23786
G1 X133.776 Y165.993 E182.25173
G1 X114.001 Y146.218 E183.43536
G1 X114.05 Y146.446 E183.44523
G1 X114.192 Y146.995 E183.46923
G1 X114.682 Y148.595 E183.54005
G1 X131.391 Y165.303 E184.54014
G1 X130.331 Y164.928 E184.58773
G1 X129.763 Y164.7 E184.61363
G1 X128.536 Y164.144 E184.67064
G1 X115.845 Y151.453 E185.43026
G1 X116.505 Y152.762 E185.49231
G1 X116.785 Y153.267 E185.51675
G1 X117.688 Y154.731 E185.58955
G1 X118.043 Y155.257 E185.6164
G1 X118.298 Y155.603 E185.6346
G1 X124.424 Y161.728 E186.00124
G0 F2625 X149.667 Y164.928
G1 F1350 X149.669 Y164.928 E186.00132
G0 F2625 X120.837 Y121
;TIME_ELAPSED:156.161856
;LAYER:-4
G0 X120.837 Y121 Z0.959
G1 F1800 X121.359 Y120.5 E186.01146
G1 X158.64 Y120.5 E186.5345
G1 X158.118 Y120 E186.54464
G1 X121.881 Y120 E187.05303
G1 X121.935 Y119.948 E187.05408
G1 X122.403 Y119.536 E187.06283
G1 X122.448 Y119.5 E187.06364
G1 X157.551 Y119.5 E187.55611
G1 X156.931 Y119 E187.56729
G1 X123.068 Y119 E188.04237
G1 X123.688 Y118.5 E188.05355
G1 X156.311 Y118.5 E188.51123
G1 X156.276 Y118.472 E188.51186
G1 X155.815 Y118.13 E188.51991
G1 X155.623 Y118 E188.52317
G1 X124.376 Y118 E188.96155
G1 X125.117 Y117.5 E188.97409
G1 X154.882 Y117.5 E189.39168
G1 X154.399 Y117.174 E189.39985
G1 X154.118 Y117 E189.40449
G1 X125.881 Y117 E189.80064
G1 X126.117 Y116.854 E189.80454
G1 X126.752 Y116.5 E189.81473
G1 X153.247 Y116.5 E190.18645
G1 X152.435 Y116.047 E190.19949
G1 X152.342 Y116 E190.20095
G1 X127.657 Y116 E190.54727
G1 X128.112 Y115.77 E190.55443
G1 X128.71 Y115.5 E190.56363
G1 X151.289 Y115.5 E190.8804
G1 X150.331 Y115.067 E190.89515
G1 X150.165 Y115 E190.89766
G1 X129.834 Y115 E191.1829
G1 X130.226 Y114.842 E191.18883
G1 X131.193 Y114.5 E191.20322
G1 X148.806 Y114.5 E191.45032
G1 X148.209 Y114.289 E191.4592
G1 X147.653 Y114.119 E191.46736
G1 X147.197 Y114 E191.47397
G1 X132.802 Y114 E191.67593
G1 X134.04 Y113.677 E191.69388
G1 X134.63 Y113.55 E191.70235
G1 X134.923 Y113.5 E191.70652
G1 X145.076 Y113.5 E191.84896
G0 F2625 X159.162 Y121
G1 F1800 X120.837 Y121 E192.38664
G0 F2625 X120.35 Y121.5
G1 F1800 X159.649 Y121.5 E192.93799
G1 X159.263 Y121.097 E192.94582
G1 X159.162 Y121 E192.94778
G0 F2625 X160.093 Y122
G1 F1800 X160.532 Y122.5 E192.95712
G1 X119.467 Y122.5 E193.53324
G1 X119.184 Y122.821 E193.53924
G1 X119.04 Y123 E193.54247
G1 X160.959 Y123 E194.13057
G1 X161.198 Y123.296 E194.13591
G1 X161.349 Y123.5 E194.13947
G1 X118.65 Y123.5 E194.73851
G1 X118.28 Y124 E194.74724
G1 X161.719 Y124 E195.35667
G1 X162.088 Y124.5 E195.36539
G1 X117.911 Y124.5 E195.98517
G1 X117.834 Y124.603 E195.98698
G1 X117.565 Y125 E195.9937
G1 X162.434 Y125 E196.6232
G1 X162.512 Y125.116 E196.62516
G1 X162.749 Y125.5 E196.63149
G1 X117.249 Y125.5 E197.26983
G1 X116.941 Y126 E197.27807
G1 X163.058 Y126 E197.92507
G1 X163.366 Y126.5 E197.93331
G1 X116.633 Y126.5 E198.58895
G1 X116.571 Y126.6 E198.5906
G1 X116.35 Y127 E198.59701
G1 X163.649 Y127 E199.2606
G1 X163.722 Y127.132 E199.26271
G1 X163.908 Y127.5 E199.2685
G1 X116.091 Y127.5 E199.93935
G1 X115.839 Y128 E199.9472
G1 X164.16 Y128 E200.62513
G1 X164.412 Y128.5 E200.63298
G1 X115.587 Y128.5 E201.31797
G1 X115.543 Y128.587 E201.31934
G1 X115.356 Y129 E201.3257
G1 X164.643 Y129 E202.01718
G1 X164.713 Y129.155 E202.01956
G1 X164.852 Y129.5 E202.02478
G1 X115.147 Y129.5 E202.72212
G1 X114.945 Y130 E202.72968
G1 X165.054 Y130 E203.43269
G1 X165.255 Y130.5 E203.44025
G1 X114.744 Y130.5 E204.1489
G1 X114.656 Y130.718 E204.15219
