;Generated by Cura LulzBot Edition GCodeWriter Version: 2.6.69
;FLAVOR:RepRap
;TIME:1748
;Filament used: 0.345262m
;Layer height: 0.18
;Generated with Cura_SteamEngine 2.6.69
;This G-Code has been generated specifically for the LulzBot TAZ 6 with standard extruder
G26 ; clear potential 'probe fail' condition
G21 ; set units to Millimetres
M107 ; disable fans
G90 ; absolute positioning
M82 ; set extruder to absolute mode
G92 E0 ; set extruder position to 0
M140 S110 ; start bed heating up
G28 XY ; home X and Y
G1 X-19 Y258 F1000 ; move to safe homing position
M109 R175 ; soften filament before homing Z
G28 Z ; home Z
G1 E-30 F100 ; retract filament
M109 R170 ; wait for extruder to reach wiping temp
G1 X-15 Y100 F3000 ; move above wiper pad
G1 Z1 ; push nozzle into wiper
G1 X-17 Y95 F1000 ; slow wipe
G1 X-17 Y90 F1000 ; slow wipe
G1 X-17 Y85 F1000 ; slow wipe
G1 X-15 Y90 F1000 ; slow wipe
G1 X-17 Y80 F1000 ; slow wipe
G1 X-15 Y95 F1000 ; slow wipe
G1 X-17 Y75 F2000 ; fast wipe
G1 X-15 Y65 F2000 ; fast wipe
G1 X-17 Y70 F2000 ; fast wipe
G1 X-15 Y60 F2000 ; fast wipe
G1 X-17 Y55 F2000 ; fast wipe
G1 X-15 Y50 F2000 ; fast wipe
G1 X-17 Y40 F2000 ; fast wipe
G1 X-15 Y45 F2000 ; fast wipe
G1 X-17 Y35 F2000 ; fast wipe
G1 X-15 Y40 F2000 ; fast wipe
G1 X-17 Y70 F2000 ; fast wipe
G1 X-15 Y30 Z2 F2000 ; fast wipe
G1 X-17 Y35 F2000 ; fast wipe
G1 X-15 Y25 F2000 ; fast wipe
G1 X-17 Y30 F2000 ; fast wipe
G1 X-15 Y25 Z1.5 F1000 ; slow wipe
G1 X-17 Y23 F1000 ; slow wipe
G1 Z10 ; raise extruder
M109 R170 ; wait for extruder to reach probe temp
G1 X-9 Y-9 ; move above first probe point
M204 S100 ; set probing acceleration
G29 ; start auto-leveling sequence
M204 S500 ; restore standard acceleration
G1 X0 Y0 Z15 F5000 ; move up off last probe point
G4 S1 ; pause
M400 ; wait for moves to finish
M117 Heating... ; progress indicator message on LCD
M109 R240 ; wait for extruder to reach printing temp
M190 S110 ; wait for bed to reach printing temp
G1 Z2 E0 F75 ; prime tiny bit of filament into the nozzle
M117 TAZ 6 Printing... ; progress indicator message on LCD

M221 S100
;LAYER_COUNT:99
;LAYER:-6
M107
G0 F2625 X108.637 Y124.464 Z0.51
G1 F1350 X109.218 Y123.983 E0.0603
G1 X110.065 Y123.333 E0.14565
G1 X110.699 Y122.907 E0.20672
G1 X111.334 Y122.503 E0.26689
G1 X112.258 Y121.963 E0.35245
G1 X112.922 Y121.628 E0.4119
G1 X113.612 Y121.303 E0.47288
G1 X114.591 Y120.886 E0.55795
G1 X115.343 Y120.621 E0.62169
G1 X116.035 Y120.397 E0.67984
G1 X117.068 Y120.104 E0.76568
G1 X117.781 Y119.948 E0.82403
G1 X118.52 Y119.806 E0.88419
G1 X119.554 Y119.647 E0.96782
G1 X120.357 Y119.574 E1.03228
G1 X121.069 Y119.53 E1.08931
G1 X122.166 Y119.501 E1.17704
G1 X122.907 Y119.528 E1.23632
G1 X123.64 Y119.574 E1.29503
G1 X124.721 Y119.681 E1.38188
G1 X125.492 Y119.808 E1.44435
G1 X126.208 Y119.945 E1.50262
G1 X127.273 Y120.19 E1.58999
G1 X127.893 Y120.374 E1.64169
G1 X128.668 Y120.624 E1.70679
G1 X129.681 Y120.994 E1.79301
G1 X130.384 Y121.301 E1.85434
G1 X131.071 Y121.625 E1.91506
G1 X132.012 Y122.11 E1.99969
G1 X132.666 Y122.503 E2.06069
G1 X133.287 Y122.897 E2.11949
G1 X134.186 Y123.515 E2.2067
G1 X134.763 Y123.968 E2.26535
G1 X135.343 Y124.447 E2.32548
G1 X136.148 Y125.165 E2.41172
G1 X136.662 Y125.684 E2.47011
G1 X137.187 Y126.244 E2.53148
G1 X137.893 Y127.053 E2.61732
G1 X138.348 Y127.644 E2.67695
G1 X138.781 Y128.24 E2.73584
G1 X139.389 Y129.143 E2.82287
G1 X139.777 Y129.808 E2.88442
G1 X140.128 Y130.445 E2.94256
G1 X140.614 Y131.409 E3.02887
G1 X140.909 Y132.105 E3.0893
G1 X141.187 Y132.806 E3.14959
G1 X141.537 Y133.796 E3.23354
G1 X141.751 Y134.543 E3.29566
G1 X141.932 Y135.242 E3.35338
G1 X142.165 Y136.305 E3.44038
G1 X142.279 Y137.051 E3.50071
G1 X142.371 Y137.781 E3.55954
G1 X142.468 Y138.863 E3.64638
G1 X142.488 Y139.635 E3.70812
G1 X142.488 Y140.376 E3.76736
G1 X142.449 Y141.436 E3.85216
G1 X142.375 Y142.188 E3.91257
G1 X142.284 Y142.913 E3.97098
G1 X142.109 Y143.984 E4.05774
G1 X141.933 Y144.753 E4.12081
G1 X141.755 Y145.445 E4.17793
G1 X141.443 Y146.496 E4.26557
G1 X141.196 Y147.169 E4.32289
G1 X140.908 Y147.895 E4.38533
G1 X140.495 Y148.841 E4.46785
G1 X140.124 Y149.562 E4.53267
G1 X139.778 Y150.192 E4.59013
G1 X139.234 Y151.102 E4.67489
G1 X138.789 Y151.748 E4.7376
G1 X138.367 Y152.329 E4.79501
G1 X137.698 Y153.183 E4.88174
G1 X137.172 Y153.774 E4.94499
G1 X136.695 Y154.283 E5.00075
G1 X136.694 Y154.282 E5.00087
G1 X135.907 Y155.06 E5.08934
G1 X135.363 Y155.536 E5.14713
G1 X134.782 Y156.017 E5.20743
G1 X133.935 Y156.667 E5.29278
G1 X133.301 Y157.093 E5.35384
G1 X132.671 Y157.494 E5.41355
G1 X131.742 Y158.037 E5.49957
G1 X131.078 Y158.372 E5.55903
G1 X130.395 Y158.694 E5.61939
G1 X129.409 Y159.114 E5.70507
G1 X128.661 Y159.378 E5.76849
G1 X127.965 Y159.603 E5.82696
G1 X126.932 Y159.896 E5.9128
G1 X126.219 Y160.052 E5.97115
G1 X125.48 Y160.194 E6.03131
G1 X124.446 Y160.353 E6.11495
G1 X123.643 Y160.426 E6.17941
G1 X122.931 Y160.47 E6.23644
G1 X121.834 Y160.499 E6.32417
G1 X121.093 Y160.472 E6.38345
G1 X120.36 Y160.426 E6.44216
G1 X119.279 Y160.319 E6.529
G1 X118.509 Y160.192 E6.59139
G1 X117.787 Y160.053 E6.65017
G1 X116.726 Y159.81 E6.73719
G1 X116.107 Y159.626 E6.78882
G1 X115.33 Y159.375 E6.8541
G1 X114.319 Y159.006 E6.94013
G1 X113.614 Y158.698 E7.00164
G1 X112.929 Y158.375 E7.06218
G1 X111.988 Y157.89 E7.14682
G1 X111.334 Y157.497 E7.20781
G1 X110.707 Y157.099 E7.26719
G1 X109.814 Y156.485 E7.35382
G1 X109.228 Y156.025 E7.41338
G1 X108.645 Y155.542 E7.47391
G1 X107.852 Y154.835 E7.55884
G1 X107.338 Y154.316 E7.61724
G1 X106.811 Y153.753 E7.67889
G1 X106.108 Y152.947 E7.76439
G1 X105.651 Y152.353 E7.8243
G1 X105.202 Y151.735 E7.88537
G1 X104.611 Y150.857 E7.96998
G1 X104.217 Y150.181 E8.03254
G1 X103.876 Y149.562 E8.08903
G1 X103.379 Y148.575 E8.17738
G1 X103.091 Y147.895 E8.23642
G1 X102.809 Y147.181 E8.29779
G1 X102.458 Y146.186 E8.38214
G1 X102.246 Y145.445 E8.44375
G1 X102.066 Y144.751 E8.50107
G1 X101.835 Y143.695 E8.58749
G1 X101.719 Y142.936 E8.64887
G1 X101.624 Y142.175 E8.71018
G1 X101.532 Y141.138 E8.79341
G1 X101.512 Y140.365 E8.85523
G1 X101.512 Y139.624 E8.91447
G1 X101.551 Y138.564 E8.99927
G1 X101.625 Y137.812 E9.05967
G1 X101.716 Y137.084 E9.11833
G1 X101.891 Y136.016 E9.20485
G1 X102.067 Y135.247 E9.26791
G1 X102.247 Y134.548 E9.32562
G1 X102.557 Y133.504 E9.41268
G1 X102.804 Y132.831 E9.47
G1 X103.093 Y132.102 E9.53269
G1 X103.513 Y131.142 E9.61646
G1 X103.872 Y130.445 E9.67914
G1 X104.222 Y129.808 E9.73724
G1 X104.766 Y128.898 E9.822
G1 X105.216 Y128.245 E9.8854
G1 X105.633 Y127.671 E9.94212
G1 X106.302 Y126.817 E10.02885
G1 X106.828 Y126.226 E10.0921
G1 X107.309 Y125.713 E10.14832
G1 X107.31 Y125.714 E10.14843
G1 X108.093 Y124.94 E10.23645
G1 X108.637 Y124.464 E10.29424
G0 F2625 X108 Y125.031
G1 F1350 X108 Y154.966 E12.68738
G0 F2625 X110 Y156.612
G1 F1350 X110 Y123.382 E15.34395
G0 F2625 X112 Y122.113
G1 F1350 X112 Y157.896 E18.20462
G0 F2625 X114 Y158.866
G1 F1350 X114 Y121.137 E21.22086
G0 F2625 X116 Y120.408
G1 F1350 X116 Y159.591 E24.35334
G0 F2625 X118 Y160.094
G1 F1350 X118 Y119.905 E27.56624
G0 F2625 X120 Y119.606
G1 F1350 X120 Y160.39 E30.82671
G0 F2625 X122 Y160.495
G1 F1350 X122 Y119.505 E34.10365
G0 F2625 X124 Y119.61
G1 F1350 X124 Y160.394 E37.36413
G0 F2625 X126 Y160.095
G1 F1350 X126 Y119.906 E40.57703
G0 F2625 X128 Y120.409
G1 F1350 X128 Y159.592 E43.70951
G0 F2625 X130 Y158.863
G1 F1350 X130 Y121.134 E46.72575
G0 F2625 X132 Y122.104
G1 F1350 X132 Y157.887 E49.58642
G0 F2625 X134 Y156.618
G1 F1350 X134 Y123.388 E52.24298
G0 F2625 X136 Y125.033
G1 F1350 X136 Y154.969 E54.63621
G0 F2625 X138 Y152.798
G1 F1350 X138 Y127.192 E56.68328
G0 F2625 X140 Y130.213
G1 F1350 X140 Y149.788 E58.2482
G0 F2625 X142 Y144.461
G1 F1350 X142 Y135.553 E58.96035
G0 F2625 X106 Y127.202
G1 F1350 X106 Y152.806 E61.00726
G0 F2625 X104 Y149.787
M104 S240
G1 F1350 X104 Y130.212 E62.57218
G0 F2625 X102 Y135.539
G1 F1350 X102 Y144.449 E63.28449
G0 F2625 X108.637 Y124.463
;TIME_ELAPSED:42.608832
;LAYER:-5
M140 S110
M221 S100
G0 X108.637 Y124.463 Z0.78
;TYPE:SUPPORT
G1 F1350 X108.093 Y124.939 E63.31508
G1 X108.038 Y124.994 E63.31838
G1 X137 Y153.956 E65.05189
G1 X136.695 Y154.282 E65.07079
G0 F2625 X136.694 Y154.281
G1 F1350 X136.158 Y154.81 E65.10266
G1 X107.188 Y125.84 E66.83665
G1 X106.828 Y126.225 E66.85896
G1 X106.38 Y126.728 E66.88747
G1 X135.266 Y155.614 E68.61644
G1 X134.781 Y156.016 E68.6431
G1 X134.323 Y156.366 E68.66749
G1 X105.629 Y127.673 E70.38494
G1 X105.216 Y128.243 E70.41473
G1 X104.925 Y128.664 E70.43639
G1 X133.332 Y157.071 E72.13669
G1 X133.3 Y157.092 E72.13831
G1 X132.67 Y157.493 E72.16991
G1 X132.284 Y157.718 E72.18882
G1 X104.278 Y129.713 E73.86509
G1 X104.221 Y129.807 E73.86974
G1 X103.872 Y130.444 E73.90048
G1 X103.682 Y130.812 E73.91801
G1 X131.185 Y158.316 E75.56423
G1 X131.078 Y158.371 E75.56932
G1 X130.394 Y158.693 E75.60132
G1 X130.024 Y158.85 E75.61833
G1 X103.147 Y131.973 E77.22705
G1 X103.092 Y132.1 E77.2329
G1 X102.804 Y132.83 E77.26612
G1 X102.671 Y133.192 E77.28244
G1 X128.804 Y159.326 E78.84666
G1 X128.66 Y159.377 E78.85312
G1 X127.965 Y159.602 E78.88404
G1 X127.513 Y159.73 E78.90392
G1 X102.266 Y134.483 E80.41508
G1 X102.246 Y134.547 E80.41792
G1 X102.067 Y135.246 E80.44845
G1 X101.93 Y135.842 E80.47434
G1 X126.151 Y160.064 E81.92411
G1 X125.48 Y160.193 E81.95303
G1 X124.703 Y160.312 E81.9863
G1 X101.689 Y137.297 E83.36383
G1 X101.624 Y137.811 E83.38576
G1 X101.55 Y138.563 E83.41774
G1 X101.539 Y138.843 E83.4296
G1 X123.151 Y160.455 E84.72318
G1 X122.93 Y160.469 E84.73255
G1 X121.833 Y160.498 E84.779
G1 X121.485 Y160.485 E84.79374
G1 X101.515 Y140.514 E85.98907
G1 X101.532 Y141.137 E86.01544
G1 X101.623 Y142.173 E86.05946
G1 X101.644 Y142.339 E86.06654
G1 X119.66 Y160.355 E87.14489
G1 X119.279 Y160.318 E87.16109
G1 X118.508 Y160.191 E87.19416
G1 X117.787 Y160.052 E87.22524
G1 X117.623 Y160.014 E87.23236
G1 X101.983 Y144.374 E88.16849
G1 X102.065 Y144.749 E88.18474
G1 X102.245 Y145.444 E88.21512
G1 X102.457 Y146.185 E88.24774
G1 X102.653 Y146.74 E88.27265
G1 X115.262 Y159.349 E89.02736
G1 X114.318 Y159.004 E89.0699
G1 X113.613 Y158.697 E89.10245
G1 X112.928 Y158.374 E89.1345
G1 X112.232 Y158.015 E89.16765
G1 X103.994 Y149.777 E89.66073
G0 F2625 X108.637 Y124.463
G1 F1350 X108.946 Y124.207 E89.67771
G1 X137.796 Y153.056 E91.40449
G1 X138.367 Y152.328 E91.44365
G1 X138.534 Y152.099 E91.45565
G1 X109.897 Y123.462 E93.16971
G1 X110.065 Y123.332 E93.1787
G1 X110.698 Y122.906 E93.21099
G1 X110.906 Y122.775 E93.2214
G1 X139.233 Y151.103 E94.91694
G1 X139.234 Y151.1 E94.91707
G1 X139.778 Y150.19 E94.96194
G1 X139.862 Y150.036 E94.96937
G1 X111.961 Y122.135 E96.63938
G1 X112.258 Y121.962 E96.65392
G1 X112.921 Y121.627 E96.68536
G1 X113.076 Y121.554 E96.69261
G1 X140.45 Y148.928 E98.33108
G1 X140.495 Y148.84 E98.33526
G1 X140.907 Y147.894 E98.37893
G1 X140.965 Y147.748 E98.38558
G1 X114.248 Y121.031 E99.98472
G1 X114.59 Y120.885 E100.00046
G1 X115.342 Y120.62 E100.03421
G1 X115.486 Y120.573 E100.04062
G1 X141.434 Y146.521 E101.59373
G1 X141.442 Y146.495 E101.59488
G1 X141.755 Y145.444 E101.6413
G1 X141.816 Y145.207 E101.65165
G1 X116.79 Y120.181 E103.14958
G1 X117.067 Y120.102 E103.16177
G1 X117.78 Y119.947 E103.19265
G1 X118.175 Y119.871 E103.20968
G1 X142.134 Y143.83 E104.64374
G1 X142.284 Y142.911 E104.68315
G1 X142.354 Y142.354 E104.70691
G1 X119.638 Y119.638 E106.06657
G1 X120.355 Y119.573 E106.09704
G1 X121.068 Y119.53 E106.12727
G1 X121.222 Y119.526 E106.13379
G1 X142.473 Y140.777 E107.40577
G1 X142.487 Y140.376 E107.42275
G1 X142.487 Y139.635 E107.45411
G1 X142.473 Y139.082 E107.47753
G1 X122.92 Y119.529 E108.64787
G1 X123.639 Y119.573 E108.67835
G1 X124.72 Y119.681 E108.72433
G1 X124.778 Y119.691 E108.72683
G1 X142.298 Y137.211 E109.77548
G1 X142.278 Y137.051 E109.78231
G1 X142.164 Y136.305 E109.81425
G1 X141.931 Y135.241 E109.86035
G1 X141.898 Y135.116 E109.86582
G1 X126.883 Y120.1 E110.76457
G1 X127.272 Y120.189 E110.78146
G1 X127.892 Y120.374 E110.80884
G1 X128.667 Y120.624 E110.84331
G1 X129.353 Y120.874 E110.87421
G1 X141.122 Y132.644 E111.57867
G1 X140.908 Y132.105 E111.60321
G1 X140.613 Y131.409 E111.63521
G1 X140.127 Y130.445 E111.6809
G1 X139.776 Y129.807 E111.71172
G1 X139.489 Y129.315 E111.73583
G1 X132.696 Y122.522 E112.14242
G0 F2625 X136.694 Y154.281
G1 F1350 X136.695 Y154.282 E112.14248
G0 F2625 X108.215 Y124.5
;TIME_ELAPSED:96.841168
;LAYER:-4
G0 X108.215 Y124.5 Z0.959
G1 F1800 X107.916 Y124.761 E112.14805
G1 X107.675 Y125 E112.15281
G1 X136.336 Y125 E112.55491
G1 X136.832 Y125.5 E112.56479
G1 X107.169 Y125.5 E112.98095
G1 X107.133 Y125.535 E112.98165
G1 X106.696 Y126 E112.99061
G1 X137.302 Y126 E113.42
G1 X137.381 Y126.085 E113.42162
G1 X137.744 Y126.5 E113.42936
G1 X106.248 Y126.5 E113.87123
G1 X106.108 Y126.656 E113.87417
G1 X105.839 Y127 E113.8803
G1 X138.168 Y127 E114.33386
G1 X138.549 Y127.496 E114.34264
G0 F2625 X138.552 Y127.5
G1 F1800 X105.448 Y127.5 E114.80707
G1 X105.435 Y127.516 E114.80736
G1 X105.084 Y128 E114.81575
G1 X138.916 Y128 E115.29039
G1 X138.988 Y128.1 E115.29212
G1 X139.258 Y128.5 E115.29889
G1 X104.735 Y128.5 E115.78324
G1 X104.558 Y128.757 E115.78761
G1 X104.413 Y129 E115.79158
G1 X139.594 Y129 E116.28516
G0 F2625 X139.596 Y129.003
G1 F1800 X139.886 Y129.5 E116.29323
G1 X104.114 Y129.5 E116.79509
G1 X104.007 Y129.678 E116.79801
G1 X103.83 Y130 E116.80316
G1 X140.168 Y130 E117.31297
G1 X140.346 Y130.324 E117.31816
G1 X140.435 Y130.5 E117.32092
G1 X103.561 Y130.5 E117.83825
G1 X103.303 Y131 E117.84614
G1 X140.687 Y131 E118.37062
G1 X140.84 Y131.304 E118.3754
G1 X140.924 Y131.5 E118.37839
G1 X103.083 Y131.5 E118.90928
G1 X102.864 Y132 E118.91694
G1 X141.136 Y132 E119.45388
G1 X141.143 Y132.018 E119.45415
G1 X141.335 Y132.5 E119.46143
G1 X102.665 Y132.5 E120.00395
G1 X102.572 Y132.732 E120.00745
G0 F2625 X102.573 Y132.732
G1 F1800 X102.475 Y133 E120.01146
G1 X141.52 Y133 E120.55924
G1 X141.696 Y133.5 E120.56668
G1 X102.297 Y133.5 E121.11943
G1 X102.149 Y134 E121.12674
G1 X141.855 Y134 E121.6838
G1 X141.992 Y134.48 E121.6908
G1 X141.998 Y134.5 E121.6911
G1 X102.001 Y134.5 E122.25224
G1 X101.872 Y135 E122.25948
G1 X142.127 Y135 E122.82424
G1 X142.173 Y135.178 E122.82682
G1 X142.244 Y135.5 E122.83145
G1 X101.753 Y135.5 E123.39952
G1 X101.643 Y135.977 E123.40638
G1 X101.64 Y136 E123.40671
G1 X142.354 Y136 E123.97791
G1 X142.41 Y136.26 E123.98164
G1 X142.447 Y136.5 E123.98505
G1 X101.558 Y136.5 E124.5587
G1 X101.476 Y137 E124.56581
G1 X142.524 Y137 E125.14169
G1 X142.526 Y137.019 E125.14196
G1 X142.587 Y137.5 E125.14876
G1 X101.411 Y137.5 E125.72644
G1 X101.374 Y137.793 E125.73059
G1 X101.354 Y138 E125.7335
G1 X142.641 Y138 E126.31274
G1 X142.687 Y138.5 E126.31979
G1 X101.306 Y138.5 E126.90034
G1 X101.3 Y138.553 E126.90109
G1 X101.284 Y139 E126.90737
G1 X142.722 Y139 E127.48872
G1 X142.734 Y139.5 E127.49574
G1 X101.266 Y139.5 E128.07752
G1 X101.261 Y139.613 E128.0791
G1 X101.261 Y140 E128.08453
G1 X142.737 Y140 E128.66642
G1 X142.737 Y140.385 E128.67182
G1 X142.732 Y140.5 E128.67344
G1 X101.264 Y140.5 E129.25521
G1 X101.277 Y141 E129.26223
G1 X142.714 Y141 E129.84357
G1 X142.698 Y141.445 E129.84982
G1 X142.692 Y141.5 E129.8506
G1 X101.312 Y141.5 E130.43114
G1 X101.356 Y142 E130.43818
G1 X142.643 Y142 E131.01742
G1 X142.624 Y142.205 E131.02031
G1 X142.586 Y142.5 E131.02448
G1 X101.411 Y142.5 E131.60215
G1 X101.471 Y142.972 E131.60882
G1 X101.475 Y143 E131.60922
G1 X142.521 Y143 E132.18508
G1 X142.44 Y143.5 E132.19218
G1 X101.551 Y143.5 E132.76584
G1 X101.588 Y143.742 E132.76927
G1 X101.644 Y144 E132.77297
G1 X142.358 Y144 E133.34417
G1 X142.355 Y144.021 E133.34447
G1 X142.245 Y144.5 E133.35137
G1 X101.754 Y144.5 E133.91944
G1 X101.823 Y144.812 E133.92392
G1 X101.871 Y145 E133.92664
G1 X142.125 Y145 E134.49139
G1 X141.997 Y145.5 E134.49863
G1 X102 Y145.5 E135.05977
G1 X102.004 Y145.512 E135.05994
G1 X102.143 Y146 E135.06706
G1 X141.849 Y146 E135.62412
G1 X141.7 Y146.5 E135.63144
G1 X102.302 Y146.5 E136.18417
G1 X102.479 Y147 E136.19162
G1 X141.522 Y147 E136.73937
G1 X141.425 Y147.266 E136.74334
G1 X141.426 Y147.266 E136.74336
