;Generated by Cura LulzBot Edition GCodeWriter Version: 2.6.69
;FLAVOR:RepRap
;TIME:2152
;Filament used: 0.513222m
;Layer height: 0.18
;Generated with Cura_SteamEngine 2.6.69
;This G-Code has been generated specifically for the LulzBot TAZ 6 with standard extruder
G26 ; clear potential 'probe fail' condition
G21 ; set units to Millimetres
M107 ; disable fans
G90 ; absolute positioning
M82 ; set extruder to absolute mode
G92 E0 ; set extruder position to 0
M140 S110 ; start bed heating up
G28 XY ; home X and Y
G1 X-19 Y258 F1000 ; move to safe homing position
M109 R175 ; soften filament before homing Z
G28 Z ; home Z
G1 E-30 F100 ; retract filament
M109 R170 ; wait for extruder to reach wiping temp
G1 X-15 Y100 F3000 ; move above wiper pad
G1 Z1 ; push nozzle into wiper
G1 X-17 Y95 F1000 ; slow wipe
G1 X-17 Y90 F1000 ; slow wipe
G1 X-17 Y85 F1000 ; slow wipe
G1 X-15 Y90 F1000 ; slow wipe
G1 X-17 Y80 F1000 ; slow wipe
G1 X-15 Y95 F1000 ; slow wipe
G1 X-17 Y75 F2000 ; fast wipe
G1 X-15 Y65 F2000 ; fast wipe
G1 X-17 Y70 F2000 ; fast wipe
G1 X-15 Y60 F2000 ; fast wipe
G1 X-17 Y55 F2000 ; fast wipe
G1 X-15 Y50 F2000 ; fast wipe
G1 X-17 Y40 F2000 ; fast wipe
G1 X-15 Y45 F2000 ; fast wipe
G1 X-17 Y35 F2000 ; fast wipe
G1 X-15 Y40 F2000 ; fast wipe
G1 X-17 Y70 F2000 ; fast wipe
G1 X-15 Y30 Z2 F2000 ; fast wipe
G1 X-17 Y35 F2000 ; fast wipe
G1 X-15 Y25 F2000 ; fast wipe
G1 X-17 Y30 F2000 ; fast wipe
G1 X-15 Y25 Z1.5 F1000 ; slow wipe
G1 X-17 Y23 F1000 ; slow wipe
G1 Z10 ; raise extruder
M109 R170 ; wait for extruder to reach probe temp
G1 X-9 Y-9 ; move above first probe point
M204 S100 ; set probing acceleration
G29 ; start auto-leveling sequence
M204 S500 ; restore standard acceleration
G1 X0 Y0 Z15 F5000 ; move up off last probe point
G4 S1 ; pause
M400 ; wait for moves to finish
M117 Heating... ; progress indicator message on LCD
M109 R240 ; wait for extruder to reach printing temp
M190 S110 ; wait for bed to reach printing temp
G1 Z2 E0 F75 ; prime tiny bit of filament into the nozzle
M117 TAZ 6 Printing... ; progress indicator message on LCD

M221 S100
;LAYER_COUNT:119
;LAYER:-6
M107
G0 F2625 X124.622 Y124.629 Z0.51
G1 F1350 X125.052 Y124.218 E0.04755
G1 X125.489 Y123.814 E0.09513
G1 X126.443 Y123.006 E0.19508
G1 X126.522 Y122.945 E0.20306
G1 X127.019 Y122.564 E0.25312
G1 X127.783 Y122.016 E0.32829
G1 X127.791 Y122.011 E0.32904
G1 X128.033 Y121.853 E0.35215
G1 X128.526 Y121.537 E0.39896
G1 X129.927 Y120.74 E0.52782
G1 X130.662 Y120.359 E0.594
G1 X131.398 Y120.035 E0.65829
G1 X131.965 Y119.801 E0.70733
G1 X131.965 Y119.802 E0.70741
G1 X132.13 Y119.735 E0.72165
G1 X133.157 Y119.367 E0.80886
G1 X133.756 Y119.177 E0.8591
G1 X134.32 Y119.012 E0.90608
G1 X135.019 Y118.839 E0.96364
G1 X135.541 Y118.723 E1.00639
G1 X136.142 Y118.603 E1.05539
G1 X136.852 Y118.491 E1.11285
G1 X137.448 Y118.412 E1.16092
G1 X138.053 Y118.345 E1.20958
G1 X138.058 Y118.344 E1.20999
G1 X138.756 Y118.297 E1.26591
G1 X139.352 Y118.271 E1.31361
G1 X140 Y118.257 E1.36542
G1 X140.648 Y118.271 E1.41724
G1 X141.244 Y118.297 E1.46493
G1 X141.942 Y118.344 E1.52086
G1 X141.947 Y118.345 E1.52127
G1 X142.552 Y118.412 E1.56993
G1 X143.148 Y118.491 E1.61799
G1 X143.858 Y118.603 E1.67546
G1 X144.459 Y118.723 E1.72445
G1 X144.981 Y118.839 E1.7672
G1 X145.68 Y119.012 E1.82477
G1 X146.244 Y119.177 E1.87175
G1 X146.843 Y119.367 E1.92199
G1 X147.87 Y119.735 E2.0092
G1 X148.035 Y119.802 E2.02344
G1 X148.035 Y119.801 E2.02352
G1 X148.588 Y120.029 E2.07134
G1 X149.581 Y120.485 E2.15869
G1 X150.071 Y120.739 E2.20282
G1 X151.464 Y121.531 E2.33092
G1 X151.962 Y121.85 E2.3782
G1 X152.209 Y122.011 E2.40177
G1 X152.217 Y122.016 E2.40252
G1 X152.981 Y122.564 E2.47769
G1 X153.472 Y122.94 E2.52713
G1 X153.558 Y123.007 E2.53585
G1 X153.572 Y123.017 E2.53722
G1 X154.501 Y123.804 E2.63456
G1 X154.937 Y124.208 E2.68208
G1 X155.37 Y124.621 E2.72991
G1 X155.782 Y125.052 E2.77758
G1 X156.201 Y125.505 E2.82691
G1 X156.981 Y126.426 E2.9234
G1 X156.994 Y126.443 E2.92511
G1 X157.055 Y126.522 E2.93309
G1 X157.436 Y127.019 E2.98315
G1 X157.984 Y127.783 E3.05832
G1 X157.989 Y127.791 E3.05907
G1 X158.147 Y128.033 E3.08218
G1 X158.463 Y128.526 E3.12899
G1 X159.26 Y129.927 E3.25785
G1 X159.641 Y130.662 E3.32403
G1 X159.956 Y131.378 E3.38657
G1 X160.199 Y131.967 E3.43751
G1 X160.259 Y132.113 E3.45013
G1 X160.628 Y133.139 E3.53729
G1 X160.82 Y133.745 E3.58811
G1 X160.988 Y134.32 E3.636
G1 X161.161 Y135.019 E3.69357
G1 X161.277 Y135.541 E3.73632
G1 X161.396 Y136.136 E3.78483
G1 X161.509 Y136.852 E3.84278
G1 X161.587 Y137.437 E3.88996
G1 X161.655 Y138.056 E3.93974
G1 X161.703 Y138.756 E3.99584
G1 X161.729 Y139.341 E4.04265
G1 X161.743 Y139.983 E4.09399
G1 X161.743 Y139.986 E4.09423
G1 X161.729 Y140.648 E4.14716
G1 X161.704 Y141.232 E4.19389
G1 X161.656 Y141.937 E4.25038
G1 X161.588 Y142.556 E4.30017
G1 X161.511 Y143.138 E4.3471
G1 X161.396 Y143.862 E4.40571
G1 X161.278 Y144.453 E4.45389
G1 X161.165 Y144.963 E4.49565
G1 X160.993 Y145.662 E4.5532
G1 X160.985 Y145.689 E4.55545
G1 X160.823 Y146.244 E4.60167
G1 X160.636 Y146.836 E4.6513
G1 X160.263 Y147.875 E4.73955
G1 X160.262 Y147.879 E4.73988
G1 X160.201 Y148.029 E4.75283
G1 X159.97 Y148.59 E4.80133
G1 X159.518 Y149.575 E4.88797
G1 X159.261 Y150.071 E4.93263
G1 X158.469 Y151.464 E5.06074
G1 X158.15 Y151.962 E5.10802
G1 X157.989 Y152.209 E5.13159
G1 X157.984 Y152.217 E5.13234
G1 X157.445 Y152.969 E5.20631
G1 X157.06 Y153.472 E5.25695
G1 X156.993 Y153.558 E5.26566
G1 X156.984 Y153.57 E5.26686
G1 X156.201 Y154.495 E5.36375
G1 X155.792 Y154.937 E5.41189
G1 X155.379 Y155.37 E5.45973
G1 X154.948 Y155.782 E5.50739
G1 X154.511 Y156.186 E5.55497
G1 X153.557 Y156.994 E5.65492
G1 X153.478 Y157.055 E5.6629
G1 X152.982 Y157.435 E5.71285
G1 X152.217 Y157.984 E5.78813
G1 X152.209 Y157.989 E5.78888
G1 X151.967 Y158.147 E5.81199
G1 X151.474 Y158.463 E5.8588
G1 X150.073 Y159.26 E5.98766
G1 X149.338 Y159.641 E6.05384
G1 X148.609 Y159.962 E6.11752
G1 X148.035 Y160.199 E6.16717
G1 X148.035 Y160.198 E6.16725
G1 X147.87 Y160.265 E6.18148
G1 X146.843 Y160.633 E6.2687
G1 X146.244 Y160.823 E6.31894
G1 X145.681 Y160.988 E6.36584
G1 X144.981 Y161.161 E6.42349
G1 X144.459 Y161.277 E6.46623
G1 X143.858 Y161.397 E6.51523
G1 X143.148 Y161.509 E6.57269
G1 X142.552 Y161.588 E6.62076
G1 X141.947 Y161.655 E6.66942
G1 X141.942 Y161.656 E6.66983
G1 X141.244 Y161.703 E6.72575
G1 X140.648 Y161.729 E6.77345
G1 X140 Y161.743 E6.82526
G1 X139.352 Y161.729 E6.87708
G1 X138.756 Y161.703 E6.92477
G1 X138.058 Y161.656 E6.9807
G1 X138.053 Y161.655 E6.98111
G1 X137.448 Y161.588 E7.02977
G1 X136.852 Y161.509 E7.07783
G1 X136.142 Y161.397 E7.1353
G1 X135.541 Y161.277 E7.18429
G1 X135.019 Y161.161 E7.22704
G1 X134.319 Y160.988 E7.28469
G1 X133.756 Y160.823 E7.33159
G1 X133.157 Y160.633 E7.38183
G1 X132.13 Y160.265 E7.46904
G1 X131.965 Y160.198 E7.48328
G1 X131.965 Y160.199 E7.48336
G1 X131.408 Y159.969 E7.53153
G1 X130.419 Y159.515 E7.61853
G1 X129.929 Y159.261 E7.66266
G1 X128.526 Y158.463 E7.79169
G1 X128.033 Y158.147 E7.83851
G1 X127.791 Y157.989 E7.86161
G1 X127.783 Y157.984 E7.86237
G1 X127.018 Y157.435 E7.93764
G1 X126.52 Y157.054 E7.98777
G1 X126.442 Y156.993 E7.99569
G1 X126.428 Y156.983 E7.99706
G1 X125.499 Y156.196 E8.0944
G1 X125.052 Y155.782 E8.14311
G1 X124.621 Y155.37 E8.19077
G1 X124.208 Y154.937 E8.23861
G1 X123.814 Y154.511 E8.285
G1 X123.001 Y153.551 E8.38557
G1 X122.997 Y153.546 E8.38608
G1 X122.939 Y153.471 E8.39366
G1 X122.555 Y152.969 E8.44419
G1 X122.016 Y152.217 E8.51815
G1 X122.011 Y152.209 E8.51891
G1 X121.85 Y151.962 E8.54248
G1 X121.531 Y151.464 E8.58976
G1 X120.74 Y150.073 E8.71769
G1 X120.366 Y149.351 E8.78269
G1 X120.031 Y148.59 E8.84916
G1 X119.799 Y148.029 E8.8977
G1 X119.738 Y147.879 E8.91064
G1 X119.737 Y147.875 E8.91097
G1 X119.364 Y146.836 E8.99922
G1 X119.177 Y146.244 E9.04886
G1 X119.015 Y145.689 E9.09508
G1 X119.007 Y145.662 E9.09733
G1 X118.835 Y144.963 E9.15488
G1 X118.722 Y144.453 E9.19664
G1 X118.604 Y143.862 E9.24482
G1 X118.489 Y143.138 E9.30342
G1 X118.412 Y142.556 E9.35036
G1 X118.344 Y141.937 E9.40014
G1 X118.296 Y141.232 E9.45663
G1 X118.271 Y140.648 E9.50336
G1 X118.257 Y140.017 E9.55382
G1 X118.257 Y140.014 E9.55406
G1 X118.271 Y139.352 E9.60699
G1 X118.296 Y138.768 E9.65373
G1 X118.344 Y138.064 E9.71014
G1 X118.345 Y138.049 E9.71134
G1 X118.412 Y137.448 E9.75968
G1 X118.491 Y136.852 E9.80775
G1 X118.6 Y136.155 E9.86415
G1 X118.723 Y135.541 E9.91421
G1 X118.836 Y135.031 E9.95597
G1 X119.012 Y134.32 E10.01452
G1 X119.177 Y133.756 E10.0615
G1 X119.366 Y133.157 E10.11172
G1 X119.737 Y132.125 E10.19939
G1 X119.738 Y132.121 E10.19972
G1 X119.799 Y131.971 E10.21266
G1 X120.037 Y131.394 E10.26256
G1 X120.482 Y130.425 E10.34781
G1 X120.739 Y129.929 E10.39247
G1 X121.531 Y128.536 E10.52057
G1 X121.85 Y128.038 E10.56785
G1 X122.011 Y127.791 E10.59142
G1 X122.016 Y127.783 E10.59218
G1 X122.555 Y127.031 E10.66614
G1 X122.94 Y126.528 E10.71678
G1 X123.007 Y126.441 E10.72556
G1 X123.021 Y126.423 E10.72738
G1 X123.799 Y125.505 E10.82358
G1 X124.208 Y125.063 E10.87173
G1 X124.622 Y124.629 E10.91968
G0 F2625 X124 Y125.287
G1 F1350 X124 Y154.712 E13.27206
G0 F2625 X126 Y156.62
G1 F1350 X126 Y123.381 E15.92934
G0 F2625 X128 Y121.874
G1 F1350 X128 Y158.125 E18.82742
G0 F2625 X130 Y159.297
G1 F1350 X130 Y120.702 E21.9129
G0 F2625 X132 Y119.787
G1 F1350 X132 Y160.212 E25.14467
G0 F2625 X134 Y160.894
G1 F1350 X134 Y119.105 E28.48548
G0 F2625 X136 Y118.631
G1 F1350 X136 Y161.368 E31.90209
G0 F2625 X138 Y161.649
G1 F1350 X138 Y118.35 E35.36362
G0 F2625 X140 Y118.257
G1 F1350 X140 Y161.743 E38.8401
G0 F2625 X142 Y161.65
G1 F1350 X142 Y118.351 E42.30163
G0 F2625 X144 Y118.632
G1 F1350 X144 Y161.369 E45.71824
G0 F2625 X146 Y160.895
G1 F1350 X146 Y119.106 E49.05905
G0 F2625 X148 Y119.788
G1 F1350 X148 Y160.213 E52.29083
G0 F2625 X150 Y159.298
G1 F1350 X150 Y120.703 E55.3763
G0 F2625 X152 Y121.875
G1 F1350 X152 Y158.126 E58.27438
G0 F2625 X154 Y156.619
G1 F1350 X154 Y123.38 E60.93167
G0 F2625 X156 Y125.288
G1 F1350 X156 Y154.713 E63.28404
G0 F2625 X158 Y152.193
G1 F1350 X158 Y127.808 E65.2335
G0 F2625 X160 Y131.485
G1 F1350 X160 Y148.518 E66.5952
G0 F2625 X122 Y152.192
M104 S240
G1 F1350 X122 Y127.807 E68.54466
G0 F2625 X120 Y131.483
G1 F1350 X120 Y148.515 E69.90628
G0 F2625 X124.626 Y124.626
;TIME_ELAPSED:46.575464
;LAYER:-5
M140 S110
M221 S100
G0 X124.626 Y124.626 Z0.78
;TYPE:SUPPORT
G1 F1350 X125.051 Y124.218 E69.93121
G1 X125.488 Y123.813 E69.95643
G1 X125.5 Y123.804 E69.95706
G1 X156.196 Y154.5 E71.79437
G1 X156.2 Y154.495 E71.79464
G1 X156.973 Y153.582 E71.84527
G1 X126.418 Y123.027 E73.67413
G1 X126.442 Y123.006 E73.67548
G1 X126.521 Y122.944 E73.67973
G1 X127.018 Y122.563 E73.70624
G1 X127.386 Y122.299 E73.72541
G1 X157.699 Y152.612 E75.53979
G1 X157.983 Y152.217 E75.56038
G1 X157.988 Y152.208 E75.56081
G1 X158.149 Y151.962 E75.57326
G1 X158.382 Y151.599 E75.59151
G1 X128.4 Y121.618 E77.38605
G1 X128.525 Y121.537 E77.39235
G1 X129.475 Y120.997 E77.4386
G1 X159.002 Y150.524 E79.20594
G1 X159.26 Y150.07 E79.22804
G1 X159.516 Y149.575 E79.25162
G1 X159.59 Y149.416 E79.25905
G1 X130.577 Y120.403 E80.99561
G1 X130.661 Y120.358 E80.99965
G1 X131.396 Y120.034 E81.03364
G1 X131.756 Y119.887 E81.0501
G1 X160.112 Y148.242 E82.74731
G1 X160.199 Y148.029 E82.75705
G1 X160.261 Y147.878 E82.76396
G1 X160.262 Y147.875 E82.7641
G1 X160.574 Y147.008 E82.80309
G1 X132.991 Y119.426 E84.45404
G1 X133.156 Y119.366 E84.46147
G1 X133.754 Y119.177 E84.48801
G1 X134.283 Y119.022 E84.51134
G1 X160.977 Y145.716 E86.10911
G1 X160.984 Y145.689 E86.11029
G1 X160.991 Y145.661 E86.11151
G1 X161.164 Y144.963 E86.14195
G1 X161.277 Y144.452 E86.1641
G1 X161.299 Y144.343 E86.1688
G1 X135.656 Y118.699 E87.70369
G1 X136.14 Y118.603 E87.72457
G1 X136.851 Y118.49 E87.75504
G1 X137.109 Y118.457 E87.76605
G1 X161.543 Y142.891 E89.22854
G1 X161.587 Y142.556 E89.24285
G1 X161.655 Y141.936 E89.26924
G1 X161.695 Y141.347 E89.29423
G1 X138.651 Y118.303 E90.67352
G0 F2625 X139.999 Y118.257
G1 F1350 X140.307 Y118.264 E90.68656
G1 X161.735 Y139.692 E91.96913
G1 X161.728 Y139.341 E91.98399
G1 X161.701 Y138.756 E92.00878
G1 X161.654 Y138.055 E92.03851
G1 X161.637 Y137.898 E92.0452
G1 X142.101 Y118.362 E93.21452
G1 X142.551 Y118.412 E93.23368
G1 X143.147 Y118.49 E93.25912
G1 X143.856 Y118.603 E93.28951
G1 X144.082 Y118.648 E93.29926
G1 X161.351 Y135.917 E94.33289
G1 X161.276 Y135.541 E94.34912
G1 X161.16 Y135.018 E94.3718
G1 X160.987 Y134.319 E94.40227
G1 X160.818 Y133.745 E94.4276
G1 X160.793 Y133.662 E94.43127
G1 X146.336 Y119.206 E95.29656
G1 X146.842 Y119.366 E95.31902
G1 X147.869 Y119.735 E95.36521
G1 X148.034 Y119.802 E95.37274
G1 X148.034 Y119.8 E95.37283
G1 X148.587 Y120.028 E95.39814
G1 X149.082 Y120.256 E95.42121
G1 X159.76 Y130.934 E96.06034
G1 X159.64 Y130.662 E96.07292
G1 X159.259 Y129.927 E96.10796
G1 X158.461 Y128.525 E96.17624
G1 X158.145 Y128.032 E96.20102
G1 X157.988 Y127.79 E96.21323
G1 X157.983 Y127.782 E96.21363
G1 X157.435 Y127.019 E96.25339
G1 X157.092 Y126.57 E96.2773
G1 X153.429 Y122.907 E96.49655
G0 F2625 X124.626 Y124.626
G1 F1350 X155.373 Y155.373 E98.33691
G1 X154.948 Y155.781 E98.36184
G1 X154.51 Y156.185 E98.38706
G1 X154.498 Y156.194 E98.3877
G1 X123.803 Y125.498 E100.22497
G1 X123.798 Y125.504 E100.2253
G1 X123.025 Y126.416 E100.2759
G1 X153.58 Y156.972 E102.10479
G1 X153.556 Y156.993 E102.10614
G1 X153.477 Y157.054 E102.11037
G1 X152.981 Y157.433 E102.13679
G1 X152.612 Y157.698 E102.15601
G1 X122.299 Y127.385 E103.97039
G1 X122.016 Y127.781 E103.99099
G1 X122.01 Y127.79 E103.99145
G1 X121.85 Y128.037 E104.00391
G1 X121.617 Y128.399 E104.02213
G1 X151.598 Y158.381 E105.81667
G1 X151.474 Y158.461 E105.82291
G1 X150.523 Y159.002 E105.86922
G1 X120.996 Y129.474 E107.63658
G1 X120.739 Y129.928 E107.65866
G1 X120.482 Y130.424 E107.6823
G1 X120.408 Y130.582 E107.68969
G1 X149.422 Y159.596 E109.42632
G1 X149.338 Y159.64 E109.43033
G1 X148.609 Y159.96 E109.46403
G1 X148.242 Y160.112 E109.48084
G1 X119.887 Y131.756 E111.17805
G1 X119.799 Y131.97 E111.18784
G1 X119.737 Y132.12 E111.19471
G0 F2625 X119.737 Y132.124
G1 F1350 X119.425 Y132.99 E111.23367
G1 X147.008 Y160.573 E112.88465
G1 X146.842 Y160.632 E112.8921
G1 X146.244 Y160.822 E112.91866
G1 X145.715 Y160.976 E112.94198
G1 X119.021 Y134.282 E114.53974
G1 X119.011 Y134.319 E114.54137
G1 X118.836 Y135.03 E114.57236
G1 X118.722 Y135.54 E114.59447
G1 X118.699 Y135.655 E114.59944
G1 X144.342 Y161.298 E116.1343
G1 X143.858 Y161.395 E116.15519
G1 X143.148 Y161.508 E116.18562
G1 X142.89 Y161.542 E116.19663
G1 X118.456 Y137.108 E117.65912
G1 X118.412 Y137.447 E117.67359
G1 X118.344 Y138.047 E117.69915
G1 X118.343 Y138.063 E117.69983
G1 X118.303 Y138.65 E117.72473
G1 X141.347 Y161.694 E119.10402
G1 X141.243 Y161.701 E119.10843
G1 X140.647 Y161.728 E119.13368
G1 X140 Y161.742 E119.16107
G1 X139.691 Y161.735 E119.17416
G1 X118.263 Y140.306 E120.45675
G1 X118.271 Y140.647 E120.47119
G1 X118.296 Y141.231 E120.49593
G1 X118.344 Y141.936 E120.52584
G1 X118.361 Y142.1 E120.53282
G1 X137.897 Y161.636 E121.70214
G1 X137.448 Y161.587 E121.72126
G1 X136.852 Y161.508 E121.7467
G1 X136.142 Y161.395 E121.77713
G1 X135.915 Y161.35 E121.78692
G1 X118.647 Y144.082 E122.8205
G1 X118.721 Y144.452 E122.83647
G1 X118.834 Y144.962 E122.85858
G1 X119.007 Y145.661 E122.88905
G1 X119.014 Y145.688 E122.89023
G1 X119.176 Y146.243 E122.9147
G1 X119.205 Y146.335 E122.91879
G1 X133.662 Y160.792 E123.78411
G1 X133.156 Y160.632 E123.80657
G1 X132.129 Y160.264 E123.85274
G1 X131.965 Y160.197 E123.86024
G1 X131.965 Y160.198 E123.86028
G1 X131.408 Y159.968 E123.88579
G1 X130.915 Y159.741 E123.90876
G1 X120.24 Y149.066 E124.54771
G1 X120.365 Y149.35 E124.56084
G1 X120.739 Y150.072 E124.59525
G1 X121.531 Y151.462 E124.66296
G1 X121.85 Y151.961 E124.68803
G1 X122.01 Y152.208 E124.70049
G1 X122.016 Y152.216 E124.70091
G1 X122.555 Y152.967 E124.74003
G1 X122.906 Y153.428 E124.76456
G1 X126.568 Y157.09 E124.98375
G0 F2625 X119.737 Y132.124
G1 F1350 X119.737 Y132.12 E124.98391
G0 F2625 X124.398 Y124.5
;TIME_ELAPSED:106.617347
;LAYER:-4
G0 X124.398 Y124.5 Z0.959
