;Generated by Cura LulzBot Edition GCodeWriter Version: 2.6.69
;FLAVOR:RepRap
;TIME:1093
;Filament used: 0.284746m
;Layer height: 0.18
;Generated with Cura_SteamEngine 2.6.69
;This G-Code has been generated specifically for the LulzBot TAZ 6 with standard extruder
G26 ; clear potential 'probe fail' condition
G21 ; set units to Millimetres
M107 ; disable fans
G90 ; absolute positioning
M82 ; set extruder to absolute mode
G92 E0 ; set extruder position to 0
M140 S110 ; start bed heating up
G28 XY ; home X and Y
G1 X-19 Y258 F1000 ; move to safe homing position
M109 R175 ; soften filament before homing Z
G28 Z ; home Z
G1 E-30 F100 ; retract filament
M109 R170 ; wait for extruder to reach wiping temp
G1 X-15 Y100 F3000 ; move above wiper pad
G1 Z1 ; push nozzle into wiper
G1 X-17 Y95 F1000 ; slow wipe
G1 X-17 Y90 F1000 ; slow wipe
G1 X-17 Y85 F1000 ; slow wipe
G1 X-15 Y90 F1000 ; slow wipe
G1 X-17 Y80 F1000 ; slow wipe
G1 X-15 Y95 F1000 ; slow wipe
G1 X-17 Y75 F2000 ; fast wipe
G1 X-15 Y65 F2000 ; fast wipe
G1 X-17 Y70 F2000 ; fast wipe
G1 X-15 Y60 F2000 ; fast wipe
G1 X-17 Y55 F2000 ; fast wipe
G1 X-15 Y50 F2000 ; fast wipe
G1 X-17 Y40 F2000 ; fast wipe
G1 X-15 Y45 F2000 ; fast wipe
G1 X-17 Y35 F2000 ; fast wipe
G1 X-15 Y40 F2000 ; fast wipe
G1 X-17 Y70 F2000 ; fast wipe
G1 X-15 Y30 Z2 F2000 ; fast wipe
G1 X-17 Y35 F2000 ; fast wipe
G1 X-15 Y25 F2000 ; fast wipe
G1 X-17 Y30 F2000 ; fast wipe
G1 X-15 Y25 Z1.5 F1000 ; slow wipe
G1 X-17 Y23 F1000 ; slow wipe
G1 Z10 ; raise extruder
M109 R170 ; wait for extruder to reach probe temp
G1 X-9 Y-9 ; move above first probe point
M204 S100 ; set probing acceleration
G29 ; start auto-leveling sequence
M204 S500 ; restore standard acceleration
G1 X0 Y0 Z15 F5000 ; move up off last probe point
G4 S1 ; pause
M400 ; wait for moves to finish
M117 Heating... ; progress indicator message on LCD
M109 R240 ; wait for extruder to reach printing temp
M190 S110 ; wait for bed to reach printing temp
G1 Z2 E0 F75 ; prime tiny bit of filament into the nozzle
M117 TAZ 6 Printing... ; progress indicator message on LCD

M221 S100
;LAYER_COUNT:66
;LAYER:-6
M107
G0 F2625 X125.54 Y125.478 Z0.51
G1 F1350 X126.299 Y124.752 E0.08397
G1 X126.765 Y124.355 E0.13291
G1 X127.294 Y123.922 E0.18756
G1 X128.122 Y123.292 E0.27074
G1 X128.637 Y122.946 E0.32034
G1 X129.223 Y122.57 E0.376
G1 X130.129 Y122.035 E0.46011
G1 X130.652 Y121.764 E0.50721
G1 X131.233 Y121.477 E0.55901
G1 X132.21 Y121.038 E0.64464
G1 X132.812 Y120.809 E0.69613
G1 X133.412 Y120.595 E0.74706
G1 X134.47 Y120.261 E0.83575
G1 X135.028 Y120.119 E0.88178
G1 X135.673 Y119.969 E0.93473
G1 X136.753 Y119.761 E1.02265
G1 X137.336 Y119.681 E1.0697
G1 X137.336 Y119.682 E1.06978
G1 X137.998 Y119.605 E1.12306
G1 X139.228 Y119.517 E1.22164
G1 X139.592 Y119.506 E1.25075
G1 X140.408 Y119.506 E1.31599
G1 X140.772 Y119.517 E1.3451
G1 X142.002 Y119.605 E1.44369
G1 X142.656 Y119.681 E1.49632
G1 X143.723 Y119.842 E1.58259
G1 X144.315 Y119.967 E1.63096
G1 X144.953 Y120.115 E1.68332
G1 X146.01 Y120.401 E1.77086
G1 X146.553 Y120.583 E1.81664
G1 X147.196 Y120.811 E1.87118
G1 X148.178 Y121.202 E1.95568
G1 X148.753 Y121.47 E2.0064
G1 X149.359 Y121.769 E2.06042
G1 X150.301 Y122.277 E2.14598
G1 X150.769 Y122.565 E2.18991
G1 X151.361 Y122.945 E2.24615
G1 X152.223 Y123.543 E2.33002
G1 X152.704 Y123.922 E2.37898
G1 X153.244 Y124.364 E2.43477
G1 X154.044 Y125.068 E2.51996
G1 X154.451 Y125.47 E2.56569
G1 X154.922 Y125.954 E2.61968
G1 X155.649 Y126.76 E2.70646
G1 X155.999 Y127.196 E2.75116
G1 X156.435 Y127.76 E2.80815
G1 X157.04 Y128.602 E2.89104
G1 X157.375 Y129.135 E2.94136
G1 X157.719 Y129.704 E2.99452
G1 X158.234 Y130.632 E3.07937
G1 X158.497 Y131.177 E3.12775
G1 X158.496 Y131.177 E3.12783
G1 X158.793 Y131.827 E3.18496
G1 X159.185 Y132.779 E3.26726
G1 X159.378 Y133.33 E3.31394
G1 X159.585 Y133.965 E3.36733
G1 X159.88 Y135.002 E3.45352
G1 X160.016 Y135.606 E3.50302
G1 X160.148 Y136.256 E3.55604
G1 X160.323 Y137.321 E3.64233
G1 X160.384 Y137.89 E3.68808
G1 X160.443 Y138.564 E3.74217
G1 X160.497 Y139.632 E3.82766
G1 X160.492 Y140.242 E3.87642
G1 X160.473 Y140.908 E3.92969
G1 X160.401 Y142.009 E4.0179
G1 X160.33 Y142.575 E4.0635
G1 X160.233 Y143.248 E4.11786
G1 X160.041 Y144.309 E4.20406
G1 X159.904 Y144.876 E4.25069
G1 X159.905 Y144.876 E4.25077
G1 X159.732 Y145.532 E4.30501
G1 X159.731 Y145.532 E4.30509
G1 X159.422 Y146.553 E4.39037
G1 X159.213 Y147.128 E4.43928
G1 X158.984 Y147.719 E4.48995
G1 X158.558 Y148.706 E4.57589
G1 X158.275 Y149.272 E4.62648
G1 X157.971 Y149.849 E4.67862
G1 X157.433 Y150.784 E4.76486
G1 X157.101 Y151.29 E4.81324
G1 X156.731 Y151.832 E4.8657
G1 X156.084 Y152.708 E4.95277
G1 X155.712 Y153.157 E4.99938
G1 X155.295 Y153.639 E5.05033
G1 X154.537 Y154.452 E5.1392
G1 X154.103 Y154.869 E5.18731
G1 X153.597 Y155.332 E5.24214
G1 X152.786 Y156.025 E5.32742
G1 X152.336 Y156.365 E5.37251
G1 X151.784 Y156.767 E5.42711
G1 X150.888 Y157.37 E5.51345
G1 X150.366 Y157.679 E5.56194
G1 X150.366 Y157.678 E5.56202
G1 X149.772 Y158.012 E5.6165
G1 X148.809 Y158.51 E5.70317
G1 X148.297 Y158.737 E5.74795
G1 X147.662 Y159.007 E5.80311
G1 X146.684 Y159.379 E5.88676
G1 X146.145 Y159.551 E5.93199
G1 X145.439 Y159.758 E5.99081
G1 X144.427 Y160.015 E6.07428
G1 X143.825 Y160.132 E6.12331
G1 X143.171 Y160.246 E6.17638
G1 X143.171 Y160.247 E6.17646
G1 X142.106 Y160.391 E6.26238
G1 X141.5 Y160.439 E6.31098
G1 X140.863 Y160.475 E6.36198
G1 X139.756 Y160.498 E6.4505
G1 X139.165 Y160.476 E6.49778
G1 X138.527 Y160.44 E6.54887
G1 X137.414 Y160.335 E6.63824
G1 X136.828 Y160.247 E6.68561
G1 X136.828 Y160.246 E6.68569
G1 X136.162 Y160.131 E6.73972
G1 X135.126 Y159.912 E6.82438
G1 X134.544 Y159.754 E6.87259
G1 X134.544 Y159.753 E6.87267
G1 X133.915 Y159.568 E6.92508
G1 X132.884 Y159.224 E7.01197
G1 X132.325 Y159.001 E7.06009
G1 X131.711 Y158.741 E7.11339
G1 X130.734 Y158.285 E7.19959
G1 X130.249 Y158.024 E7.24362
G1 X129.634 Y157.678 E7.30003
G1 X128.746 Y157.134 E7.38329
G1 X128.209 Y156.761 E7.43556
G1 X127.698 Y156.389 E7.48609
G1 X126.827 Y155.706 E7.57457
G1 X126.404 Y155.333 E7.61966
G1 X125.894 Y154.865 E7.675
G1 X125.139 Y154.12 E7.75979
G1 X124.723 Y153.659 E7.80944
G1 X124.29 Y153.157 E7.86243
G1 X123.617 Y152.318 E7.94842
G1 X123.28 Y151.848 E7.99466
G1 X122.89 Y151.277 E8.04994
G1 X122.331 Y150.392 E8.13362
G1 X122.03 Y149.85 E8.18318
G1 X121.728 Y149.278 E8.23489
G1 X121.257 Y148.301 E8.3216
G1 X121.027 Y147.745 E8.3697
G1 X120.78 Y147.11 E8.42417
G1 X120.433 Y146.11 E8.50879
G1 X120.265 Y145.52 E8.55784
G1 X120.094 Y144.867 E8.6118
G1 X119.861 Y143.826 E8.69708
G1 X119.768 Y143.255 E8.74333
G1 X119.669 Y142.567 E8.7989
G1 X119.558 Y141.533 E8.88204
G1 X119.528 Y140.926 E8.93063
G1 X119.508 Y140.235 E8.98589
G1 X119.516 Y139.196 E9.06896
G1 X119.557 Y138.571 E9.11903
G1 X119.613 Y137.908 E9.17222
G1 X119.744 Y136.853 E9.25721
G1 X119.848 Y136.277 E9.304
G1 X119.988 Y135.588 E9.36021
G1 X120.237 Y134.551 E9.44547
G1 X120.404 Y134.002 E9.49135
G1 X120.613 Y133.359 E9.5454
G1 X120.991 Y132.329 E9.63311
G1 X121.21 Y131.818 E9.67756
G1 X121.211 Y131.818 E9.67764
G1 X121.497 Y131.191 E9.73273
G1 X121.97 Y130.246 E9.81721
G1 X122.287 Y129.694 E9.8681
G1 X122.61 Y129.156 E9.91827
G1 X123.209 Y128.24 E10.00576
G1 X123.569 Y127.754 E10.05412
G1 X123.984 Y127.217 E10.10837
G1 X124.68 Y126.381 E10.19534
G1 X125.06 Y125.973 E10.23991
G1 X125.54 Y125.478 E10.29503
G0 F2625 X126 Y125.038
G1 F1350 X126 Y154.962 E12.6873
G0 F2625 X128 Y156.608
G1 F1350 X128 Y123.384 E15.34339
G0 F2625 X130 Y122.111
G1 F1350 X130 Y157.883 E18.20318
G0 F2625 X132 Y158.863
G1 F1350 X132 Y121.132 E21.21958
G0 F2625 X134 Y120.409
G1 F1350 X134 Y159.593 E24.35214
G0 F2625 X136 Y160.096
G1 F1350 X136 Y119.906 E27.56512
G0 F2625 X138 Y119.604
G1 F1350 X138 Y160.39 E30.82575
G0 F2625 X140 Y160.493
G1 F1350 X140 Y119.506 E34.10245
G0 F2625 X142 Y119.605
G1 F1350 X142 Y160.4 E37.3638
G0 F2625 X144 Y160.098
G1 F1350 X144 Y119.901 E40.57735
G0 F2625 X146 Y120.399
G1 F1350 X146 Y159.594 E43.71079
G0 F2625 X148 Y158.864
G1 F1350 X148 Y121.132 E46.72727
G0 F2625 X150 Y122.115
G1 F1350 X150 Y157.884 E49.58682
G0 F2625 X152 Y156.61
G1 F1350 X152 Y123.389 E52.24266
G0 F2625 X154 Y125.03
G1 F1350 X154 Y154.964 E54.63573
G0 F2625 X156 Y152.81
G1 F1350 X156 Y127.198 E56.68328
G0 F2625 X158 Y130.211
G1 F1350 X158 Y149.794 E58.24884
G0 F2625 X160 Y144.479
G1 F1350 X160 Y135.535 E58.96387
G0 F2625 X124 Y127.197
G1 F1350 X124 Y152.795 E61.0103
G0 F2625 X122 Y149.793
M104 S240
G1 F1350 X122 Y130.193 E62.57722
G0 F2625 X120 Y135.538
G1 F1350 X120 Y144.447 E63.28944
G0 F2625 X125.508 Y125.508
;TIME_ELAPSED:42.899360
;LAYER:-5
M140 S110
M221 S100
G0 X125.508 Y125.508 Z0.78
;TYPE:SUPPORT
G1 F1350 X125.539 Y125.478 E63.29127
G1 X126.297 Y124.752 E63.33569
G1 X126.379 Y124.683 E63.34023
G1 X155.313 Y153.617 E65.07207
G1 X155.711 Y153.157 E65.09781
G1 X156.083 Y152.707 E65.12252
G1 X156.09 Y152.699 E65.12297
G1 X127.304 Y123.913 E66.84595
G1 X128.121 Y123.291 E66.88941
G1 X128.275 Y123.188 E66.89726
G1 X156.807 Y151.72 E68.60503
G1 X157.1 Y151.29 E68.62706
G1 X157.432 Y150.784 E68.65267
G1 X157.481 Y150.699 E68.65682
G1 X129.304 Y122.521 E70.34338
G1 X130.128 Y122.034 E70.38389
G1 X130.382 Y121.903 E70.39599
G1 X158.093 Y149.615 E72.05465
G1 X158.274 Y149.271 E72.07111
G1 X158.557 Y148.705 E72.09789
G1 X158.654 Y148.481 E72.10822
G1 X131.521 Y121.347 E73.73229
G1 X132.209 Y121.038 E73.76421
G1 X132.715 Y120.845 E73.78713
G1 X159.152 Y147.283 E75.36954
G1 X159.212 Y147.127 E75.37662
G1 X159.42 Y146.552 E75.4025
G1 X159.583 Y146.018 E75.42613
G1 X133.981 Y120.416 E76.95853
G1 X134.469 Y120.261 E76.9802
G1 X135.027 Y120.119 E77.00457
G1 X135.314 Y120.053 E77.01704
G1 X159.948 Y144.688 E78.49153
G1 X160.04 Y144.308 E78.50808
G1 X160.228 Y143.271 E78.55268
G1 X136.723 Y119.766 E79.95957
G1 X136.752 Y119.76 E79.96082
G1 X137.334 Y119.681 E79.98568
G0 F2625 X137.335 Y119.682
G1 F1350 X137.996 Y119.604 E80.01385
G1 X138.24 Y119.588 E80.0242
G1 X160.417 Y141.765 E81.3516
G1 X160.472 Y140.907 E81.38799
G1 X160.491 Y140.242 E81.41615
G1 X160.492 Y140.145 E81.42025
G1 X139.853 Y119.505 E82.65563
G0 F2625 X140.406 Y119.505
G1 F1350 X140.771 Y119.517 E82.67108
G1 X141.621 Y119.578 E82.70715
G1 X160.426 Y138.382 E83.83269
G1 X160.383 Y137.89 E83.85359
G1 X160.322 Y137.321 E83.87781
G1 X160.178 Y136.439 E83.91564
G1 X143.556 Y119.817 E84.91054
G1 X143.722 Y119.841 E84.91764
G1 X144.314 Y119.967 E84.94326
G1 X144.952 Y120.114 E84.97097
G1 X145.771 Y120.336 E85.00688
G1 X159.659 Y134.224 E85.83815
G1 X159.584 Y133.964 E85.8496
G1 X159.376 Y133.329 E85.87788
G1 X159.183 Y132.779 E85.90255
G1 X158.792 Y131.827 E85.94611
G1 X158.653 Y131.523 E85.96026
G1 X148.469 Y121.338 E86.56985
G1 X148.751 Y121.47 E86.58303
G1 X149.358 Y121.768 E86.61165
G1 X150.299 Y122.277 E86.65693
G1 X150.768 Y122.564 E86.6802
G1 X151.36 Y122.944 E86.70997
G1 X152.222 Y123.543 E86.7544
G1 X152.703 Y123.922 E86.78031
G1 X152.95 Y124.124 E86.79382
G1 X155.901 Y127.075 E86.97045
G0 F2625 X137.335 Y119.682
G1 F1350 X137.334 Y119.681 E86.97051
G0 F2625 X125.508 Y125.508
G1 F1350 X154.492 Y154.492 E88.70534
G1 X154.103 Y154.868 E88.72824
G1 X153.616 Y155.312 E88.75613
G1 X124.681 Y126.376 E90.48806
G0 F2625 X124.679 Y126.379
G1 F1350 X123.983 Y127.216 E90.53413
G1 X123.914 Y127.305 E90.5389
G1 X152.698 Y156.089 E92.26176
G1 X152.336 Y156.363 E92.28098
G1 X151.784 Y156.766 E92.3099
G1 X151.721 Y156.807 E92.31309
G1 X123.186 Y128.273 E94.02101
G1 X122.61 Y129.155 E94.0656
G1 X122.52 Y129.302 E94.07289
G1 X150.698 Y157.481 E95.75951
G1 X150.365 Y157.678 E95.77589
G0 F2625 X150.366 Y157.677
G1 F1350 X149.772 Y158.011 E95.80473
G1 X149.614 Y158.092 E95.81224
G1 X121.901 Y130.379 E97.471
G1 X121.497 Y131.19 E97.50935
G1 X121.345 Y131.519 E97.52469
G1 X148.48 Y158.654 E99.14885
G1 X148.296 Y158.736 E99.15737
G1 X147.661 Y159.006 E99.18658
G1 X147.281 Y159.15 E99.20378
G1 X120.848 Y132.717 E100.78592
G1 X120.613 Y133.358 E100.81481
G1 X120.411 Y133.976 E100.84233
G1 X146.021 Y159.586 E102.37521
G1 X145.438 Y159.757 E102.40093
G1 X144.687 Y159.948 E102.43373
G1 X120.053 Y135.314 E103.90819
G1 X119.988 Y135.587 E103.92007
G1 X119.847 Y136.276 E103.94983
G1 X119.766 Y136.723 E103.96906
G1 X143.271 Y160.227 E105.37592
G1 X143.171 Y160.245 E105.38022
G0 F2625 X143.17 Y160.245
G1 F1350 X142.105 Y160.39 E105.42571
G1 X141.765 Y160.417 E105.44014
G1 X119.585 Y138.237 E106.76772
G1 X119.557 Y138.57 E106.78187
G1 X119.516 Y139.195 E106.80838
G1 X119.51 Y139.858 E106.83644
G1 X140.14 Y160.488 E108.07124
G1 X139.756 Y160.496 E108.0875
G1 X139.164 Y160.475 E108.11257
G1 X138.527 Y160.438 E108.13958
G1 X138.381 Y160.424 E108.14578
G1 X119.566 Y141.609 E109.27195
G1 X119.668 Y142.566 E109.31269
G1 X119.768 Y143.254 E109.34211
G1 X119.817 Y143.556 E109.35506
G1 X136.439 Y160.178 E110.34997
G1 X136.161 Y160.129 E110.36191
G1 X135.125 Y159.911 E110.40672
G1 X134.544 Y159.753 E110.4322
G0 F2625 X134.544 Y159.752
G1 F1350 X134.223 Y159.657 E110.44637
G1 X120.336 Y145.771 E111.27755
G1 X120.433 Y146.109 E111.29243
G1 X120.779 Y147.109 E111.33721
G1 X121.026 Y147.744 E111.36605
G1 X121.257 Y148.3 E111.39153
G1 X121.338 Y148.469 E111.39947
G1 X131.521 Y158.652 E112.00897
G1 X130.734 Y158.284 E112.04574
G1 X130.249 Y158.022 E112.06907
G1 X129.633 Y157.677 E112.09895
G1 X128.745 Y157.133 E112.14303
G1 X128.209 Y156.76 E112.17066
G1 X127.697 Y156.387 E112.19747
G1 X127.069 Y155.895 E112.23124
G1 X124.124 Y152.95 E112.40751
G0 F2625 X134.544 Y159.752
G1 F1350 X134.544 Y159.753 E112.40755
G0 F2625 X143.17 Y160.245
G1 F1350 X143.171 Y160.245 E112.4076
G0 F2625 X150.365 Y157.678
G1 F1350 X150.366 Y157.677 E112.40766
G0 F2625 X124.679 Y126.379
G1 F1350 X124.681 Y126.376 E112.40781
G0 F2625 X125.169 Y125.5
;TIME_ELAPSED:97.704123
;LAYER:-4
G0 X125.169 Y125.5 Z0.959
G1 F1800 X124.882 Y125.794 E112.41357
G0 F2625 X124.883 Y125.795
G1 F1800 X124.692 Y126 E112.4175
G1 X155.299 Y126 E112.84691
G1 X155.751 Y126.5 E112.85636
G1 X124.254 Y126.5 E113.29825
G1 X123.838 Y127 E113.30738
G1 X156.163 Y127 E113.76088
G1 X156.196 Y127.042 E113.76163
G1 X156.551 Y127.5 E113.76976
G1 X123.448 Y127.5 E114.23418
G1 X123.37 Y127.6 E114.23596
G1 X123.075 Y128 E114.24293
G1 X156.916 Y128 E114.71771
G1 X157.238 Y128.449 E114.72546
G1 X157.271 Y128.5 E114.72631
G1 X122.739 Y128.5 E115.21078
G1 X122.412 Y129 E115.21916
G1 X157.585 Y129 E115.71262
G1 X157.59 Y129.008 E115.71275
G1 X157.888 Y129.5 E115.72082
G1 X122.11 Y129.5 E116.22277
G1 X122.066 Y129.573 E116.22397
G1 X121.821 Y130 E116.23087
G1 X158.169 Y130 E116.74082
G1 X158.446 Y130.5 E116.74884
G1 X121.563 Y130.5 E117.26629
G1 X121.313 Y131 E117.27413
G1 X158.689 Y131 E117.7985
G1 X158.723 Y131.072 E117.79962
G1 X158.919 Y131.5 E117.80622
G1 X121.079 Y131.5 E118.3371
G1 X120.984 Y131.708 E118.34031
G0 F2625 X120.985 Y131.708
G1 F1800 X120.86 Y132 E118.34476
G1 X159.135 Y132 E118.88175
G1 X159.34 Y132.5 E118.88933
G1 X120.661 Y132.5 E119.43198
G1 X120.478 Y133 E119.43945
G1 X159.527 Y133 E119.98728
G1 X159.615 Y133.252 E119.99103
G0 F2625 X159.614 Y133.252
G1 F1800 X159.695 Y133.5 E119.99469
G1 X120.304 Y133.5 E120.54733
G1 X120.166 Y133.923 E120.55357
G1 X120.143 Y134 E120.5547
G1 X159.855 Y134 E121.11184
G1 X159.997 Y134.5 E121.11913
G1 X119.991 Y134.5 E121.6804
G1 X119.989 Y134.506 E121.68049
G1 X119.871 Y135 E121.68761
G1 X160.135 Y135 E122.2525
G1 X160.248 Y135.5 E122.25969
G1 X119.751 Y135.5 E122.82784
G1 X119.74 Y135.545 E122.82849
G1 X119.648 Y136 E122.835
G1 X160.351 Y136 E123.40605
G1 X160.39 Y136.196 E123.40885
G1 X160.441 Y136.5 E123.41318
G1 X119.553 Y136.5 E123.98682
G1 X119.495 Y136.818 E123.99135
G1 X119.473 Y137 E123.99392
G1 X160.523 Y137 E124.56984
G1 X160.569 Y137.283 E124.57386
G1 X160.593 Y137.5 E124.57692
G1 X119.411 Y137.5 E125.15469
G1 X119.364 Y137.876 E125.16
G1 X119.354 Y138 E125.16175
G1 X160.644 Y138 E125.74103
G1 X160.688 Y138.5 E125.74807
G1 X119.312 Y138.5 E126.32856
G1 X119.307 Y138.549 E126.32925
G1 X119.277 Y139 E126.33559
G1 X160.714 Y139 E126.91693
G1 X160.739 Y139.5 E126.92395
G1 X119.263 Y139.5 E127.50584
G1 X119.259 Y140 E127.51286
