;Generated by Cura LulzBot Edition GCodeWriter Version: 2.6.69
;FLAVOR:RepRap
;TIME:1604
;Filament used: 0.469875m
;Layer height: 0.18
;Generated with Cura_SteamEngine 2.6.69
;This G-Code has been generated specifically for the LulzBot TAZ 6 with standard extruder
G26 ; clear potential 'probe fail' condition
G21 ; set units to Millimetres
M107 ; disable fans
G90 ; absolute positioning
M82 ; set extruder to absolute mode
G92 E0 ; set extruder position to 0
M140 S110 ; start bed heating up
G28 XY ; home X and Y
G1 X-19 Y258 F1000 ; move to safe homing position
M109 R175 ; soften filament before homing Z
G28 Z ; home Z
G1 E-30 F100 ; retract filament
M109 R170 ; wait for extruder to reach wiping temp
G1 X-15 Y100 F3000 ; move above wiper pad
G1 Z1 ; push nozzle into wiper
G1 X-17 Y95 F1000 ; slow wipe
G1 X-17 Y90 F1000 ; slow wipe
G1 X-17 Y85 F1000 ; slow wipe
G1 X-15 Y90 F1000 ; slow wipe
G1 X-17 Y80 F1000 ; slow wipe
G1 X-15 Y95 F1000 ; slow wipe
G1 X-17 Y75 F2000 ; fast wipe
G1 X-15 Y65 F2000 ; fast wipe
G1 X-17 Y70 F2000 ; fast wipe
G1 X-15 Y60 F2000 ; fast wipe
G1 X-17 Y55 F2000 ; fast wipe
G1 X-15 Y50 F2000 ; fast wipe
G1 X-17 Y40 F2000 ; fast wipe
G1 X-15 Y45 F2000 ; fast wipe
G1 X-17 Y35 F2000 ; fast wipe
G1 X-15 Y40 F2000 ; fast wipe
G1 X-17 Y70 F2000 ; fast wipe
G1 X-15 Y30 Z2 F2000 ; fast wipe
G1 X-17 Y35 F2000 ; fast wipe
G1 X-15 Y25 F2000 ; fast wipe
G1 X-17 Y30 F2000 ; fast wipe
G1 X-15 Y25 Z1.5 F1000 ; slow wipe
G1 X-17 Y23 F1000 ; slow wipe
G1 Z10 ; raise extruder
M109 R170 ; wait for extruder to reach probe temp
G1 X-9 Y-9 ; move above first probe point
M204 S100 ; set probing acceleration
G29 ; start auto-leveling sequence
M204 S500 ; restore standard acceleration
G1 X0 Y0 Z15 F5000 ; move up off last probe point
G4 S1 ; pause
M400 ; wait for moves to finish
M117 Heating... ; progress indicator message on LCD
M109 R240 ; wait for extruder to reach printing temp
M190 S110 ; wait for bed to reach printing temp
G1 Z2 E0 F75 ; prime tiny bit of filament into the nozzle
M117 TAZ 6 Printing... ; progress indicator message on LCD

M221 S100
;LAYER_COUNT:74
;LAYER:-6
M107
G0 F2625 X124.672 Y124.585 Z0.51
G1 F1350 X125.524 Y123.782 E0.0936
G1 X125.972 Y123.393 E0.14103
G1 X126.862 Y122.68 E0.2322
G1 X127.315 Y122.346 E0.27719
G1 X128.277 Y121.692 E0.37019
G1 X128.74 Y121.404 E0.41378
G1 X129.781 Y120.814 E0.50944
G1 X130.251 Y120.571 E0.55174
G1 X131.327 Y120.066 E0.64676
G1 X131.868 Y119.839 E0.69366
G1 X132.909 Y119.449 E0.78254
G1 X133.434 Y119.275 E0.82675
G1 X134.618 Y118.938 E0.92517
G1 X135.178 Y118.802 E0.97124
G1 X136.25 Y118.586 E1.05866
G1 X136.814 Y118.496 E1.10432
G1 X138.019 Y118.351 E1.20135
G1 X138.566 Y118.308 E1.24521
G1 X138.566 Y118.309 E1.24529
G1 X139.727 Y118.263 E1.33818
G1 X140.273 Y118.263 E1.38183
G1 X141.434 Y118.309 E1.47472
G1 X141.434 Y118.308 E1.4748
G1 X141.981 Y118.351 E1.51866
G1 X143.186 Y118.496 E1.61569
G1 X143.75 Y118.586 E1.66135
G1 X144.822 Y118.802 E1.74878
G1 X145.382 Y118.938 E1.79485
G1 X146.566 Y119.275 E1.89326
G1 X147.091 Y119.449 E1.93748
G1 X148.132 Y119.839 E2.02635
G1 X148.673 Y120.066 E2.07325
G1 X149.749 Y120.571 E2.16827
G1 X150.219 Y120.814 E2.21057
G1 X151.26 Y121.404 E2.30623
G1 X151.723 Y121.692 E2.34982
G1 X152.685 Y122.346 E2.44282
G1 X153.138 Y122.68 E2.48782
G1 X154.028 Y123.393 E2.57898
G1 X154.476 Y123.782 E2.62642
G1 X155.328 Y124.585 E2.72001
G1 X155.723 Y124.988 E2.76513
G1 X156.501 Y125.847 E2.85778
G1 X156.882 Y126.303 E2.90528
G1 X157.587 Y127.219 E2.99769
G1 X157.888 Y127.646 E3.03946
G1 X158.54 Y128.648 E3.13503
G1 X158.823 Y129.123 E3.17923
G1 X159.37 Y130.132 E3.27098
G1 X159.626 Y130.649 E3.3171
G1 X160.102 Y131.724 E3.41109
G1 X160.305 Y132.235 E3.45505
G1 X160.69 Y133.33 E3.54784
G1 X160.853 Y133.856 E3.59187
G1 X161.168 Y135.045 E3.6902
G1 X161.283 Y135.563 E3.73262
G1 X161.48 Y136.654 E3.82125
G1 X161.564 Y137.242 E3.86874
G1 X161.684 Y138.433 E3.96443
G1 X161.715 Y138.961 E4.00672
G1 X161.739 Y140.156 E4.10227
G1 X161.726 Y140.74 E4.14897
G1 X161.658 Y141.866 E4.23915
G1 X161.601 Y142.446 E4.28574
G1 X161.442 Y143.577 E4.37705
G1 X161.335 Y144.167 E4.42499
G1 X161.09 Y145.268 E4.51516
G1 X160.944 Y145.823 E4.56104
G1 X160.604 Y146.93 E4.65362
G1 X160.43 Y147.43 E4.69594
G1 X159.971 Y148.587 E4.79545
G1 X159.749 Y149.085 E4.83904
G1 X159.75 Y149.085 E4.83912
G1 X159.242 Y150.113 E4.93079
G1 X158.978 Y150.602 E4.97521
G1 X158.373 Y151.62 E5.06989
G1 X158.082 Y152.067 E5.11253
G1 X157.381 Y153.056 E5.20944
G1 X157.056 Y153.477 E5.25196
G1 X156.303 Y154.379 E5.34589
G1 X155.919 Y154.803 E5.39162
G1 X155.11 Y155.628 E5.484
G1 X154.714 Y156.003 E5.5276
G1 X153.84 Y156.764 E5.62024
G1 X153.394 Y157.122 E5.66597
G1 X152.413 Y157.847 E5.76349
G1 X151.974 Y158.145 E5.8059
G1 X150.993 Y158.755 E5.89825
G1 X150.518 Y159.027 E5.94201
G1 X149.459 Y159.575 E6.03734
G1 X148.957 Y159.808 E6.08158
G1 X147.85 Y160.272 E6.17754
G1 X147.343 Y160.462 E6.22083
G1 X146.263 Y160.817 E6.31171
G1 X145.711 Y160.976 E6.35764
G1 X144.577 Y161.253 E6.45096
G1 X144.04 Y161.361 E6.49475
G1 X142.859 Y161.551 E6.59038
G1 X142.297 Y161.617 E6.63562
G1 X141.146 Y161.708 E6.72792
G1 X140.582 Y161.731 E6.77305
G1 X139.418 Y161.731 E6.8661
G1 X138.854 Y161.708 E6.91123
G1 X137.703 Y161.617 E7.00353
G1 X137.141 Y161.551 E7.04877
G1 X135.96 Y161.361 E7.1444
G1 X135.423 Y161.253 E7.18819
G1 X134.289 Y160.976 E7.28151
G1 X133.737 Y160.817 E7.32743
G1 X132.657 Y160.462 E7.41832
G1 X132.15 Y160.272 E7.4616
G1 X131.043 Y159.808 E7.55756
G1 X130.541 Y159.575 E7.60181
G1 X129.482 Y159.027 E7.69713
G1 X129.007 Y158.755 E7.74089
G1 X128.026 Y158.145 E7.83324
G1 X127.587 Y157.847 E7.87566
G1 X126.606 Y157.122 E7.97318
G1 X126.16 Y156.764 E8.0189
G1 X125.286 Y156.003 E8.11155
G1 X124.89 Y155.628 E8.15515
G1 X124.081 Y154.803 E8.24752
G1 X123.697 Y154.379 E8.29325
G1 X122.944 Y153.477 E8.38719
G1 X122.619 Y153.056 E8.42971
G1 X121.918 Y152.067 E8.52662
G1 X121.627 Y151.62 E8.56926
G1 X121.022 Y150.602 E8.66393
G1 X120.758 Y150.113 E8.70836
G1 X120.25 Y149.085 E8.80003
G1 X120.251 Y149.085 E8.80011
G1 X120.029 Y148.587 E8.8437
G1 X119.57 Y147.43 E8.94321
G1 X119.396 Y146.93 E8.98553
G1 X119.056 Y145.823 E9.07811
G1 X118.91 Y145.268 E9.12399
G1 X118.665 Y144.167 E9.21416
G1 X118.558 Y143.577 E9.2621
G1 X118.399 Y142.446 E9.3534
G1 X118.342 Y141.866 E9.4
G1 X118.274 Y140.74 E9.49018
G1 X118.261 Y140.177 E9.5352
G1 X118.285 Y138.961 E9.63243
G1 X118.316 Y138.433 E9.67471
G1 X118.436 Y137.242 E9.77041
G1 X118.517 Y136.672 E9.81644
G1 X118.717 Y135.563 E9.90653
G1 X118.832 Y135.045 E9.94895
G1 X119.147 Y133.856 E10.04728
G1 X119.304 Y133.348 E10.08979
G1 X119.695 Y132.235 E10.1841
G1 X119.898 Y131.724 E10.22805
G1 X120.374 Y130.649 E10.32204
G1 X120.63 Y130.132 E10.36816
G1 X121.177 Y129.123 E10.45992
G1 X121.46 Y128.648 E10.50412
G1 X122.112 Y127.646 E10.59969
G1 X122.413 Y127.219 E10.64146
G1 X123.118 Y126.303 E10.73386
G1 X123.499 Y125.847 E10.78137
G1 X124.277 Y124.988 E10.87402
G1 X124.672 Y124.585 E10.91913
G0 F2625 X124 Y125.293
G1 F1350 X124 Y154.713 E13.27111
G0 F2625 X126 Y156.624
G1 F1350 X126 Y123.37 E15.9296
G0 F2625 X128 Y121.88
G1 F1350 X128 Y158.127 E18.82736
G0 F2625 X130 Y159.295
G1 F1350 X130 Y120.7 E21.91283
G0 F2625 X132 Y119.789
G1 F1350 X132 Y160.209 E25.1442
G0 F2625 X134 Y160.892
G1 F1350 X134 Y119.113 E28.48422
G0 F2625 X136 Y118.636
G1 F1350 X136 Y161.367 E31.90034
G0 F2625 X138 Y161.64
G1 F1350 X138 Y118.353 E35.36092
G0 F2625 X140 Y118.263
G1 F1350 X140 Y161.731 E38.83596
G0 F2625 X142 Y161.641
G1 F1350 X142 Y118.354 E42.29653
G0 F2625 X144 Y118.637
G1 F1350 X144 Y161.368 E45.71266
G0 F2625 X146 Y160.893
G1 F1350 X146 Y119.114 E49.05267
G0 F2625 X148 Y119.79
G1 F1350 X148 Y160.21 E52.28405
G0 F2625 X150 Y159.296
G1 F1350 X150 Y120.701 E55.36952
G0 F2625 X152 Y121.881
G1 F1350 X152 Y158.128 E58.26728
G0 F2625 X154 Y156.625
G1 F1350 X154 Y123.371 E60.92577
G0 F2625 X156 Y125.294
G1 F1350 X156 Y154.714 E63.27774
G0 F2625 X158 Y152.183
G1 F1350 X158 Y127.819 E65.22552
G0 F2625 X160 Y131.494
G1 F1350 X160 Y148.514 E66.58618
G0 F2625 X122 Y152.182
M104 S240
G1 F1350 X122 Y127.818 E68.53396
G0 F2625 X120 Y131.493
G1 F1350 X120 Y148.513 E69.89462
G0 F2625 X124.628 Y124.628
;TIME_ELAPSED:46.567121
;LAYER:-5
M140 S110
M221 S100
G0 X124.628 Y124.628 Z0.78
;TYPE:SUPPORT
G1 F1350 X124.671 Y124.585 E69.89719
G1 X125.5 Y123.804 E69.9454
G1 X156.194 Y154.498 E71.78258
G1 X156.302 Y154.379 E71.78938
G1 X156.969 Y153.578 E71.8335
G1 X126.422 Y123.031 E73.66189
G1 X126.861 Y122.679 E73.6857
G1 X127.313 Y122.345 E73.70949
G1 X127.385 Y122.298 E73.71313
G1 X157.696 Y152.609 E75.52739
G1 X158.081 Y152.066 E75.55556
G1 X158.372 Y151.619 E75.57813
G1 X158.384 Y151.601 E75.57905
G1 X128.398 Y121.616 E77.37383
G1 X128.739 Y121.403 E77.39084
G1 X129.469 Y120.99 E77.42634
G1 X159.014 Y150.535 E79.19475
G1 X159.241 Y150.113 E79.21503
G1 X159.587 Y149.413 E79.24808
G1 X130.587 Y120.413 E80.98387
G1 X131.325 Y120.066 E81.01839
G1 X131.755 Y119.886 E81.03811
G1 X160.108 Y148.239 E82.73518
G1 X160.429 Y147.429 E82.77205
G1 X160.575 Y147.01 E82.79083
G1 X132.988 Y119.423 E84.44205
G1 X133.433 Y119.275 E84.4619
G1 X134.292 Y119.031 E84.49969
G1 X160.972 Y145.712 E86.09665
G1 X161.088 Y145.268 E86.11607
G1 X161.296 Y144.339 E86.15636
G1 X135.661 Y118.704 E87.69074
G1 X136.249 Y118.586 E87.71612
G1 X136.813 Y118.496 E87.7403
G1 X137.112 Y118.46 E87.75304
G1 X161.538 Y142.886 E89.21506
G1 X161.6 Y142.445 E89.23391
G1 X161.657 Y141.865 E89.25857
G1 X161.689 Y141.341 E89.28079
G1 X138.653 Y118.306 E90.65958
G0 F2625 X140.272 Y118.262
G1 F1350 X140.308 Y118.265 E90.66111
G1 X161.729 Y139.686 E91.94326
G1 X161.714 Y138.961 E91.97395
G1 X161.682 Y138.433 E91.99633
G1 X161.628 Y137.889 E92.01947
G1 X142.105 Y118.366 E93.18802
G1 X143.185 Y118.496 E93.23406
G1 X143.749 Y118.586 E93.25823
G1 X144.089 Y118.655 E93.27291
G1 X161.344 Y135.91 E94.30571
G1 X161.281 Y135.562 E94.32068
G1 X161.167 Y135.045 E94.34308
G1 X160.851 Y133.856 E94.39515
G1 X160.791 Y133.661 E94.40379
G1 X146.342 Y119.211 E95.26866
G1 X146.564 Y119.274 E95.27843
G1 X147.09 Y119.449 E95.30189
G1 X148.131 Y119.839 E95.34894
G1 X148.672 Y120.066 E95.37377
G1 X149.086 Y120.26 E95.39312
G1 X159.744 Y130.918 E96.03105
G1 X159.625 Y130.649 E96.0435
G1 X159.369 Y130.131 E96.06796
G1 X158.822 Y129.122 E96.11653
G1 X158.538 Y128.648 E96.13992
G1 X157.887 Y127.646 E96.19049
G1 X157.586 Y127.219 E96.2126
G1 X157.071 Y126.549 E96.24837
G1 X153.458 Y122.936 E96.46463
G0 F2625 X124.628 Y124.628
G1 F1350 X155.366 Y155.366 E98.30444
G1 X155.109 Y155.627 E98.31995
G1 X154.714 Y156.002 E98.343
G1 X154.496 Y156.192 E98.35524
G1 X123.808 Y125.503 E100.19209
G1 X123.499 Y125.846 E100.21163
G1 X123.117 Y126.302 E100.23681
G1 X123.027 Y126.418 E100.24302
G1 X153.58 Y156.971 E102.07177
G1 X153.393 Y157.121 E102.08191
G1 X152.611 Y157.698 E102.12304
G1 X122.296 Y127.383 E103.93754
G1 X122.111 Y127.645 E103.95112
G1 X121.619 Y128.402 E103.98933
G1 X151.595 Y158.378 E105.78354
G1 X150.992 Y158.753 E105.81359
G1 X150.536 Y159.014 E105.83583
G1 X120.989 Y129.467 E107.60436
G1 X120.63 Y130.13 E107.63627
G1 X120.406 Y130.58 E107.65754
G1 X149.418 Y159.592 E109.39405
G1 X148.956 Y159.806 E109.4156
G1 X148.238 Y160.108 E109.44857
G1 X119.885 Y131.754 E111.14566
G1 X119.694 Y132.234 E111.16753
G1 X119.427 Y132.992 E111.20154
G1 X147.006 Y160.571 E112.85228
G1 X146.262 Y160.816 E112.88543
G1 X145.713 Y160.974 E112.90961
G1 X119.031 Y134.292 E114.50665
G1 X118.832 Y135.044 E114.53958
G1 X118.717 Y135.562 E114.56204
G1 X118.699 Y135.656 E114.56609
G1 X144.342 Y161.298 E116.10091
G1 X144.04 Y161.36 E116.11396
G1 X142.892 Y161.544 E116.16317
G1 X118.454 Y137.106 E117.6259
G1 X118.436 Y137.24 E117.63162
G1 X118.315 Y138.431 E117.68229
G1 X118.302 Y138.65 E117.69158
G1 X141.343 Y161.691 E119.07069
G1 X141.146 Y161.707 E119.07906
G1 X140.582 Y161.73 E119.10295
G1 X139.686 Y161.73 E119.14087
G1 X118.264 Y140.307 E120.42311
G1 X118.274 Y140.738 E120.44136
G1 X118.342 Y141.864 E120.4891
G1 X118.365 Y142.104 E120.4993
G1 X137.892 Y161.631 E121.66809
G1 X137.703 Y161.616 E121.67611
G1 X137.141 Y161.55 E121.70006
G1 X135.959 Y161.36 E121.75073
G1 X135.916 Y161.351 E121.75259
G1 X118.65 Y144.085 E122.78604
G1 X118.665 Y144.166 E122.78953
G1 X118.91 Y145.267 E122.83727
G1 X119.055 Y145.822 E122.86155
G1 X119.216 Y146.347 E122.88479
G1 X133.66 Y160.791 E123.74933
G1 X132.656 Y160.461 E123.79406
G1 X132.149 Y160.271 E123.81698
G1 X131.043 Y159.806 E123.86775
G1 X130.927 Y159.753 E123.87315
G1 X120.244 Y149.07 E124.51258
G1 X120.251 Y149.084 E124.51324
G1 X120.249 Y149.084 E124.51333
G1 X120.757 Y150.112 E124.56186
G1 X121.022 Y150.601 E124.5854
G1 X121.626 Y151.619 E124.6355
G1 X121.917 Y152.066 E124.65807
G1 X122.618 Y153.055 E124.70938
G1 X122.905 Y153.426 E124.72923
G1 X126.576 Y157.097 E124.94896
G0 F2625 X124.403 Y124.5
;TIME_ELAPSED:106.499861
;LAYER:-4
G0 X124.403 Y124.5 Z0.959
G1 F1800 X124.09 Y124.819 E124.95523
G1 X123.927 Y125 E124.95865
G1 X156.072 Y125 E125.40963
G1 X156.525 Y125.5 E125.41909
G1 X123.474 Y125.5 E125.88278
G1 X123.312 Y125.678 E125.88616
G1 X123.044 Y126 E125.89204
G1 X156.955 Y126 E126.36779
G1 X157.067 Y126.135 E126.37025
G1 X157.349 Y126.5 E126.37672
G1 X122.65 Y126.5 E126.86353
G1 X122.265 Y127 E126.87239
G1 X157.734 Y127 E127.37
G1 X157.784 Y127.066 E127.37116
G1 X158.091 Y127.5 E127.37862
G1 X121.908 Y127.5 E127.88625
G1 X121.902 Y127.508 E127.88639
G1 X121.582 Y128 E127.89463
G1 X158.417 Y128 E128.4114
G1 X158.742 Y128.5 E128.41977
G1 X121.257 Y128.5 E128.94567
G1 X121.25 Y128.51 E128.94584
G1 X120.959 Y129 E128.95383
G1 X159.041 Y129 E129.48811
G0 F2625 X159.042 Y129.003
G1 F1800 X159.312 Y129.5 E129.49604
G1 X120.687 Y129.5 E130.03793
G1 X120.416 Y130 E130.04591
G1 X159.583 Y130 E130.59541
G1 X159.585 Y130.004 E130.59547
G1 X159.83 Y130.5 E130.60323
G1 X120.169 Y130.5 E131.15966
G1 X120.145 Y130.547 E131.1604
G1 X119.945 Y131 E131.16735
G1 X160.054 Y131 E131.73006
G1 X160.276 Y131.5 E131.73773
G1 X119.723 Y131.5 E132.30667
G1 X119.661 Y131.64 E132.30882
G1 X119.518 Y132 E132.31425
G1 X160.481 Y132 E132.88895
G1 X160.54 Y132.151 E132.89122
G1 X160.663 Y132.5 E132.89641
G1 X119.336 Y132.5 E133.47621
G1 X119.16 Y133 E133.48365
G1 X160.839 Y133 E134.06838
G1 X160.928 Y133.255 E134.07217
G1 X161.004 Y133.5 E134.07577
G1 X118.994 Y133.5 E134.66515
G1 X118.907 Y133.781 E134.66928
G1 X118.85 Y134 E134.67246
G1 X161.149 Y134 E135.26589
G1 X161.281 Y134.5 E135.27315
G1 X118.718 Y134.5 E135.87028
G1 X118.585 Y135 E135.87754
G1 X161.413 Y135 E136.4784
G1 X161.525 Y135.5 E136.48559
G1 X118.474 Y135.5 E137.08958
G1 X118.468 Y135.527 E137.08996
G1 X118.383 Y136 E137.09671
G1 X161.616 Y136 E137.70324
G1 X161.706 Y136.5 E137.71037
G1 X118.293 Y136.5 E138.31944
G1 X118.27 Y136.626 E138.32123
G1 X118.217 Y137 E138.32653
G1 X161.782 Y137 E138.93773
G1 X161.81 Y137.195 E138.94049
G0 F2625 X161.809 Y137.195
G1 F1800 X161.84 Y137.5 E138.94479
G1 X118.159 Y137.5 E139.55762
G1 X118.109 Y138 E139.56467
G1 X161.89 Y138 E140.1789
G1 X161.932 Y138.418 E140.18479
G1 X161.937 Y138.5 E140.18594
G1 X118.061 Y138.5 E140.8015
G1 X118.034 Y138.965 E140.80804
G1 X118.034 Y139 E140.80853
G1 X161.965 Y139 E141.42486
G1 X161.975 Y139.5 E141.43188
G1 X118.024 Y139.5 E142.04849
G1 X118.014 Y140 E142.0555
G1 X161.985 Y140 E142.6724
G1 X161.988 Y140.16 E142.67464
G1 X161.98 Y140.5 E142.67941
G1 X118.017 Y140.5 E143.29619
G1 X118.023 Y140.739 E143.29955
G1 X118.038 Y141 E143.30322
G1 X161.959 Y141 E143.91941
G1 X161.929 Y141.5 E143.92644
G1 X118.068 Y141.5 E144.54179
G1 X118.092 Y141.89 E144.54727
G1 X118.102 Y142 E144.54882
G1 X161.895 Y142 E145.16321
G1 X161.85 Y142.459 E145.16968
G1 X161.844 Y142.5 E145.17026
G1 X118.153 Y142.5 E145.78323
G1 X118.224 Y143 E145.79031
G1 X161.773 Y143 E146.40129
G1 X161.703 Y143.5 E146.40837
G1 X118.294 Y143.5 E147.01738
G1 X118.313 Y143.63 E147.01922
G1 X118.379 Y144 E147.02449
G1 X161.618 Y144 E147.63112
G1 X161.581 Y144.206 E147.63405
G1 X161.515 Y144.5 E147.63828
G1 X118.482 Y144.5 E148.24201
G1 X118.593 Y145 E148.2492
