;Generated by Cura LulzBot Edition GCodeWriter Version: 2.6.69
;FLAVOR:RepRap
;TIME:6105
;Filament used: 2.21m
;Layer height: 0.18
;Generated with Cura_SteamEngine 2.6.69
;This G-Code has been generated specifically for the LulzBot TAZ 6 with standard extruder
G26 ; clear potential 'probe fail' condition
G21 ; set units to Millimetres
M107 ; disable fans
G90 ; absolute positioning
M82 ; set extruder to absolute mode
G92 E0 ; set extruder position to 0
M140 S110 ; start bed heating up
G28 XY ; home X and Y
G1 X-19 Y258 F1000 ; move to safe homing position
M109 R175 ; soften filament before homing Z
G28 Z ; home Z
G1 E-30 F100 ; retract filament
M109 R170 ; wait for extruder to reach wiping temp
G1 X-15 Y100 F3000 ; move above wiper pad
G1 Z1 ; push nozzle into wiper
G1 X-17 Y95 F1000 ; slow wipe
G1 X-17 Y90 F1000 ; slow wipe
G1 X-17 Y85 F1000 ; slow wipe
G1 X-15 Y90 F1000 ; slow wipe
G1 X-17 Y80 F1000 ; slow wipe
G1 X-15 Y95 F1000 ; slow wipe
G1 X-17 Y75 F2000 ; fast wipe
G1 X-15 Y65 F2000 ; fast wipe
G1 X-17 Y70 F2000 ; fast wipe
G1 X-15 Y60 F2000 ; fast wipe
G1 X-17 Y55 F2000 ; fast wipe
G1 X-15 Y50 F2000 ; fast wipe
G1 X-17 Y40 F2000 ; fast wipe
G1 X-15 Y45 F2000 ; fast wipe
G1 X-17 Y35 F2000 ; fast wipe
G1 X-15 Y40 F2000 ; fast wipe
G1 X-17 Y70 F2000 ; fast wipe
G1 X-15 Y30 Z2 F2000 ; fast wipe
G1 X-17 Y35 F2000 ; fast wipe
G1 X-15 Y25 F2000 ; fast wipe
G1 X-17 Y30 F2000 ; fast wipe
G1 X-15 Y25 Z1.5 F1000 ; slow wipe
G1 X-17 Y23 F1000 ; slow wipe
G1 Z10 ; raise extruder
M109 R170 ; wait for extruder to reach probe temp
G1 X-9 Y-9 ; move above first probe point
M204 S100 ; set probing acceleration
G29 ; start auto-leveling sequence
M204 S500 ; restore standard acceleration
G1 X0 Y0 Z15 F5000 ; move up off last probe point
G4 S1 ; pause
M400 ; wait for moves to finish
M117 Heating... ; progress indicator message on LCD
M109 R240 ; wait for extruder to reach printing temp
M190 S110 ; wait for bed to reach printing temp
G1 Z2 E0 F75 ; prime tiny bit of filament into the nozzle
M117 TAZ 6 Printing... ; progress indicator message on LCD

M221 S100
;LAYER_COUNT:105
;LAYER:-6
M107
G0 F2625 X64.832 Y136.582 Z0.51
G1 F1350 X65.831 Y136.198 E0.08556
G1 X66.834 Y135.894 E0.16935
G1 X67.874 Y135.661 E0.25455
G1 X68.921 Y135.505 E0.33918
G1 X69.979 Y135.425 E0.424
G1 X71.058 Y135.423 E0.51026
G1 X90.152 Y136.1 E2.03769
G1 X104.508 Y136.304 E3.18549
G1 X117.679 Y136.188 E4.23849
G1 X129.806 Y135.772 E5.20855
G1 X141.119 Y135.076 E6.11468
G1 X141.278 Y135.062 E6.12744
G1 X152.927 Y133.981 E7.06272
G1 X166.887 Y132.304 E8.18677
G1 X166.887 Y132.312 E8.18741
G1 X173.955 Y131.439 E8.75675
G1 X174.018 Y131.431 E8.76183
G1 X174.018 Y131.43 E8.76191
G1 X177.75 Y130.986 E9.06237
G1 X177.75 Y130.987 E9.06245
G1 X177.839 Y130.977 E9.06961
G1 X179.633 Y130.772 E9.21396
G1 X180.058 Y130.652 E9.24927
G1 X181.097 Y130.437 E9.33409
G1 X181.993 Y130.312 E9.40641
G1 X183.318 Y130.171 E9.51294
G1 X183.388 Y130.163 E9.51857
G1 X183.388 Y130.162 E9.51865
G1 X184.862 Y130.012 E9.6371
G1 X185.376 Y129.971 E9.67832
G1 X185.855 Y129.912 E9.7169
G1 X185.938 Y129.904 E9.72357
G1 X185.944 Y129.903 E9.72406
G1 X187.826 Y129.728 E9.87516
G1 X189.629 Y129.561 E10.01992
G1 X190.606 Y129.475 E10.09833
G1 X191.037 Y129.444 E10.13287
G1 X191.487 Y129.418 E10.16891
G1 X191.919 Y129.378 E10.20359
G1 X192.179 Y129.364 E10.22441
G1 X194.944 Y129.153 E10.4461
G1 X195.464 Y129.116 E10.48777
G1 X196.816 Y129.036 E10.59605
G1 X196.94 Y129.029 E10.60598
G1 X198.127 Y128.969 E10.70099
G1 X198.213 Y128.965 E10.70788
G1 X200.063 Y128.877 E10.85594
G1 X200.803 Y128.859 E10.91512
G1 X209.986 Y128.859 E11.64925
G1 X211.051 Y128.897 E11.73445
G1 X212.106 Y129.015 E11.81932
G1 X213.152 Y129.207 E11.90433
G1 X214.492 Y129.574 E12.01541
G1 X214.932 Y129.718 E12.05242
G1 X215.931 Y130.084 E12.13747
G1 X216.889 Y130.518 E12.22155
G1 X217.815 Y131.021 E12.3058
G1 X218.714 Y131.6 E12.39129
G1 X219.555 Y132.231 E12.47534
G1 X220.362 Y132.935 E12.56095
G1 X221.099 Y133.681 E12.64479
G1 X221.793 Y134.493 E12.73018
G1 X222.416 Y135.336 E12.81398
G1 X222.981 Y136.235 E12.89887
G1 X223.478 Y137.172 E12.98366
G1 X223.905 Y138.14 E13.06824
G1 X224.258 Y139.13 E13.15227
G1 X224.545 Y140.168 E13.23837
G1 X224.747 Y141.184 E13.32118
G1 X224.76 Y141.303 E13.33075
G1 X224.984 Y142.195 E13.40428
G1 X225.161 Y143.203 E13.48609
G1 X225.27 Y144.288 E13.57327
G1 X225.298 Y145.054 E13.63455
G1 X225.319 Y147.33 E13.81651
G1 X225.29 Y148.425 E13.90408
G1 X225.184 Y149.48 E13.98885
G1 X225.002 Y150.517 E14.07302
G1 X224.74 Y151.557 E14.15876
G1 X224.411 Y152.548 E14.24223
G1 X224.006 Y153.526 E14.32686
G1 X223.528 Y154.479 E14.41209
G1 X222.985 Y155.388 E14.49674
G1 X222.377 Y156.254 E14.58133
G1 X221.718 Y157.061 E14.66463
G1 X221.262 Y157.559 E14.71861
G1 X220.016 Y158.849 E14.86199
G1 X221.199 Y159.993 E14.99355
G1 X221.39 Y160.199 E15.01601
G1 X222.077 Y160.992 E15.09989
G1 X222.723 Y161.854 E15.186
G1 X223.284 Y162.733 E15.26937
G1 X223.795 Y163.677 E15.35518
G1 X224.223 Y164.631 E15.43877
G1 X224.591 Y165.641 E15.52471
G1 X224.877 Y166.65 E15.60855
G1 X225.093 Y167.691 E15.69355
G1 X225.229 Y168.727 E15.77708
G1 X225.293 Y170.251 E15.89903
G1 X225.272 Y172.538 E16.08187
G1 X225.223 Y173.627 E16.16902
G1 X225.101 Y174.65 E16.25138
G1 X224.895 Y175.708 E16.33755
G1 X224.621 Y176.722 E16.42152
G1 X224.572 Y176.859 E16.43315
G1 X224.498 Y177.228 E16.46324
G1 X224.212 Y178.246 E16.54777
G1 X223.847 Y179.256 E16.63363
G1 X223.419 Y180.216 E16.71766
G1 X222.926 Y181.138 E16.80124
G1 X222.344 Y182.05 E16.88773
G1 X221.719 Y182.891 E16.9715
G1 X221.029 Y183.692 E17.05602
G1 X220.556 Y184.178 E17.11024
G1 X220.125 Y184.599 E17.1584
G1 X219.336 Y185.317 E17.24369
G1 X218.506 Y185.968 E17.32802
G1 X217.618 Y186.566 E17.4136
G1 X216.707 Y187.087 E17.4975
G1 X215.75 Y187.544 E17.58229
G1 X214.777 Y187.926 E17.66585
G1 X213.744 Y188.245 E17.75228
G1 X212.72 Y188.482 E17.83631
G1 X211.68 Y188.643 E17.92044
G1 X210.627 Y188.728 E18.0049
G1 X209.957 Y188.743 E18.05848
G1 X200.779 Y188.745 E18.79221
G1 X200.043 Y188.727 E18.85107
G1 X199.189 Y188.688 E18.91941
G1 X198.687 Y188.665 E18.95959
G1 X198.554 Y188.658 E18.97023
G1 X198.051 Y188.631 E19.0105
G1 X198.038 Y188.631 E19.01154
G1 X197.008 Y188.574 E19.09401
G1 X196.909 Y188.568 E19.10194
G1 X196.857 Y188.565 E19.10611
G1 X196.436 Y188.541 E19.13982
G1 X196.343 Y188.536 E19.14726
G1 X194.915 Y188.448 E19.26164
G1 X194.766 Y188.437 E19.27358
G1 X193.769 Y188.365 E19.3535
G1 X193.333 Y188.34 E19.38841
G1 X193.125 Y188.325 E19.40508
G1 X192.642 Y188.287 E19.44381
G1 X192.469 Y188.272 E19.4577
G1 X192.149 Y188.248 E19.48335
G1 X192.149 Y188.249 E19.48343
G1 X191.348 Y188.182 E19.54769
G1 X190.648 Y188.132 E19.60379
G1 X189.694 Y188.047 E19.68036
G1 X188.351 Y187.929 E19.78814
G1 X188.238 Y187.918 E19.79722
G1 X185.791 Y187.686 E19.99372
G1 X184.892 Y187.596 E20.06595
G1 X184.892 Y187.597 E20.06603
G1 X184.794 Y187.586 E20.07392
G1 X183.719 Y187.472 E20.16034
G1 X183.632 Y187.467 E20.1673
G1 X181.98 Y187.29 E20.30013
G1 X180.905 Y187.136 E20.38695
G1 X179.88 Y186.91 E20.47086
G1 X179.607 Y186.828 E20.49365
G1 X177.751 Y186.619 E20.64296
G1 X177.173 Y186.54 E20.6896
G1 X177.173 Y186.551 E20.69048
G1 X174.001 Y186.174 E20.94585
G1 X174.001 Y186.173 E20.94593
G1 X173.934 Y186.163 E20.95135
G1 X166.858 Y185.291 E21.52131
G1 X166.858 Y185.297 E21.52179
G1 X153.182 Y183.652 E22.623
G1 X141.276 Y182.541 E23.57896
G1 X141.109 Y182.527 E23.59236
G1 X129.782 Y181.83 E24.49961
G1 X117.654 Y181.414 E25.46975
G1 X104.484 Y181.298 E26.52266
G1 X90.127 Y181.502 E27.67055
G1 X71.034 Y182.179 E29.19789
G1 X69.965 Y182.177 E29.28335
G1 X68.907 Y182.099 E29.36817
G1 X67.866 Y181.946 E29.45228
G1 X66.818 Y181.71 E29.53816
G1 X65.82 Y181.409 E29.6215
G1 X64.821 Y181.025 E29.70706
G1 X63.867 Y180.576 E29.79135
G1 X62.944 Y180.059 E29.87593
G1 X62.058 Y179.471 E29.96094
G1 X61.226 Y178.827 E30.04505
G1 X60.424 Y178.106 E30.13127
G1 X60.264 Y177.951 E30.14907
G1 X59.547 Y177.205 E30.23179
G1 X58.864 Y176.382 E30.31729
G1 X58.251 Y175.522 E30.40172
G1 X57.698 Y174.614 E30.48672
G1 X57.217 Y173.673 E30.5712
G1 X56.807 Y172.705 E30.65525
G1 X56.467 Y171.703 E30.73984
G1 X56.2 Y170.673 E30.8249
G1 X56.007 Y169.621 E30.91041
G1 X55.894 Y168.574 E30.9946
G1 X55.856 Y167.54 E31.07731
G1 X55.856 Y161.489 E31.56106
G1 X55.894 Y160.433 E31.64554
G1 X56.01 Y159.387 E31.72967
G1 X56.129 Y158.749 E31.78156
G1 X56.001 Y157.971 E31.84459
G1 X55.903 Y156.912 E31.92961
G1 X55.88 Y156.099 E31.99463
G1 X55.88 Y150.062 E32.47726
G1 X55.918 Y149.006 E32.56174
G1 X56.036 Y147.948 E32.64684
G1 X56.227 Y146.911 E32.73114
G1 X56.495 Y145.885 E32.81592
G1 X56.839 Y144.875 E32.90122
G1 X57.248 Y143.913 E32.98479
G1 X57.726 Y142.982 E33.06845
G1 X58.291 Y142.057 E33.1551
G1 X58.906 Y141.196 E33.23969
G1 X59.574 Y140.393 E33.3232
G1 X60.298 Y139.641 E33.40665
G1 X60.455 Y139.49 E33.42406
G1 X61.241 Y138.783 E33.50858
G1 X62.068 Y138.142 E33.59223
G1 X62.964 Y137.547 E33.67821
G1 X63.882 Y137.031 E33.7624
G1 X64.832 Y136.582 E33.84641
G0 F2625 X64 Y136.975
G1 F1350 X64 Y180.638 E37.33704
G0 F2625 X66 Y181.463
G1 F1350 X66 Y136.146 E40.9599
G0 F2625 X68 Y135.642
G1 F1350 X68 Y181.965 E44.66319
G0 F2625 X70 Y182.177
G1 F1350 X70 Y135.424 E48.40085
G0 F2625 X72 Y135.457
G1 F1350 X72 Y182.145 E52.13331
G0 F2625 X74 Y182.074
G1 F1350 X74 Y135.528 E55.85443
G0 F2625 X76 Y135.599
G1 F1350 X76 Y182.003 E59.56419
G0 F2625 X78 Y181.932
G1 F1350 X78 Y135.67 E63.2626
G0 F2625 X80 Y135.741
G1 F1350 X80 Y181.862 E66.94974
G0 F2625 X82 Y181.791
G1 F1350 X82 Y135.811 E70.6256
G0 F2625 X84 Y135.882
G1 F1350 X84 Y181.72 E74.29011
G0 F2625 X86 Y181.649
G1 F1350 X86 Y135.953 E77.94327
G0 F2625 X88 Y136.024
G1 F1350 X88 Y181.578 E81.58508
G0 F2625 X90 Y181.507
G1 F1350 X90 Y136.095 E85.21554
G0 F2625 X92 Y136.127
G1 F1350 X92 Y181.476 E88.84096
G0 F2625 X94 Y181.447
G1 F1350 X94 Y136.155 E92.46182
G0 F2625 X96 Y136.184
G1 F1350 X96 Y181.419 E96.07813
G0 F2625 X98 Y181.391
G1 F1350 X98 Y136.212 E99.68996
G0 F2625 X100 Y136.24
G1 F1350 X100 Y181.362 E103.29723
G0 F2625 X102 Y181.334
G1 F1350 X102 Y136.269 E106.89994
G0 F2625 X104 Y136.297
G1 F1350 X104 Y181.305 E110.4981
G0 F2625 X106 Y181.311
G1 F1350 X106 Y136.29 E114.0973
G0 F2625 X108 Y136.273
G1 F1350 X108 Y181.328 E117.69922
G0 F2625 X110 Y181.346
G1 F1350 X110 Y136.255 E121.30401
G0 F2625 X112 Y136.238
G1 F1350 X112 Y181.364 E124.9116
G0 F2625 X114 Y181.381
G1 F1350 X114 Y136.22 E128.52199
G0 F2625 X116 Y136.202
G1 F1350 X116 Y181.399 E132.13526
G0 F2625 X118 Y181.425
G1 F1350 X118 Y136.176 E135.75269
G0 F2625 X120 Y136.108
G1 F1350 X120 Y181.494 E139.38106
G0 F2625 X122 Y181.563
G1 F1350 X122 Y136.039 E143.02047
G0 F2625 X124 Y135.971
G1 F1350 X124 Y181.631 E146.67076
G0 F2625 X126 Y181.7
G1 F1350 X126 Y135.902 E150.33207
G0 F2625 X128 Y135.833
G1 F1350 X128 Y181.768 E154.00434
G0 F2625 X130 Y181.843
G1 F1350 X130 Y135.76 E157.68844
G0 F2625 X132 Y135.637
G1 F1350 X132 Y181.966 E161.3922
G0 F2625 X134 Y182.089
G1 F1350 X134 Y135.513 E165.11572
G0 F2625 X136 Y135.39
G1 F1350 X136 Y182.212 E168.85889
G0 F2625 X138 Y182.335
G1 F1350 X138 Y135.267 E172.62174
G0 F2625 X140 Y135.144
G1 F1350 X140 Y182.458 E176.40425
G0 F2625 X142 Y182.608
G1 F1350 X142 Y134.995 E180.21066
G0 F2625 X144 Y134.809
G1 F1350 X144 Y182.795 E184.0469
G0 F2625 X146 Y182.981
G1 F1350 X146 Y134.623 E187.91287
G0 F2625 X148 Y134.438
G1 F1350 X148 Y183.168 E191.80859
G0 F2625 X150 Y183.355
G1 F1350 X150 Y134.252 E195.73412
G0 F2625 X152 Y134.067
G1 F1350 X152 Y183.541 E199.68931
G0 F2625 X154 Y183.75
G1 F1350 X154 Y133.852 E203.6784
G0 F2625 X156 Y133.611
G1 F1350 X156 Y183.99 E207.70594
G0 F2625 X158 Y184.231
G1 F1350 X158 Y133.371 E211.77194
G0 F2625 X160 Y133.131
G1 F1350 X160 Y184.472 E215.87639
G0 F2625 X162 Y184.712
G1 F1350 X162 Y132.891 E220.01921
G0 F2625 X164 Y132.65
G1 F1350 X164 Y184.953 E224.20057
G0 F2625 X166 Y185.193
G1 F1350 X166 Y132.41 E228.4203
G0 F2625 X168 Y132.174
G1 F1350 X168 Y185.431 E232.67792
G0 F2625 X170 Y185.678
G1 F1350 X170 Y131.927 E236.97504
G0 F2625 X172 Y131.68
G1 F1350 X172 Y185.924 E241.31157
G0 F2625 X174 Y186.172
G1 F1350 X174 Y131.433 E245.68767
G0 F2625 X176 Y131.194
G1 F1350 X176 Y186.411 E250.10198
G0 F2625 X178 Y186.647
G1 F1350 X178 Y130.958 E254.55403
G0 F2625 X180 Y130.668
G1 F1350 X180 Y186.936 E259.05237
G0 F2625 X182 Y187.292
G1 F1350 X182 Y130.311 E263.60771
G0 F2625 X184 Y130.099
G1 F1350 X184 Y187.501 E268.1967
G0 F2625 X186 Y187.705
G1 F1350 X186 Y129.897 E272.81816
G0 F2625 X188 Y129.711
G1 F1350 X188 Y187.895 E277.46967
G0 F2625 X190 Y188.074
G1 F1350 X190 Y129.528 E282.15012
G0 F2625 X192 Y129.373
G1 F1350 X192 Y188.236 E286.85592
G0 F2625 X194 Y188.381
G1 F1350 X194 Y129.225 E291.58513
G0 F2625 X196 Y129.084
G1 F1350 X196 Y188.514 E296.33626
G0 F2625 X198 Y188.628
G1 F1350 X198 Y128.975 E301.10521
G0 F2625 X200 Y128.879
G1 F1350 X200 Y188.725 E305.88959
G0 F2625 X202 Y188.745
G1 F1350 X202 Y128.859 E310.67717
G0 F2625 X204 Y128.859
G1 F1350 X204 Y188.745 E315.46475
G0 F2625 X206 Y188.744
G1 F1350 X206 Y128.859 E320.25224
G0 F2625 X208 Y128.859
G1 F1350 X208 Y188.744 E325.03974
G0 F2625 X210 Y188.743
G1 F1350 X210 Y128.86 E329.82708
G0 F2625 X212 Y129.004
G1 F1350 X212 Y188.594 E334.59099
G0 F2625 X214 Y188.166
G1 F1350 X214 Y129.44 E339.28584
G0 F2625 X216 Y130.116
G1 F1350 X216 Y187.425 E343.8674
G0 F2625 X218 Y186.309
G1 F1350 X218 Y131.141 E348.2778
G0 F2625 X220 Y132.62
G1 F1350 X220 Y184.713 E352.44236
G0 F2625 X222 Y182.513
G1 F1350 X222 Y160.904 E354.16989
G0 F2625 X224 Y164.134
G1 F1350 X224 Y178.833 E355.345
G0 F2625 X220.825 Y158.834
G0 X222 Y156.716
G1 F1350 X222 Y134.774 E357.09915
G0 F2625 X224 Y138.407
G1 F1350 X224 Y153.538 E358.3088
G0 F2625 X62 Y138.194
G1 F1350 X62 Y179.426 E361.60508
G0 F2625 X60 Y177.676
G1 F1350 X60 Y139.95 E364.62108
G0 F2625 X58 Y142.533
G1 F1350 X58 Y175.109 E367.22537
M104 S240
G0 F2625 X56 Y169.556
G1 F1350 X56 Y159.477 E368.03113
G0 F2625 X56 Y157.96
G1 F1350 X56 Y148.27 E368.8058
G0 F2625 X64.041 Y136.954
;TIME_ELAPSED:221.555887
;LAYER:-5
M140 S110
M221 S100
G0 X64.041 Y136.954 Z0.78
;TYPE:SUPPORT
G1 F1350 X63.881 Y137.03 E368.8133
G1 X62.963 Y137.546 E368.85787
G1 X62.948 Y137.557 E368.85865
G1 X106.708 Y181.316 E371.47787
G1 X104.997 Y181.301 E371.55029
G1 X61.938 Y138.242 E374.12758
G1 X61.241 Y138.782 E374.16489
G1 X60.999 Y138.999 E374.17865
G1 X103.313 Y181.313 E376.71135
G1 X101.642 Y181.337 E376.78208
G1 X60.124 Y139.819 E379.26713
G1 X59.574 Y140.392 E379.30075
G1 X59.313 Y140.704 E379.31796
G1 X99.97 Y181.36 E381.75145
G1 X98.298 Y181.384 E381.82222
G1 X58.573 Y141.66 E384.19993
G1 X58.291 Y142.056 E384.2205
G1 X57.904 Y142.687 E384.25183
G1 X96.626 Y181.408 E386.5695
G1 X94.954 Y181.432 E386.64027
G1 X57.311 Y143.788 E388.89342
G1 X57.248 Y143.912 E388.8993
G1 X56.839 Y144.874 E388.94355
G1 X56.804 Y144.977 E388.94815
G1 X93.282 Y181.455 E391.13154
G1 X91.61 Y181.479 E391.20231
G1 X56.395 Y146.264 E393.3101
G1 X56.227 Y146.91 E393.33835
G1 X56.089 Y147.654 E393.37037
G1 X89.942 Y181.507 E395.39664
G1 X88.304 Y181.565 E395.46601
G1 X55.911 Y149.171 E397.40491
G1 X55.879 Y150.06 E397.44256
G1 X55.879 Y150.835 E397.47537
G1 X86.667 Y181.623 E399.31818
G1 X85.029 Y181.681 E399.38755
G1 X55.879 Y152.531 E401.13231
G1 X55.879 Y154.227 E401.20409
G1 X83.391 Y181.739 E402.85082
G1 X81.754 Y181.797 E402.92015
G1 X55.879 Y155.922 E404.46889
G1 X55.879 Y156.098 E404.47634
G1 X55.902 Y156.911 E404.51076
G1 X55.977 Y157.715 E404.54494
G1 X80.117 Y181.855 E405.98984
G1 X78.479 Y181.913 E406.0592
G1 X56.003 Y159.437 E407.4045
G1 X55.893 Y160.432 E407.44687
G1 X55.873 Y161.003 E407.47105
G1 X76.842 Y181.971 E408.72612
G1 X75.204 Y182.029 E408.79549
G1 X55.855 Y162.681 E409.95359
G1 X55.855 Y164.376 E410.02533
G1 X73.566 Y182.087 E411.08542
G1 X71.929 Y182.146 E411.15475
G1 X55.855 Y166.072 E412.11685
G1 X55.855 Y167.539 E412.17894
G1 X55.864 Y167.776 E412.18898
G1 X70.263 Y182.176 E413.05086
G1 X69.965 Y182.176 E413.06347
G1 X68.907 Y182.098 E413.10837
G1 X68.418 Y182.026 E413.12929
