;Generated by Cura LulzBot Edition GCodeWriter Version: 2.6.69
;FLAVOR:RepRap
;TIME:5757
;Filament used: 1.69622m
;Layer height: 0.18
;Generated with Cura_SteamEngine 2.6.69
;This G-Code has been generated specifically for the LulzBot TAZ 6 with standard extruder
G26 ; clear potential 'probe fail' condition
G21 ; set units to Millimetres
M107 ; disable fans
G90 ; absolute positioning
M82 ; set extruder to absolute mode
G92 E0 ; set extruder position to 0
M140 S110 ; start bed heating up
G28 XY ; home X and Y
G1 X-19 Y258 F1000 ; move to safe homing position
M109 R175 ; soften filament before homing Z
G28 Z ; home Z
G1 E-30 F100 ; retract filament
M109 R170 ; wait for extruder to reach wiping temp
G1 X-15 Y100 F3000 ; move above wiper pad
G1 Z1 ; push nozzle into wiper
G1 X-17 Y95 F1000 ; slow wipe
G1 X-17 Y90 F1000 ; slow wipe
G1 X-17 Y85 F1000 ; slow wipe
G1 X-15 Y90 F1000 ; slow wipe
G1 X-17 Y80 F1000 ; slow wipe
G1 X-15 Y95 F1000 ; slow wipe
G1 X-17 Y75 F2000 ; fast wipe
G1 X-15 Y65 F2000 ; fast wipe
G1 X-17 Y70 F2000 ; fast wipe
G1 X-15 Y60 F2000 ; fast wipe
G1 X-17 Y55 F2000 ; fast wipe
G1 X-15 Y50 F2000 ; fast wipe
G1 X-17 Y40 F2000 ; fast wipe
G1 X-15 Y45 F2000 ; fast wipe
G1 X-17 Y35 F2000 ; fast wipe
G1 X-15 Y40 F2000 ; fast wipe
G1 X-17 Y70 F2000 ; fast wipe
G1 X-15 Y30 Z2 F2000 ; fast wipe
G1 X-17 Y35 F2000 ; fast wipe
G1 X-15 Y25 F2000 ; fast wipe
G1 X-17 Y30 F2000 ; fast wipe
G1 X-15 Y25 Z1.5 F1000 ; slow wipe
G1 X-17 Y23 F1000 ; slow wipe
G1 Z10 ; raise extruder
M109 R170 ; wait for extruder to reach probe temp
G1 X-9 Y-9 ; move above first probe point
M204 S100 ; set probing acceleration
G29 ; start auto-leveling sequence
M204 S500 ; restore standard acceleration
G1 X0 Y0 Z15 F5000 ; move up off last probe point
G4 S1 ; pause
M400 ; wait for moves to finish
M117 Heating... ; progress indicator message on LCD
M109 R240 ; wait for extruder to reach printing temp
M190 S110 ; wait for bed to reach printing temp
G1 Z2 E0 F75 ; prime tiny bit of filament into the nozzle
M117 TAZ 6 Printing... ; progress indicator message on LCD

M221 S100
;LAYER_COUNT:105
;LAYER:-6
M107
G0 F2625 X57.145 Y93.065 Z0.51
G1 F1350 X57.497 Y92.861 E0.03252
G1 X57.878 Y92.718 E0.06506
G1 X58.279 Y92.638 E0.09775
G1 X58.674 Y92.621 E0.12936
G1 X63.154 Y92.772 E0.48771
G1 X77.152 Y93.213 E1.60734
G1 X78.439 Y93.245 E1.71026
G1 X94.674 Y93.431 E3.00825
G1 X108.077 Y93.275 E4.07982
G1 X119.122 Y92.859 E4.96344
G1 X129.944 Y92.144 E5.83049
G1 X141.685 Y91.194 E6.77219
G1 X152.65 Y89.987 E7.65408
G1 X163.267 Y88.534 E8.51076
G1 X168.567 Y87.729 E8.93933
G1 X169.674 Y87.554 E9.02893
G1 X170.211 Y87.515 E9.07197
G1 X170.46 Y87.356 E9.09559
G1 X170.826 Y87.201 E9.12737
G1 X171.246 Y87.099 E9.16192
G1 X173.79 Y86.692 E9.36789
G1 X173.79 Y86.685 E9.36844
G1 X174.378 Y86.588 E9.41609
G1 X174.378 Y86.594 E9.41657
G1 X179.533 Y85.728 E9.83446
G1 X180.046 Y85.629 E9.87623
G1 X180.094 Y85.621 E9.88012
G1 X182.49 Y85.213 E10.07442
G1 X183.003 Y85.112 E10.11622
G1 X183.063 Y85.101 E10.1211
G1 X184.81 Y84.796 E10.26287
G1 X184.998 Y84.771 E10.27804
G1 X185.35 Y84.738 E10.3063
G1 X187.242 Y84.344 E10.4608
G1 X187.302 Y84.332 E10.46569
G1 X189.323 Y83.951 E10.63011
G1 X189.331 Y83.948 E10.63079
G1 X191.056 Y83.629 E10.77103
G1 X191.056 Y83.674 E10.77463
G1 X192.871 Y83.295 E10.92286
G1 X193.216 Y83.235 E10.95085
G1 X195.537 Y82.761 E11.14024
G1 X195.65 Y82.74 E11.14943
G1 X196.073 Y82.671 E11.18369
G1 X197.835 Y82.307 E11.32753
G1 X198.245 Y82.256 E11.36056
G1 X198.659 Y82.273 E11.39368
G1 X199.058 Y82.357 E11.42628
G1 X199.426 Y82.499 E11.45781
G1 X199.964 Y82.844 E11.50891
G1 X200.247 Y83.077 E11.53821
G1 X200.556 Y83.375 E11.57253
G1 X200.8 Y83.706 E11.60541
G1 X200.945 Y83.986 E11.63061
G1 X201.202 Y84.147 E11.65486
G1 X201.496 Y84.413 E11.68655
G1 X201.753 Y84.735 E11.71949
G1 X201.949 Y85.088 E11.75177
G1 X202.086 Y85.471 E11.78429
G1 X202.163 Y85.883 E11.8178
G1 X202.176 Y86.131 E11.83765
G1 X202.176 Y89.104 E12.07533
G1 X202.14 Y89.532 E12.10966
G1 X202.042 Y89.926 E12.14212
G1 X201.88 Y90.301 E12.17478
G1 X201.66 Y90.643 E12.20729
G1 X201.386 Y90.946 E12.23995
G1 X201.066 Y91.202 E12.27271
G1 X200.713 Y91.398 E12.30499
G1 X200.33 Y91.535 E12.33751
G1 X199.916 Y91.612 E12.37117
G1 X199.682 Y91.626 E12.38991
G1 X196.683 Y92.376 E12.63705
G1 X196.649 Y92.385 E12.63986
G1 X195.232 Y92.724 E12.75634
G1 X195.204 Y92.731 E12.75865
G1 X195.204 Y92.73 E12.75873
G1 X193.179 Y93.183 E12.92462
G1 X193.164 Y93.187 E12.92586
G1 X191.563 Y93.537 E13.05687
G1 X191.52 Y93.546 E13.06038
G1 X190.323 Y93.791 E13.15806
G1 X187.62 Y94.33 E13.37841
G1 X187.586 Y94.337 E13.38118
G1 X187.586 Y94.336 E13.38126
G1 X186.561 Y94.527 E13.46462
G1 X186.561 Y94.528 E13.4647
G1 X186.464 Y94.545 E13.47257
G1 X186.178 Y94.589 E13.4957
G1 X185.632 Y94.7 E13.54024
G1 X185.544 Y94.718 E13.54743
G1 X184.292 Y94.942 E13.64911
G1 X184.281 Y94.944 E13.65
G1 X183.519 Y95.074 E13.7118
G1 X180.339 Y95.598 E13.96945
G1 X180.317 Y95.601 E13.97123
G1 X179.192 Y95.782 E14.06232
G1 X179.172 Y95.786 E14.06395
G1 X178.594 Y95.874 E14.11069
G1 X177.878 Y95.983 E14.16859
G1 X177.878 Y95.982 E14.16867
G1 X177.86 Y95.985 E14.17013
G1 X174.786 Y96.435 E14.4185
G1 X174.786 Y96.436 E14.41858
G1 X173.426 Y96.621 E14.52831
G1 X172.102 Y96.801 E14.63513
G1 X171.668 Y96.825 E14.66988
G1 X171.262 Y96.779 E14.70254
G1 X170.941 Y96.689 E14.72919
G1 X170.435 Y96.814 E14.77086
G1 X168.806 Y97.023 E14.90216
G1 X166.042 Y97.359 E15.12475
G1 X166.042 Y97.358 E15.12483
G1 X163.698 Y97.631 E15.31349
G1 X159.116 Y98.138 E15.68203
G1 X159.011 Y98.149 E15.69047
G1 X158.893 Y98.162 E15.69996
G1 X158.886 Y98.162 E15.70052
G1 X142.999 Y99.799 E16.97733
G1 X142.987 Y99.802 E16.97832
G1 X128.454 Y101.274 E18.1461
G1 X116.751 Y102.201 E19.08463
G1 X102.506 Y102.975 E20.22512
G1 X101.792 Y103.004 E20.28225
G1 X83.009 Y103.607 E21.78463
G1 X58.62 Y103.959 E23.73461
G1 X58.192 Y103.931 E23.7689
G1 X57.792 Y103.837 E23.80175
G1 X57.419 Y103.68 E23.8341
G1 X57.073 Y103.466 E23.86662
G1 X56.797 Y103.231 E23.8956
G1 X56.681 Y103.117 E23.90861
G1 X56.4 Y102.793 E23.94289
G1 X56.187 Y102.444 E23.97558
G1 X56.03 Y102.063 E24.00852
G1 X55.941 Y101.669 E24.04082
G1 X55.914 Y101.285 E24.07159
G1 X55.914 Y95.287 E24.5511
G1 X55.95 Y94.859 E24.58544
G1 X56.048 Y94.465 E24.61789
G1 X56.21 Y94.09 E24.65055
G1 X56.431 Y93.745 E24.68331
G1 X56.689 Y93.456 E24.71428
G1 X56.812 Y93.337 E24.72796
G1 X57.145 Y93.065 E24.76233
G1 F600 E23.76233
G0 F2625 X58.604 Y104.54
G0 X58.703 Y106.453
G0 X58.769 Y107.049
G1 F600 E24.76233
G1 F1350 X83.167 Y107.4 E26.71303
G1 X101.948 Y108.003 E28.21525
G1 X102.662 Y108.032 E28.27238
G1 X116.884 Y108.805 E29.41103
G1 X128.613 Y109.733 E30.35163
G1 X143.237 Y111.215 E31.52674
G1 X159.044 Y112.845 E32.79712
G1 X159.05 Y112.845 E32.7976
G1 X159.168 Y112.858 E32.80709
G1 X159.272 Y112.869 E32.81546
G1 X163.836 Y113.374 E33.18255
G1 X166.189 Y113.649 E33.37194
G1 X166.189 Y113.648 E33.37202
G1 X169.16 Y114.008 E33.61127
G1 X169.183 Y114.011 E33.61313
G1 X169.199 Y114.013 E33.61442
G1 X170.606 Y114.197 E33.72786
G1 X171.072 Y114.296 E33.76594
G1 X171.642 Y114.195 E33.81222
G1 X172.261 Y114.207 E33.86172
G1 X173.61 Y114.39 E33.97055
G1 X173.615 Y114.39 E33.97095
G1 X174.644 Y114.53 E34.05397
G1 X174.678 Y114.536 E34.05673
G1 X176.597 Y114.825 E34.21188
G1 X177.073 Y114.885 E34.25023
G1 X177.128 Y114.893 E34.25467
G1 X177.602 Y114.962 E34.29297
G1 X177.605 Y114.963 E34.29322
G1 X178.195 Y115.049 E34.34089
G1 X178.214 Y115.051 E34.34241
G1 X182.005 Y115.652 E34.64927
G1 X182.048 Y115.659 E34.65275
G1 X184.619 Y116.106 E34.86137
G1 X184.682 Y116.118 E34.8665
G1 X184.682 Y116.117 E34.86658
G1 X184.97 Y116.175 E34.89007
G1 X186.001 Y116.348 E34.97364
G1 X186.061 Y116.359 E34.97852
G1 X188.236 Y116.769 E35.15546
G1 X188.271 Y116.776 E35.15832
G1 X190.467 Y117.222 E35.33746
G1 X190.845 Y117.288 E35.36813
G1 X190.962 Y117.31 E35.37765
G1 X191.042 Y117.327 E35.38419
G1 X191.097 Y117.337 E35.38866
G1 X193.891 Y117.935 E35.61708
G1 X193.962 Y117.949 E35.62287
G1 X194.093 Y117.976 E35.63356
G1 X196.609 Y118.561 E35.84007
G1 X196.663 Y118.574 E35.84451
G1 X199.434 Y119.272 E36.07296
G1 X199.822 Y119.404 E36.10572
G1 X200.187 Y119.601 E36.13888
G1 X200.503 Y119.843 E36.1707
G1 X200.874 Y120.258 E36.2152
G1 X201.03 Y120.475 E36.23657
G1 X201.247 Y120.834 E36.2701
G1 X201.399 Y121.214 E36.30282
G1 X201.487 Y121.615 E36.33564
G1 X201.511 Y121.971 E36.36417
G1 X201.509 Y124.369 E36.55588
G1 X201.474 Y124.791 E36.58973
G1 X201.332 Y125.319 E36.63344
G1 X201.332 Y125.964 E36.685
G1 X201.296 Y126.392 E36.71934
G1 X201.198 Y126.786 E36.7518
G1 X201.037 Y127.16 E36.78435
G1 X200.819 Y127.498 E36.81651
G1 X200.374 Y127.952 E36.86733
G1 X200.084 Y128.186 E36.89712
G1 X199.719 Y128.434 E36.9324
G1 X199.355 Y128.601 E36.96441
G1 X198.957 Y128.71 E36.9974
G1 X198.566 Y128.752 E37.02884
G1 X197.975 Y128.699 E37.07628
G1 X197.429 Y128.587 E37.12084
G1 X197.332 Y128.566 E37.12877
G1 X195.556 Y128.15 E37.2746
G1 X195.33 Y128.142 E37.29267
G1 X194.905 Y128.092 E37.32689
G1 X194.229 Y127.96 E37.38195
G1 X194.229 Y127.947 E37.38299
G1 X190.688 Y127.272 E37.67117
G1 X190.442 Y127.22 E37.69127
G1 X187.299 Y126.646 E37.94669
G1 X187.174 Y126.62 E37.9569
G1 X185.421 Y126.218 E38.10068
G1 X185.228 Y126.218 E38.11611
G1 X184.737 Y126.174 E38.15552
G1 X180.993 Y125.496 E38.4597
G1 X180.551 Y125.432 E38.49541
G1 X177.272 Y124.87 E38.76137
G1 X176.795 Y124.792 E38.80001
G1 X176.778 Y124.789 E38.80139
G1 X176.084 Y124.672 E38.85765
G1 X175.063 Y124.503 E38.94039
G1 X175.044 Y124.5 E38.94193
G1 X173.697 Y124.276 E39.05109
G1 X171.382 Y123.901 E39.23858
G1 X170.969 Y123.799 E39.27258
G1 X170.594 Y123.638 E39.30521
G1 X170.344 Y123.483 E39.32873
G1 X169.832 Y123.455 E39.36972
G1 X168.724 Y123.279 E39.45941
G1 X163.413 Y122.472 E39.88887
G1 X152.804 Y121.02 E40.74491
G1 X141.84 Y119.814 E41.62671
G1 X130.099 Y118.864 E42.56841
G1 X119.241 Y118.146 E43.43835
G1 X108.233 Y117.732 E44.31901
G1 X94.83 Y117.576 E45.39058
G1 X78.594 Y117.762 E46.68865
G1 X77.415 Y117.79 E46.78293
G1 X63.317 Y118.236 E47.91056
G1 X58.823 Y118.387 E48.27003
G1 X58.401 Y118.367 E48.30381
G1 X58.003 Y118.281 E48.33636
G1 X57.621 Y118.132 E48.36914
G1 X57.267 Y117.919 E48.40217
G1 X56.974 Y117.676 E48.4326
G1 X56.848 Y117.553 E48.44668
G1 X56.566 Y117.232 E48.48083
G1 X56.351 Y116.886 E48.5134
G1 X56.194 Y116.51 E48.54598
G1 X56.1 Y116.109 E48.5789
G1 X56.071 Y115.72 E48.61009
G1 X56.071 Y109.715 E49.09016
G1 X56.107 Y109.287 E49.12449
G1 X56.205 Y108.893 E49.15695
G1 X56.368 Y108.515 E49.18986
G1 X56.585 Y108.178 E49.2219
G1 X56.839 Y107.891 E49.25254
G1 X56.952 Y107.78 E49.26521
G1 X57.289 Y107.5 E49.30023
G1 X57.632 Y107.299 E49.33202
G1 X58.021 Y107.149 E49.36535
G1 X58.419 Y107.067 E49.39783
G1 X58.769 Y107.049 E49.42585
G0 F2625 X58 Y107.157
G1 F1350 X58 Y118.279 E50.315
G0 F2625 X60 Y118.348
G1 F1350 X60 Y107.067 E51.21686
G0 F2625 X62 Y107.096
G1 F1350 X62 Y118.281 E52.11104
G0 F2625 X64 Y118.215
G1 F1350 X64 Y107.125 E52.99763
G0 F2625 X66 Y107.154
G1 F1350 X66 Y118.152 E53.87686
G0 F2625 X68 Y118.088
G1 F1350 X68 Y107.182 E54.74874
G0 F2625 X70 Y107.211
G1 F1350 X70 Y118.025 E55.61326
G0 F2625 X72 Y117.962
G1 F1350 X72 Y107.24 E56.47043
G0 F2625 X74 Y107.269
G1 F1350 X74 Y117.899 E57.32025
G0 F2625 X76 Y117.835
G1 F1350 X76 Y107.297 E58.16271
G0 F2625 X78 Y107.326
G1 F1350 X78 Y117.777 E58.99821
G0 F2625 X80 Y117.746
G1 F1350 X80 Y107.355 E59.82892
G0 F2625 X82 Y107.384
G1 F1350 X82 Y117.723 E60.65547
G0 F2625 X84 Y117.701
G1 F1350 X84 Y107.427 E61.47682
G0 F2625 X86 Y107.491
G1 F1350 X86 Y117.678 E62.29122
G0 F2625 X88 Y117.655
G1 F1350 X88 Y107.556 E63.09858
G0 F2625 X90 Y107.62
G1 F1350 X90 Y117.632 E63.89899
G0 F2625 X92 Y117.609
G1 F1350 X92 Y107.684 E64.69244
G0 F2625 X94 Y107.748
G1 F1350 X94 Y117.586 E65.47894
G0 F2625 X96 Y117.589
G1 F1350 X96 Y107.813 E66.26048
G0 F2625 X98 Y107.877
G1 F1350 X98 Y117.612 E67.03874
G0 F2625 X100 Y117.636
G1 F1350 X100 Y107.941 E67.81381
G0 F2625 X102 Y108.006
G1 F1350 X102 Y117.659 E68.58552
G0 F2625 X104 Y117.682
G1 F1350 X104 Y108.105 E69.35115
G0 F2625 X106 Y108.214
G1 F1350 X106 Y117.706 E70.10999
G0 F2625 X108 Y117.729
G1 F1350 X108 Y108.323 E70.86195
G0 F2625 X110 Y108.431
G1 F1350 X110 Y117.798 E71.61079
G0 F2625 X112 Y117.873
G1 F1350 X112 Y108.54 E72.35692
G0 F2625 X114 Y108.649
G1 F1350 X114 Y117.948 E73.10032
G0 F2625 X116 Y118.024
G1 F1350 X116 Y108.757 E73.84117
G0 F2625 X118 Y108.894
G1 F1350 X118 Y118.099 E74.57706
G0 F2625 X120 Y118.196
G1 F1350 X120 Y109.052 E75.30808
G0 F2625 X122 Y109.21
G1 F1350 X122 Y118.328 E76.03702
G0 F2625 X124 Y118.46
G1 F1350 X124 Y109.369 E76.7638
G0 F2625 X126 Y109.527
G1 F1350 X126 Y118.592 E77.4885
G0 F2625 X128 Y118.725
G1 F1350 X128 Y109.685 E78.2112
G0 F2625 X130 Y109.874
G1 F1350 X130 Y118.857 E78.92934
G0 F2625 X132 Y119.017
G1 F1350 X132 Y110.077 E79.64405
G0 F2625 X134 Y110.279
G1 F1350 X134 Y119.179 E80.35556
G0 F2625 X136 Y119.341
G1 F1350 X136 Y110.482 E81.06379
G0 F2625 X138 Y110.685
G1 F1350 X138 Y119.503 E81.76875
G0 F2625 X140 Y119.665
G1 F1350 X140 Y110.887 E82.4705
G0 F2625 X142 Y111.09
G1 F1350 X142 Y119.831 E83.1693
G0 F2625 X144 Y120.051
G1 F1350 X144 Y111.294 E83.86938
G0 F2625 X146 Y111.5
G1 F1350 X146 Y120.271 E84.57057
G0 F2625 X148 Y120.491
G1 F1350 X148 Y111.707 E85.27281
G0 F2625 X150 Y111.913
G1 F1350 X150 Y120.711 E85.97616
G0 F2625 X152 Y120.931
G1 F1350 X152 Y112.119 E86.68064
G0 F2625 X154 Y112.325
G1 F1350 X154 Y121.183 E87.38879
G0 F2625 X156 Y121.457
G1 F1350 X156 Y112.532 E88.1023
G0 F2625 X158 Y112.738
G1 F1350 X158 Y121.731 E88.82124
G0 F2625 X160 Y122.004
G1 F1350 X160 Y112.95 E89.54506
G0 F2625 X162 Y113.171
G1 F1350 X162 Y122.278 E90.27312
G0 F2625 X164 Y122.561
G1 F1350 X164 Y113.394 E91.00597
G0 F2625 X166 Y113.627
G1 F1350 X166 Y122.865 E91.74451
G0 F2625 X168 Y123.168
G1 F1350 X168 Y113.868 E92.48799
G0 F2625 X170 Y114.118
G1 F1350 X170 Y123.464 E93.23516
G0 F2625 X172 Y124.001
G1 F1350 X172 Y114.202 E94.01854
G0 F2625 X174 Y114.443
G1 F1350 X174 Y124.326 E94.80863
G0 F2625 X176 Y124.658
G1 F1350 X176 Y114.736 E95.60184
G0 F2625 X178 Y115.021
G1 F1350 X178 Y124.994 E96.39914
G0 F2625 X180 Y125.337
G1 F1350 X180 Y115.335 E97.19874
G0 F2625 X182 Y115.652
G1 F1350 X182 Y125.678 E98.00027
G0 F2625 X184 Y126.04
G1 F1350 X184 Y115.999 E98.803
G0 F2625 X186 Y116.348
G1 F1350 X186 Y126.35 E99.60261
G0 F2625 X188 Y126.774
G1 F1350 X188 Y116.725 E100.40597
G0 F2625 X190 Y117.128
G1 F1350 X190 Y127.139 E101.2063
G0 F2625 X192 Y127.522
G1 F1350 X192 Y117.531 E102.00503
G0 F2625 X194 Y117.957
G1 F1350 X194 Y127.903 E102.80016
G0 F2625 X196 Y128.254
G1 F1350 X196 Y118.42 E103.58634
G0 F2625 X198 Y118.911
G1 F1350 X198 Y128.701 E104.369
G0 F2625 X200 Y128.244
G1 F1350 X200 Y119.501 E105.06796
G1 F600 E104.06796
G0 F2625 X196.805 Y118.011
G0 X193.308 Y93.75
G0 X194 Y93
G1 F600 E105.06796
G1 F1350 X194 Y83.074 E105.86149
G0 F2625 X196 Y82.682
G1 F1350 X196 Y92.541 E106.64967
G0 F2625 X198 Y92.047
G1 F1350 X198 Y82.286 E107.43001
G0 F2625 X200 Y82.874
G1 F1350 X200 Y91.597 E108.12737
G0 F2625 X202 Y90.024
G1 F1350 X202 Y85.231 E108.51054
G0 F2625 X192 Y83.476
G1 F1350 X192 Y93.442 E109.30727
G0 F2625 X190 Y93.856
G1 F1350 X190 Y83.824 E110.10928
G0 F2625 X188 Y84.2
G1 F1350 X188 Y94.255 E110.91313
G0 F2625 X186 Y94.626
G1 F1350 X186 Y84.602 E111.71449
G0 F2625 X184 Y84.937
G1 F1350 X184 Y94.992 E112.51834
G0 F2625 X182 Y95.325
G1 F1350 X182 Y85.296 E113.32011
G0 F2625 X180 Y85.637
G1 F1350 X180 Y95.653 E114.12083
G0 F2625 X178 Y95.965
G1 F1350 X178 Y85.985 E114.91868
G0 F2625 X176 Y86.321
G1 F1350 X176 Y96.258 E115.7131
G0 F2625 X174 Y96.543
G1 F1350 X174 Y86.65 E116.50399
G0 F2625 X172 Y86.978
G1 F1350 X172 Y96.807 E117.28977
G0 F2625 X170 Y96.87
G1 F1350 X170 Y87.53 E118.03645
G0 F2625 X168 Y87.815
G1 F1350 X168 Y97.121 E118.78042
G0 F2625 X166 Y97.363
G1 F1350 X166 Y88.118 E119.51951
G0 F2625 X164 Y88.422
G1 F1350 X164 Y97.596 E120.25292
G0 F2625 X162 Y97.819
G1 F1350 X162 Y88.707 E120.98138
G0 F2625 X160 Y88.981
