;Generated by Cura LulzBot Edition GCodeWriter Version: 2.6.69
;FLAVOR:RepRap
;TIME:6119
;Filament used: 2.22032m
;Layer height: 0.18
;Generated with Cura_SteamEngine 2.6.69
;This G-Code has been generated specifically for the LulzBot TAZ 6 with standard extruder
G26 ; clear potential 'probe fail' condition
G21 ; set units to Millimetres
M107 ; disable fans
G90 ; absolute positioning
M82 ; set extruder to absolute mode
G92 E0 ; set extruder position to 0
M140 S110 ; start bed heating up
G28 XY ; home X and Y
G1 X-19 Y258 F1000 ; move to safe homing position
M109 R175 ; soften filament before homing Z
G28 Z ; home Z
G1 E-30 F100 ; retract filament
M109 R170 ; wait for extruder to reach wiping temp
G1 X-15 Y100 F3000 ; move above wiper pad
G1 Z1 ; push nozzle into wiper
G1 X-17 Y95 F1000 ; slow wipe
G1 X-17 Y90 F1000 ; slow wipe
G1 X-17 Y85 F1000 ; slow wipe
G1 X-15 Y90 F1000 ; slow wipe
G1 X-17 Y80 F1000 ; slow wipe
G1 X-15 Y95 F1000 ; slow wipe
G1 X-17 Y75 F2000 ; fast wipe
G1 X-15 Y65 F2000 ; fast wipe
G1 X-17 Y70 F2000 ; fast wipe
G1 X-15 Y60 F2000 ; fast wipe
G1 X-17 Y55 F2000 ; fast wipe
G1 X-15 Y50 F2000 ; fast wipe
G1 X-17 Y40 F2000 ; fast wipe
G1 X-15 Y45 F2000 ; fast wipe
G1 X-17 Y35 F2000 ; fast wipe
G1 X-15 Y40 F2000 ; fast wipe
G1 X-17 Y70 F2000 ; fast wipe
G1 X-15 Y30 Z2 F2000 ; fast wipe
G1 X-17 Y35 F2000 ; fast wipe
G1 X-15 Y25 F2000 ; fast wipe
G1 X-17 Y30 F2000 ; fast wipe
G1 X-15 Y25 Z1.5 F1000 ; slow wipe
G1 X-17 Y23 F1000 ; slow wipe
G1 Z10 ; raise extruder
M109 R170 ; wait for extruder to reach probe temp
G1 X-9 Y-9 ; move above first probe point
M204 S100 ; set probing acceleration
G29 ; start auto-leveling sequence
M204 S500 ; restore standard acceleration
G1 X0 Y0 Z15 F5000 ; move up off last probe point
G4 S1 ; pause
M400 ; wait for moves to finish
M117 Heating... ; progress indicator message on LCD
M109 R240 ; wait for extruder to reach printing temp
M190 S110 ; wait for bed to reach printing temp
G1 Z2 E0 F75 ; prime tiny bit of filament into the nozzle
M117 TAZ 6 Printing... ; progress indicator message on LCD

M221 S100
;LAYER_COUNT:105
;LAYER:-6
M107
G0 F2625 X58.749 Y155.017 Z0.51
G1 F1350 X59.739 Y154.716 E0.08272
G1 X60.787 Y154.48 E0.1686
G1 X61.826 Y154.327 E0.25256
G1 X62.888 Y154.247 E0.3377
G1 X63.848 Y154.242 E0.41445
G1 X75.591 Y154.579 E1.35363
G1 X87.081 Y154.562 E2.2722
G1 X97.814 Y154.244 E3.13062
G1 X97.814 Y154.287 E3.13406
G1 X112.276 Y153.471 E4.29206
G1 X125.925 Y152.362 E5.38683
G1 X140.56 Y150.836 E6.56316
G1 X161.175 Y148.313 E8.22352
G1 X161.231 Y148.306 E8.22803
G1 X161.231 Y148.307 E8.22811
G1 X166.859 Y147.639 E8.6812
G1 X166.859 Y147.638 E8.68128
G1 X166.9 Y147.634 E8.68457
G1 X166.91 Y147.633 E8.68538
G1 X166.936 Y147.63 E8.68747
G1 X171.194 Y147.153 E9.03001
G1 X172.653 Y147 E9.14728
G1 X173.058 Y146.887 E9.1809
G1 X174.077 Y146.682 E9.26399
G1 X175.058 Y146.554 E9.34309
G1 X177.179 Y146.35 E9.51343
G1 X179.708 Y146.111 E9.71651
G1 X179.746 Y146.108 E9.71956
G1 X179.934 Y146.092 E9.73464
G1 X179.942 Y146.092 E9.73528
G1 X180.689 Y146.03 E9.79521
G1 X180.691 Y146.029 E9.79539
G1 X181.741 Y145.942 E9.87962
G1 X181.909 Y145.93 E9.89308
G1 X182.233 Y145.909 E9.91904
G1 X182.653 Y145.87 E9.95276
G1 X182.872 Y145.851 E9.97033
G1 X183.961 Y145.769 E10.05764
G1 X184.336 Y145.74 E10.08771
G1 X186.323 Y145.596 E10.24697
G1 X186.452 Y145.588 E10.25731
G1 X188.279 Y145.473 E10.40366
G1 X188.391 Y145.466 E10.41263
G1 X191.243 Y145.306 E10.64099
G1 X191.583 Y145.288 E10.66821
G1 X191.711 Y145.281 E10.67846
G1 X191.711 Y145.282 E10.67854
G1 X192.103 Y145.266 E10.7099
G1 X193.57 Y145.228 E10.82722
G1 X194.312 Y145.175 E10.88669
G1 X194.312 Y145.174 E10.88677
G1 X194.734 Y145.155 E10.92054
G1 X194.734 Y145.156 E10.92062
G1 X195.396 Y145.142 E10.97355
G1 X202.862 Y145.142 E11.57042
G1 X203.927 Y145.18 E11.65562
G1 X204.985 Y145.298 E11.74072
G1 X206.022 Y145.489 E11.82502
G1 X207.048 Y145.757 E11.9098
G1 X208.058 Y146.101 E11.9951
G1 X209.02 Y146.51 E12.07867
G1 X209.957 Y146.991 E12.16287
G1 X210.869 Y147.547 E12.24826
G1 X211.737 Y148.168 E12.33358
G1 X212.535 Y148.832 E12.41657
G1 X213.099 Y149.364 E12.47856
G1 X213.55 Y149.811 E12.52932
G1 X214.278 Y150.587 E12.61438
G1 X214.948 Y151.416 E12.6996
G1 X215.554 Y152.29 E12.78462
G1 X216.089 Y153.193 E12.86853
G1 X216.562 Y154.147 E12.95366
G1 X216.96 Y155.122 E13.03785
G1 X217.293 Y156.141 E13.12355
G1 X217.543 Y157.153 E13.20689
G1 X217.722 Y158.209 E13.29251
G1 X217.824 Y159.26 E13.37693
G1 X217.839 Y159.768 E13.41756
G1 X217.883 Y160.007 E13.43699
G1 X218 Y161.051 E13.52097
G1 X218.038 Y162.008 E13.59754
G1 X218.05 Y163.667 E13.73017
G1 X218.016 Y164.773 E13.81863
G1 X217.91 Y165.812 E13.90213
G1 X217.725 Y166.857 E13.98697
G1 X217.464 Y167.886 E14.07184
G1 X217.132 Y168.883 E14.15585
G1 X216.72 Y169.869 E14.24128
G1 X216.254 Y170.795 E14.32415
G1 X215.696 Y171.724 E14.41079
G1 X215.093 Y172.581 E14.49456
G1 X214.419 Y173.404 E14.5796
G1 X213.986 Y173.872 E14.63057
G1 X213.762 Y174.106 E14.65647
G1 X212.997 Y174.842 E14.74134
G1 X212.178 Y175.523 E14.82649
G1 X210.162 Y176.958 E15.02432
G1 X212.512 Y178.575 E15.25237
G1 X213.335 Y179.236 E15.33676
G1 X214.362 Y180.21 E15.44991
G1 X214.561 Y180.418 E15.47292
G1 X215.29 Y181.237 E15.56058
G1 X215.939 Y182.084 E15.64588
G1 X216.508 Y182.953 E15.72892
G1 X217.028 Y183.886 E15.81432
G1 X217.474 Y184.847 E15.89901
G1 X217.848 Y185.838 E15.98369
G1 X218.151 Y186.856 E16.06861
G1 X218.375 Y187.881 E16.15248
G1 X218.525 Y188.928 E16.23704
G1 X218.6 Y189.999 E16.32287
G1 X218.608 Y190.558 E16.36756
G1 X218.596 Y192.301 E16.50691
G1 X218.548 Y193.38 E16.59326
G1 X218.426 Y194.426 E16.67745
G1 X218.391 Y194.621 E16.69328
G1 X218.359 Y195.347 E16.75138
G1 X218.233 Y196.417 E16.83751
G1 X218.034 Y197.447 E16.92138
G1 X217.756 Y198.48 E17.0069
G1 X217.403 Y199.487 E17.09221
G1 X216.993 Y200.43 E17.17441
G1 X216.493 Y201.385 E17.26059
G1 X215.933 Y202.286 E17.3454
G1 X215.309 Y203.142 E17.43009
G1 X214.634 Y203.942 E17.51377
G1 X214.117 Y204.484 E17.57365
G1 X213.683 Y204.914 E17.62249
G1 X212.912 Y205.627 E17.70644
G1 X212.077 Y206.291 E17.79173
G1 X211.197 Y206.892 E17.87692
G1 X210.284 Y207.423 E17.96136
G1 X209.338 Y207.884 E18.04549
G1 X208.349 Y208.279 E18.13063
G1 X207.346 Y208.598 E18.21477
G1 X206.305 Y208.845 E18.3003
G1 X205.27 Y209.014 E18.38414
G1 X204.22 Y209.107 E18.46841
G1 X203.455 Y209.127 E18.52959
G1 X196.099 Y209.135 E19.11767
G1 X195.419 Y209.121 E19.17204
G1 X193.426 Y209.033 E19.33153
G1 X192.792 Y209.005 E19.38226
G1 X192.792 Y209.006 E19.38234
G1 X191.706 Y208.919 E19.46944
G1 X191.395 Y208.919 E19.4943
G1 X190.426 Y208.889 E19.57181
G1 X188.057 Y208.741 E19.76156
G1 X187.378 Y208.705 E19.81592
G1 X187.352 Y208.704 E19.818
G1 X184.844 Y208.527 E20.019
G1 X184.75 Y208.52 E20.02654
G1 X183.498 Y208.422 E20.12694
G1 X182.394 Y208.338 E20.21545
G1 X182.394 Y208.339 E20.21553
G1 X181.471 Y208.259 E20.2896
G1 X181.471 Y208.258 E20.28968
G1 X180.968 Y208.215 E20.33004
G1 X179.559 Y208.09 E20.44312
G1 X179.496 Y208.084 E20.44818
G1 X179.264 Y208.063 E20.4668
G1 X179.264 Y208.052 E20.46768
G1 X177.494 Y207.901 E20.6097
G1 X177.306 Y207.885 E20.62478
G1 X177.306 Y207.884 E20.62486
G1 X175.556 Y207.709 E20.76546
G1 X175.556 Y207.71 E20.76554
G1 X174.495 Y207.564 E20.85116
G1 X173.467 Y207.346 E20.93518
G1 X173.175 Y207.261 E20.95949
G1 X169.325 Y206.848 E21.26904
G1 X169.325 Y206.847 E21.26912
G1 X169.222 Y206.835 E21.27741
G1 X169.086 Y206.82 E21.28835
G1 X169.042 Y206.815 E21.29189
G1 X167.556 Y206.645 E21.41146
G1 X167.48 Y206.636 E21.41758
G1 X161.926 Y205.977 E21.86471
G1 X141.118 Y203.432 E23.5406
G1 X126.48 Y201.906 E24.71717
G1 X112.837 Y200.798 E25.81145
G1 X98.372 Y199.982 E26.96969
G1 X98.372 Y200.024 E26.97305
G1 X87.636 Y199.706 E27.83172
G1 X76.15 Y199.689 E28.74996
G1 X64.408 Y200.027 E29.68906
G1 X63.353 Y200.018 E29.77341
G1 X62.299 Y199.934 E29.85794
G1 X61.25 Y199.77 E29.94282
G1 X60.227 Y199.534 E30.02675
G1 X59.212 Y199.221 E30.11167
G1 X58.22 Y198.832 E30.19685
G1 X57.273 Y198.38 E30.28074
G1 X56.358 Y197.857 E30.365
G1 X55.471 Y197.261 E30.45043
G1 X54.639 Y196.609 E30.53493
G1 X53.913 Y195.951 E30.61326
G1 X53.751 Y195.795 E30.63124
G1 X53.037 Y195.052 E30.71362
G1 X52.354 Y194.229 E30.79912
G1 X51.741 Y193.369 E30.88355
G1 X51.192 Y192.467 E30.96797
G1 X50.706 Y191.521 E31.053
G1 X50.295 Y190.546 E31.13758
G1 X49.954 Y189.545 E31.22212
G1 X49.691 Y188.531 E31.30587
G1 X49.496 Y187.467 E31.39235
G1 X49.384 Y186.428 E31.47589
G1 X49.345 Y185.386 E31.55925
G1 X49.345 Y179.341 E32.04252
G1 X49.361 Y178.945 E32.0742
G1 X49.135 Y178.075 E32.14607
G1 X48.938 Y177.007 E32.23289
G1 X48.827 Y175.971 E32.31618
G1 X48.788 Y174.929 E32.39954
G1 X48.788 Y168.883 E32.88289
G1 X48.826 Y167.827 E32.96737
G1 X48.944 Y166.769 E33.05247
G1 X49.135 Y165.732 E33.13677
G1 X49.403 Y164.706 E33.22155
G1 X49.751 Y163.686 E33.30771
G1 X50.156 Y162.734 E33.39041
G1 X50.634 Y161.803 E33.47408
G1 X51.199 Y160.878 E33.56073
G1 X51.814 Y160.017 E33.64532
G1 X52.482 Y159.214 E33.72882
G1 X53.208 Y158.46 E33.8125
G1 X53.363 Y158.311 E33.82969
G1 X54.149 Y157.604 E33.91421
G1 X54.98 Y156.96 E33.99826
G1 X55.868 Y156.37 E34.08349
G1 X56.789 Y155.852 E34.16797
G1 X57.735 Y155.407 E34.25154
G1 X58.749 Y155.017 E34.3384
G0 F2625 X58 Y155.305
G1 F1350 X58 Y198.726 E37.80968
G0 F2625 X60 Y199.463
G1 F1350 X60 Y154.657 E41.39169
G0 F2625 X62 Y154.313
G1 F1350 X62 Y199.887 E45.0351
G0 F2625 X64 Y200.023
G1 F1350 X64 Y154.247 E48.69465
G0 F2625 X66 Y154.304
G1 F1350 X66 Y199.982 E52.34638
G0 F2625 X68 Y199.924
G1 F1350 X68 Y154.362 E55.98882
G0 F2625 X70 Y154.419
G1 F1350 X70 Y199.867 E59.62216
G0 F2625 X72 Y199.809
G1 F1350 X72 Y154.476 E63.2463
G0 F2625 X74 Y154.534
G1 F1350 X74 Y199.751 E66.86117
G0 F2625 X76 Y199.694
G1 F1350 X76 Y154.578 E70.46796
G0 F2625 X78 Y154.575
G1 F1350 X78 Y199.691 E74.07475
G0 F2625 X80 Y199.694
G1 F1350 X80 Y154.572 E77.68202
G0 F2625 X82 Y154.569
G1 F1350 X82 Y199.697 E81.28978
G0 F2625 X84 Y199.7
G1 F1350 X84 Y154.566 E84.89801
G0 F2625 X86 Y154.563
G1 F1350 X86 Y199.703 E88.50672
G0 F2625 X88 Y199.716
G1 F1350 X88 Y154.534 E92.11879
G0 F2625 X90 Y154.475
G1 F1350 X90 Y199.776 E95.74037
G0 F2625 X92 Y199.835
G1 F1350 X92 Y154.416 E99.37139
G0 F2625 X94 Y154.357
G1 F1350 X94 Y199.894 E103.01183
G0 F2625 X96 Y199.953
G1 F1350 X96 Y154.297 E106.6618
G0 F2625 X98 Y154.276
G1 F1350 X98 Y200.012 E110.31816
G0 F2625 X100 Y200.073
G1 F1350 X100 Y154.163 E113.98842
G0 F2625 X102 Y154.05
G1 F1350 X102 Y200.186 E117.67676
G0 F2625 X104 Y200.299
G1 F1350 X104 Y153.937 E121.38316
G0 F2625 X106 Y153.825
G1 F1350 X106 Y200.412 E125.10756
G0 F2625 X108 Y200.525
G1 F1350 X108 Y153.712 E128.85001
G0 F2625 X110 Y153.599
G1 F1350 X110 Y200.637 E132.61046
G0 F2625 X112 Y200.75
G1 F1350 X112 Y153.486 E136.38898
G0 F2625 X114 Y153.33
G1 F1350 X114 Y200.892 E140.19131
G0 F2625 X116 Y201.054
G1 F1350 X116 Y153.168 E144.01955
G0 F2625 X118 Y153.005
G1 F1350 X118 Y201.217 E147.87385
G0 F2625 X120 Y201.379
G1 F1350 X120 Y152.843 E151.75406
G0 F2625 X122 Y152.68
G1 F1350 X122 Y201.542 E155.66032
G0 F2625 X124 Y201.704
G1 F1350 X124 Y152.518 E159.59249
G0 F2625 X126 Y152.354
G1 F1350 X126 Y201.867 E163.5508
G0 F2625 X128 Y202.064
G1 F1350 X128 Y152.145 E167.54157
G0 F2625 X130 Y151.937
G1 F1350 X130 Y202.272 E171.5656
G0 F2625 X132 Y202.481
G1 F1350 X132 Y151.728 E175.62304
G0 F2625 X134 Y151.52
G1 F1350 X134 Y202.689 E179.71374
G0 F2625 X136 Y202.898
G1 F1350 X136 Y151.311 E183.83785
G0 F2625 X138 Y151.102
G1 F1350 X138 Y203.106 E187.9953
G0 F2625 X140 Y203.315
G1 F1350 X140 Y150.894 E192.18609
G0 F2625 X142 Y150.659
G1 F1350 X142 Y203.539 E196.41358
G0 F2625 X144 Y203.784
G1 F1350 X144 Y150.414 E200.68024
G0 F2625 X146 Y150.17
G1 F1350 X146 Y204.029 E204.98599
G0 F2625 X148 Y204.273
G1 F1350 X148 Y149.925 E209.33083
G0 F2625 X150 Y149.68
G1 F1350 X150 Y204.518 E213.71485
G0 F2625 X152 Y204.762
G1 F1350 X152 Y149.435 E218.13796
G0 F2625 X154 Y149.191
G1 F1350 X154 Y205.007 E222.60016
G0 F2625 X156 Y205.252
G1 F1350 X156 Y148.946 E227.10153
G0 F2625 X158 Y148.701
G1 F1350 X158 Y205.496 E231.642
G0 F2625 X160 Y205.741
G1 F1350 X160 Y148.456 E236.22164
G0 F2625 X162 Y148.215
G1 F1350 X162 Y205.985 E240.84006
G0 F2625 X164 Y206.223
G1 F1350 X164 Y147.978 E245.49645
G0 F2625 X166 Y147.74
G1 F1350 X166 Y206.46 E250.19081
G0 F2625 X168 Y206.695
G1 F1350 X168 Y147.51 E254.92235
G0 F2625 X170 Y147.286
G1 F1350 X170 Y206.92 E259.68978
G0 F2625 X172 Y207.134
G1 F1350 X172 Y147.068 E264.49175
G0 F2625 X174 Y146.697
G1 F1350 X174 Y207.459 E269.34936
G0 F2625 X176 Y207.753
G1 F1350 X176 Y146.463 E274.24918
G0 F2625 X178 Y146.272
G1 F1350 X178 Y207.944 E279.17954
G0 F2625 X180 Y208.129
G1 F1350 X180 Y146.087 E284.13948
G0 F2625 X182 Y145.924
G1 F1350 X182 Y208.304 E289.12644
G0 F2625 X184 Y208.461
G1 F1350 X184 Y145.765 E294.13866
G0 F2625 X186 Y145.619
G1 F1350 X186 Y208.608 E299.17431
G0 F2625 X188 Y208.737
G1 F1350 X188 Y145.49 E304.23058
G0 F2625 X190 Y145.375
G1 F1350 X190 Y208.862 E309.30604
G0 F2625 X192 Y208.942
G1 F1350 X192 Y145.27 E314.39629
G0 F2625 X194 Y145.197
G1 F1350 X194 Y209.058 E319.50165
G0 F2625 X196 Y209.132
G1 F1350 X196 Y145.142 E324.61732
G0 F2625 X198 Y145.142
G1 F1350 X198 Y209.133 E329.73307
G0 F2625 X200 Y209.131
G1 F1350 X200 Y145.142 E334.84867
G0 F2625 X202 Y145.142
G1 F1350 X202 Y209.129 E339.9641
G0 F2625 X204 Y209.113
G1 F1350 X204 Y145.189 E345.07449
G0 F2625 X206 Y145.485
G1 F1350 X206 Y208.895 E350.1438
G0 F2625 X208 Y208.39
G1 F1350 X208 Y146.082 E355.125
G0 F2625 X210 Y147.018
G1 F1350 X210 Y207.562 E359.96518
G0 F2625 X212 Y206.344
G1 F1350 X212 Y178.223 E362.21331
G0 F2625 X211.168 Y176.949
G0 X212 Y175.65
G1 F1350 X212 Y148.387 E364.39285
G0 F2625 X214 Y150.291
G1 F1350 X214 Y173.857 E366.27683
G0 F2625 X216 Y171.218
G1 F1350 X216 Y153.043 E367.72983
G0 F2625 X218 Y161.051
G1 F1350 X218 Y164.93 E368.03994
G0 F2625 X211.168 Y176.949
G0 X214 Y179.867
G1 F1350 X214 Y204.6 E370.01721
G0 F2625 X216 Y202.179
G1 F1350 X216 Y182.178 E371.61619
G0 F2625 X218 Y186.349
G1 F1350 X218 Y197.574 E372.51357
G0 F2625 X56 Y197.616
G1 F1350 X56 Y156.295 E375.81697
G0 F2625 X54 Y157.738
G1 F1350 X54 Y196.029 E378.87814
G0 F2625 X52 Y193.732
G1 F1350 X52 Y159.793 E381.59139
G0 F2625 X50 Y163.1
M104 S240
G1 F1350 X50 Y189.68 E383.71632
G0 F2625 X58.472 Y155.123
;TIME_ELAPSED:230.861433
;LAYER:-5
M140 S110
M221 S100
G0 X58.472 Y155.123 Z0.78
;TYPE:SUPPORT
G1 F1350 X57.735 Y155.406 E383.74974
G1 X57.275 Y155.622 E383.77125
G1 X101.829 Y200.176 E386.43802
G1 X100.032 Y200.075 E386.51419
G1 X56.161 Y156.204 E389.14008
G1 X55.867 Y156.368 E389.15433
G1 X55.125 Y156.863 E389.19208
G1 X98.281 Y200.02 E391.77521
G1 X96.534 Y199.968 E391.84918
G1 X54.16 Y157.594 E394.38547
G1 X54.148 Y157.602 E394.38608
G1 X53.363 Y158.31 E394.43082
G1 X53.269 Y158.399 E394.4363
G1 X94.786 Y199.916 E396.92129
G1 X93.038 Y199.864 E396.99531
G1 X52.439 Y159.264 E399.42538
G1 X51.813 Y160.016 E399.46679
G1 X51.681 Y160.202 E399.47645
G1 X91.291 Y199.812 E401.8473
G1 X89.544 Y199.761 E401.92127
G1 X50.994 Y161.211 E404.22867
G1 X50.633 Y161.802 E404.25798
G1 X50.38 Y162.293 E404.28136
G1 X87.797 Y199.709 E406.52092
G1 X87.635 Y199.705 E406.52778
G1 X86.094 Y199.702 E406.593
G1 X49.847 Y163.455 E408.76256
G1 X49.75 Y163.685 E408.77312
G1 X49.402 Y164.704 E408.81869
G0 F2625 X49.402 Y164.705
G1 F1350 X84.396 Y199.7 E410.91328
G1 X82.698 Y199.697 E410.98515
G1 X49.071 Y166.071 E412.99786
G1 X48.944 Y166.768 E413.02784
G1 X48.856 Y167.551 E413.06119
G1 X81 Y199.695 E414.98516
G1 X79.302 Y199.692 E415.05703
G1 X48.787 Y169.178 E416.88347
G1 X48.787 Y170.873 E416.95521
G1 X77.604 Y199.69 E418.68005
G1 X76.149 Y199.688 E418.74163
G1 X75.912 Y199.694 E418.75166
G1 X48.787 Y172.569 E420.37522
G1 X48.787 Y174.265 E420.447
G1 X74.264 Y199.742 E421.97192
G1 X72.616 Y199.789 E422.0417
G1 X48.83 Y176.003 E423.46541
G1 X48.938 Y177.006 E423.50811
G1 X49.118 Y177.987 E423.55032
G1 X70.968 Y199.836 E424.85812
G1 X69.32 Y199.884 E424.9279
G1 X49.344 Y179.909 E426.12353
G1 X49.344 Y181.604 E426.19526
