;Generated by Cura LulzBot Edition GCodeWriter Version: 2.6.69
;FLAVOR:RepRap
;TIME:5148
;Filament used: 1.86285m
;Layer height: 0.18
;Generated with Cura_SteamEngine 2.6.69
;This G-Code has been generated specifically for the LulzBot TAZ 6 with standard extruder
G26 ; clear potential 'probe fail' condition
G21 ; set units to Millimetres
M107 ; disable fans
G90 ; absolute positioning
M82 ; set extruder to absolute mode
G92 E0 ; set extruder position to 0
M140 S110 ; start bed heating up
G28 XY ; home X and Y
G1 X-19 Y258 F1000 ; move to safe homing position
M109 R175 ; soften filament before homing Z
G28 Z ; home Z
G1 E-30 F100 ; retract filament
M109 R170 ; wait for extruder to reach wiping temp
G1 X-15 Y100 F3000 ; move above wiper pad
G1 Z1 ; push nozzle into wiper
G1 X-17 Y95 F1000 ; slow wipe
G1 X-17 Y90 F1000 ; slow wipe
G1 X-17 Y85 F1000 ; slow wipe
G1 X-15 Y90 F1000 ; slow wipe
G1 X-17 Y80 F1000 ; slow wipe
G1 X-15 Y95 F1000 ; slow wipe
G1 X-17 Y75 F2000 ; fast wipe
G1 X-15 Y65 F2000 ; fast wipe
G1 X-17 Y70 F2000 ; fast wipe
G1 X-15 Y60 F2000 ; fast wipe
G1 X-17 Y55 F2000 ; fast wipe
G1 X-15 Y50 F2000 ; fast wipe
G1 X-17 Y40 F2000 ; fast wipe
G1 X-15 Y45 F2000 ; fast wipe
G1 X-17 Y35 F2000 ; fast wipe
G1 X-15 Y40 F2000 ; fast wipe
G1 X-17 Y70 F2000 ; fast wipe
G1 X-15 Y30 Z2 F2000 ; fast wipe
G1 X-17 Y35 F2000 ; fast wipe
G1 X-15 Y25 F2000 ; fast wipe
G1 X-17 Y30 F2000 ; fast wipe
G1 X-15 Y25 Z1.5 F1000 ; slow wipe
G1 X-17 Y23 F1000 ; slow wipe
G1 Z10 ; raise extruder
M109 R170 ; wait for extruder to reach probe temp
G1 X-9 Y-9 ; move above first probe point
M204 S100 ; set probing acceleration
G29 ; start auto-leveling sequence
M204 S500 ; restore standard acceleration
G1 X0 Y0 Z15 F5000 ; move up off last probe point
G4 S1 ; pause
M400 ; wait for moves to finish
M117 Heating... ; progress indicator message on LCD
M109 R240 ; wait for extruder to reach printing temp
M190 S110 ; wait for bed to reach printing temp
G1 Z2 E0 F75 ; prime tiny bit of filament into the nozzle
M117 TAZ 6 Printing... ; progress indicator message on LCD

M221 S100
;LAYER_COUNT:98
;LAYER:-6
M107
G0 F2625 X71.728 Y84.043 Z0.51
G1 F1350 X72.055 Y83.766 E0.03426
G1 X72.401 Y83.558 E0.06654
G1 X72.782 Y83.407 E0.0993
G1 X73.184 Y83.319 E0.1322
G1 X73.528 Y83.297 E0.15976
G1 X79.616 Y83.297 E0.64646
G1 X79.676 Y83.298 E0.65126
G1 X82.407 Y83.35 E0.86963
G1 X82.511 Y83.353 E0.87794
G1 X82.511 Y83.352 E0.87802
G1 X85.762 Y83.508 E1.13822
G1 X88.865 Y83.784 E1.38727
G1 X90.851 Y84.056 E1.54752
G1 X90.859 Y84.058 E1.54818
G1 X91.505 Y84.153 E1.60038
G1 X91.505 Y84.152 E1.60046
G1 X91.547 Y84.159 E1.60387
G1 X91.634 Y84.175 E1.61094
G1 X93.636 Y84.574 E1.77414
G1 X95.465 Y85.065 E1.92553
G1 X96.858 Y85.551 E2.04348
G1 X97.004 Y85.606 E2.05595
G1 X97.074 Y85.635 E2.06201
G1 X97.074 Y85.636 E2.06209
G1 X97.932 Y86.019 E2.13721
G1 X98.304 Y86.222 E2.17108
G1 X98.623 Y86.471 E2.20344
G1 X98.906 Y86.78 E2.23693
G1 X99.046 Y86.979 E2.25639
G1 X99.097 Y87.058 E2.2639
G1 X99.303 Y87.445 E2.29895
G1 X99.432 Y87.831 E2.33149
G1 X99.5 Y88.248 E2.36527
G1 X99.508 Y88.443 E2.38087
G1 X99.504 Y89.573 E2.47121
G1 X99.502 Y89.686 E2.48024
G1 X99.426 Y91.677 E2.63953
G1 X99.426 Y94.602 E2.87337
G1 X101.227 Y95.386 E3.0304
G1 X102.222 Y94.462 E3.13895
G1 X102.563 Y94.236 E3.17166
G1 X102.934 Y94.07 E3.20415
G1 X103.329 Y93.965 E3.23682
G1 X103.732 Y93.927 E3.26919
G1 X104.145 Y93.955 E3.30228
G1 X104.488 Y94.03 E3.33035
G1 X104.877 Y94.144 E3.36275
G1 X105.549 Y94.283 E3.41761
G1 X106.244 Y94.37 E3.47361
G1 X110.23 Y94.441 E3.79232
G1 X114.36 Y94.514 E4.12254
G1 X118.731 Y94.592 E4.47204
G1 X122.168 Y94.651 E4.74685
G1 X125.766 Y94.714 E5.03454
G1 X128.784 Y94.766 E5.27584
G1 X131.652 Y94.818 E5.50516
G1 X133.941 Y94.858 E5.68819
G1 X136.291 Y94.898 E5.87608
G1 X138.545 Y94.939 E6.05631
G1 X140.543 Y94.973 E6.21606
G1 X142.092 Y94.999 E6.33991
G1 X143.632 Y95.018 E6.46304
G1 X144.813 Y95.031 E6.55746
G1 X146.318 Y95.046 E6.67778
G1 X148.137 Y95.065 E6.82321
G1 X149.962 Y95.084 E6.96912
G1 X151.738 Y95.101 E7.11111
G1 X153.458 Y95.118 E7.24862
G1 X155.153 Y95.134 E7.38413
G1 X157.179 Y95.155 E7.54611
G1 X158.865 Y95.171 E7.6809
G1 X160.876 Y95.186 E7.84167
G1 X162.608 Y95.199 E7.98014
G1 X163.38 Y95.205 E8.04186
G1 X165.623 Y95.222 E8.22118
G1 X167.264 Y95.233 E8.35238
G1 X169.004 Y95.245 E8.49148
G1 X170.803 Y95.257 E8.63531
G1 X172.645 Y95.265 E8.78257
G1 X174.552 Y95.275 E8.93502
G1 X177.334 Y95.275 E9.15743
G1 X179.413 Y95.276 E9.32364
G1 X182.113 Y95.199 E9.53957
G1 X184.182 Y95.075 E9.70528
G1 X187.714 Y94.706 E9.98918
G1 X187.982 Y94.627 E10.01152
G1 X188.338 Y94.547 E10.04069
G1 X188.75 Y94.481 E10.07404
G1 X189.186 Y94.448 E10.109
G1 X189.624 Y94.486 E10.14415
G1 X190.961 Y94.039 E10.25685
G1 X191.188 Y93.972 E10.27577
G1 X192.706 Y93.579 E10.40113
G1 X192.858 Y93.544 E10.4136
G1 X193.293 Y93.454 E10.44911
G1 X195.405 Y92.764 E10.62674
G1 X196.13 Y92.487 E10.68878
G1 X196.172 Y92.472 E10.69235
G1 X197.512 Y91.976 E10.80658
G1 X197.92 Y91.86 E10.84049
G1 X198.069 Y91.83 E10.85264
G1 X201.632 Y90.032 E11.17169
G1 X202.819 Y89.361 E11.2807
G1 X202.851 Y89.343 E11.28364
G1 X203.204 Y89.151 E11.31576
G1 X203.432 Y89.018 E11.33686
G1 X203.85 Y88.752 E11.37647
G1 X203.85 Y88.751 E11.37655
G1 X203.922 Y88.707 E11.3833
G1 X203.922 Y88.708 E11.38338
G1 X204.037 Y88.639 E11.3941
G1 X204.538 Y88.322 E11.4415
G1 X204.838 Y88.131 E11.46993
G1 X205.288 Y87.835 E11.51299
G1 X206.302 Y87.155 E11.61059
G1 X206.821 Y86.865 E11.65812
G1 X206.936 Y86.748 E11.67124
G1 X207.221 Y86.498 E11.70155
G1 X208.774 Y85.304 E11.85815
G1 X210.669 Y83.737 E12.05473
G1 X211.021 Y83.492 E12.08902
G1 X211.433 Y83.298 E12.12543
G1 X211.54 Y83.259 E12.13453
G1 X211.955 Y83.144 E12.16896
G1 X212.445 Y83.097 E12.20831
G1 X219.095 Y83.097 E12.73994
G1 X219.523 Y83.133 E12.77428
G1 X219.917 Y83.231 E12.80674
G1 X220.292 Y83.393 E12.8394
G1 X220.634 Y83.613 E12.87191
G1 X220.938 Y83.887 E12.90462
G1 X221.19 Y84.204 E12.937
G1 X221.43 Y84.649 E12.97742
G1 X221.637 Y85.138 E13.01987
G1 X221.778 Y85.564 E13.05574
G1 X221.84 Y85.962 E13.08795
G1 X221.836 Y86.366 E13.12025
G1 X221.765 Y86.775 E13.15343
G1 X221.632 Y87.159 E13.18592
G1 X221.442 Y87.509 E13.21776
G1 X221.123 Y87.906 E13.25847
G1 X219.341 Y89.731 E13.46239
G1 X217.941 Y91.217 E13.62561
G1 X217.932 Y91.225 E13.62657
G1 X216.72 Y92.497 E13.76703
G1 X216.66 Y92.558 E13.77387
G1 X216.395 Y92.815 E13.80338
G1 X215.34 Y93.874 E13.92288
G1 X215.303 Y93.913 E13.92718
G1 X214.833 Y94.37 E13.97959
G1 X214.74 Y94.456 E13.98972
G1 X214.403 Y94.751 E14.02552
G1 X212.878 Y96.161 E14.19156
G1 X212.75 Y96.272 E14.20511
G1 X211.626 Y97.2 E14.32163
G1 X211.143 Y97.599 E14.37172
G1 X211.01 Y97.703 E14.38522
G1 X209.258 Y99.004 E14.55967
G1 X209.133 Y99.092 E14.5719
G1 X207.416 Y100.237 E14.73688
G1 X207.277 Y100.325 E14.75004
G1 X205.429 Y101.414 E14.92152
G1 X205.333 Y101.467 E14.93028
G1 X204.673 Y101.815 E14.98993
G1 X203.576 Y102.392 E15.08902
G1 X203.441 Y102.459 E15.10107
G1 X201.592 Y103.299 E15.26343
G1 X201.452 Y103.358 E15.27557
G1 X199.318 Y104.196 E15.45886
G1 X199.202 Y104.24 E15.46878
G1 X197.078 Y104.963 E15.64815
G1 X196.932 Y105.008 E15.66036
G1 X195.529 Y105.396 E15.77673
G1 X194.341 Y105.723 E15.87524
G1 X192.899 Y105.998 E15.9926
G1 X192.688 Y108.24 E16.17263
G1 X195.224 Y109.245 E16.39071
G1 X195.349 Y109.297 E16.40153
G1 X197.203 Y110.151 E16.56472
G1 X197.312 Y110.204 E16.57441
G1 X198.94 Y111.052 E16.72115
G1 X199.085 Y111.131 E16.73436
G1 X201.074 Y112.302 E16.91888
G1 X201.177 Y112.366 E16.92857
G1 X202.805 Y113.447 E17.0848
G1 X202.895 Y113.51 E17.09358
G1 X204.743 Y114.87 E17.27702
G1 X204.962 Y115.048 E17.29958
G1 X205.062 Y115.126 E17.30972
G1 X205.184 Y115.226 E17.32233
G1 X205.492 Y115.484 E17.35445
G1 X205.503 Y115.492 E17.35554
G1 X206.666 Y116.468 E17.47691
G1 X206.769 Y116.558 E17.48785
G1 X208.496 Y118.136 E17.67487
G1 X208.554 Y118.19 E17.6812
G1 X208.926 Y118.549 E17.72253
G1 X209.07 Y118.701 E17.73927
G1 X209.095 Y118.732 E17.74246
G1 X210.704 Y120.346 E17.92465
G1 X210.727 Y120.368 E17.9272
G1 X212.273 Y121.977 E18.10558
G1 X212.346 Y122.059 E18.11436
G1 X212.681 Y122.444 E18.15516
G1 X212.768 Y122.53 E18.16494
G1 X212.87 Y122.633 E18.17653
G1 X213.282 Y123.074 E18.22477
G1 X213.825 Y123.613 E18.28594
G1 X213.874 Y123.664 E18.29159
G1 X214.275 Y124.08 E18.33779
G1 X214.859 Y124.665 E18.40387
G1 X215.139 Y124.995 E18.43847
G1 X215.346 Y125.339 E18.47056
G1 X215.499 Y125.724 E18.50368
G1 X215.585 Y126.122 E18.53624
G1 X215.606 Y126.524 E18.56842
G1 X215.559 Y126.926 E18.60077
G1 X215.411 Y127.42 E18.642
G1 X215.192 Y127.948 E18.6877
G1 X215.002 Y128.32 E18.72109
G1 X214.758 Y128.65 E18.7539
G1 X214.467 Y128.932 E18.7863
G1 X214.125 Y129.169 E18.81956
G1 X213.769 Y129.338 E18.85107
G1 X213.374 Y129.451 E18.88391
G1 X212.849 Y129.504 E18.9261
G1 X206.202 Y129.504 E19.45749
G1 X205.773 Y129.469 E19.4919
G1 X205.37 Y129.37 E19.52508
G1 X205.275 Y129.338 E19.53309
G1 X204.885 Y129.173 E19.56695
G1 X204.417 Y128.86 E19.61196
G1 X203.61 Y128.187 E19.69596
G1 X203.604 Y128.182 E19.69659
G1 X202.541 Y127.294 E19.80732
G1 X200.479 Y125.718 E20.0148
G1 X200.257 Y125.586 E20.03545
G1 X200.05 Y125.455 E20.05503
G1 X198.988 Y124.716 E20.15847
G1 X196.718 Y123.295 E20.37256
G1 X196.257 Y123.056 E20.41408
G1 X196.167 Y123.007 E20.42227
G1 X195.302 Y122.52 E20.50163
G1 X193.416 Y121.577 E20.6702
G1 X189.664 Y119.919 E20.99814
G1 X188.891 Y119.726 E21.06183
G1 X188.358 Y119.525 E21.10737
G1 X188.22 Y119.494 E21.11868
G1 X187.866 Y119.375 E21.14853
G1 X185.021 Y118.639 E21.38347
G1 X182.611 Y118.123 E21.5805
G1 X182.493 Y118.109 E21.59
G1 X182.382 Y118.095 E21.59894
G1 X179.25 Y117.603 E21.8524
G1 X178.926 Y117.609 E21.87831
G1 X178.614 Y117.595 E21.90328
G1 X178.037 Y117.534 E21.94966
G1 X177.459 Y117.503 E21.99594
G1 X177.214 Y117.479 E22.01562
G1 X176.869 Y117.426 E22.04352
G1 X173.252 Y117.325 E22.33279
G1 X171.099 Y117.324 E22.50491
G1 X169.55 Y117.324 E22.62875
G1 X168.179 Y117.326 E22.73835
G1 X166.583 Y117.33 E22.86595
G1 X164.506 Y117.344 E23.032
G1 X162.768 Y117.356 E23.17094
G1 X161.014 Y117.368 E23.31117
G1 X159.305 Y117.379 E23.4478
G1 X157.716 Y117.39 E23.57483
G1 X155.838 Y117.402 E23.72497
G1 X154.137 Y117.415 E23.86096
G1 X152.64 Y117.43 E23.98065
G1 X150.918 Y117.448 E24.11832
G1 X148.934 Y117.467 E24.27694
G1 X147.221 Y117.483 E24.41389
G1 X144.915 Y117.505 E24.59825
G1 X143.731 Y117.516 E24.69291
G1 X142.166 Y117.533 E24.81803
G1 X142.072 Y117.534 E24.82554
G1 X141.892 Y117.536 E24.83994
G1 X140.095 Y117.555 E24.9836
G1 X138.559 Y117.572 E25.10641
G1 X136.756 Y117.592 E25.25056
G1 X134.327 Y117.629 E25.44477
G1 X132.29 Y117.664 E25.60764
G1 X129.995 Y117.704 E25.79114
G1 X127.71 Y117.744 E25.97384
G1 X125.411 Y117.785 E26.15766
G1 X122.491 Y117.836 E26.39114
G1 X119.522 Y117.888 E26.62853
G1 X115.931 Y117.95 E26.91566
G1 X112.497 Y118.01 E27.19023
G1 X108.122 Y118.088 E27.54004
G1 X103.993 Y118.16 E27.87018
G1 X100.009 Y118.231 E28.18874
G1 X99.318 Y118.317 E28.2444
G1 X98.64 Y118.457 E28.29975
G1 X98.251 Y118.571 E28.33216
G1 X97.835 Y118.656 E28.3661
G1 X97.424 Y118.672 E28.39898
G1 X97.025 Y118.621 E28.43114
G1 X96.631 Y118.506 E28.46395
G1 X96.27 Y118.329 E28.4961
G1 X95.927 Y118.088 E28.52961
G1 X95.033 Y117.208 E28.62989
G1 X93.191 Y117.977 E28.78947
G1 X93.191 Y120.932 E29.02571
G1 X93.267 Y122.894 E29.18268
G1 X93.269 Y123.004 E29.19147
G1 X93.269 Y123.02 E29.19275
G1 X93.273 Y124.147 E29.28285
G1 X93.24 Y124.564 E29.31629
G1 X93.141 Y124.965 E29.34931
G1 X92.981 Y125.341 E29.38198
G1 X92.861 Y125.545 E29.4009
G1 X92.817 Y125.615 E29.40751
G1 X92.549 Y125.968 E29.44294
G1 X92.257 Y126.243 E29.47501
G1 X91.909 Y126.476 E29.50849
G1 X91.701 Y126.582 E29.52715
G1 X90.857 Y126.96 E29.60109
G1 X90.743 Y127.006 E29.61091
G1 X90.734 Y127.011 E29.61174
G1 X90.642 Y127.045 E29.61958
G1 X89.252 Y127.532 E29.73732
G1 X87.395 Y128.029 E29.89101
G1 X85.4 Y128.426 E30.05362
G1 X85.322 Y128.44 E30.05996
G1 X85.257 Y128.451 E30.06523
G1 X84.65 Y128.541 E30.11429
G1 X84.644 Y128.543 E30.11479
G1 X84.594 Y128.55 E30.11883
G1 X84.559 Y128.555 E30.12165
G1 X84.559 Y128.556 E30.12173
G1 X82.652 Y128.814 E30.27558
G1 X79.759 Y129.076 E30.50781
G1 X76.26 Y129.249 E30.78787
G1 X76.26 Y129.248 E30.78795
G1 X76.182 Y129.251 E30.79419
G1 X73.442 Y129.303 E31.01328
G1 X73.381 Y129.304 E31.01816
G1 X67.294 Y129.304 E31.50478
G1 X66.866 Y129.268 E31.53912
G1 X66.472 Y129.17 E31.57158
G1 X66.097 Y129.008 E31.60424
G1 X65.745 Y128.782 E31.63768
G1 X65.508 Y128.573 E31.66294
G1 X65.373 Y128.438 E31.6782
G1 X65.096 Y128.111 E31.71246
G1 X64.888 Y127.765 E31.74474
G1 X64.737 Y127.384 E31.7775
G1 X64.649 Y126.982 E31.8104
G1 X64.627 Y126.635 E31.8382
G1 X64.627 Y121.256 E32.26822
G1 X64.663 Y120.828 E32.30256
G1 X64.761 Y120.434 E32.33502
G1 X64.923 Y120.059 E32.36767
G1 X65.148 Y119.708 E32.401
G1 X65.358 Y119.47 E32.42638
G1 X65.493 Y119.335 E32.44164
G1 X65.82 Y119.058 E32.4759
G1 X68.177 Y117.642 E32.69572
G1 X65.745 Y116.081 E32.92675
G1 X65.508 Y115.873 E32.95196
G1 X65.373 Y115.738 E32.96722
G1 X65.096 Y115.411 E33.00148
G1 X64.888 Y115.065 E33.03376
G1 X64.737 Y114.684 E33.06652
G1 X64.649 Y114.282 E33.09942
G1 X64.627 Y113.938 E33.12698
G1 X64.627 Y107.921 E33.60801
G1 X64.663 Y107.493 E33.64234
G1 X64.761 Y107.099 E33.6748
G1 X64.923 Y106.724 E33.70746
G1 X65.148 Y106.373 E33.74079
G1 X65.358 Y106.135 E33.76617
G1 X65.495 Y105.998 E33.78165
G1 X65.82 Y105.723 E33.81569
G1 X66.166 Y105.515 E33.84796
G1 X66.547 Y105.364 E33.88073
G1 X66.949 Y105.276 E33.91363
G1 X67.293 Y105.254 E33.94118
G1 X70.862 Y105.254 E34.22651
G1 X70.862 Y98.664 E34.75334
G1 X70.898 Y98.236 E34.78768
G1 X70.996 Y97.842 E34.82014
G1 X71.158 Y97.467 E34.8528
G1 X71.383 Y97.116 E34.88613
G1 X71.593 Y96.878 E34.9115
G1 X71.728 Y96.743 E34.92676
G1 X72.055 Y96.466 E34.96103
G1 X74.412 Y95.05 E35.18084
G1 X71.981 Y93.49 E35.41176
G1 X71.735 Y93.273 E35.43799
G1 X71.608 Y93.146 E35.45235
G1 X71.331 Y92.819 E35.48661
G1 X71.123 Y92.473 E35.51888
G1 X70.972 Y92.092 E35.55165
G1 X70.884 Y91.691 E35.58447
G1 X70.862 Y91.345 E35.61218
G1 X70.862 Y85.964 E36.04237
G1 X70.898 Y85.536 E36.0767
G1 X70.996 Y85.142 E36.10916
G1 X71.158 Y84.767 E36.14182
G1 X71.383 Y84.416 E36.17515
G1 X71.593 Y84.178 E36.20053
G1 X71.728 Y84.043 E36.21579
G0 F2625 X72 Y83.812
G1 F1350 X72 Y93.502 E36.99045
G0 F2625 X74 Y94.785
G1 F1350 X74 Y83.297 E37.90886
G0 F2625 X76 Y83.297
G1 F1350 X76 Y129.255 E41.58297
G0 F2625 X74 Y129.293
G1 F1350 X74 Y95.297 E44.30077
G0 F2625 X72 Y96.512
G1 F1350 X72 Y129.304 E46.92232
G0 F2625 X70 Y129.304
G1 F1350 X70 Y105.254 E48.845
G0 F2625 X68 Y105.254
G1 F1350 X68 Y117.528 E49.82624
G0 F2625 X68 Y117.748
G1 F1350 X68 Y129.304 E50.75008
G0 F2625 X66 Y128.945
G1 F1350 X66 Y118.949 E51.54921
G0 F2625 X67.079 Y117.625
G0 X66 Y116.244
G1 F1350 X66 Y105.614 E52.39903
G0 F2625 X70.29 Y104.682
G0 X78 Y83.297
G1 F1350 X78 Y129.163 E56.06578
G0 F2625 X80 Y129.055
G1 F1350 X80 Y83.305 E59.72326
G0 F2625 X82 Y83.343
G1 F1350 X82 Y128.874 E63.36323
G0 F2625 X84 Y128.632
G1 F1350 X84 Y83.424 E66.97737
G0 F2625 X86 Y83.53
G1 F1350 X86 Y128.307 E70.55706
G0 F2625 X88 Y127.868
G1 F1350 X88 Y83.708 E74.08743
G0 F2625 X90 Y83.94
G1 F1350 X90 Y127.27 E77.55144
G0 F2625 X92 Y126.416
G1 F1350 X92 Y84.248 E80.92256
G0 F2625 X94 Y84.672
G1 F1350 X94 Y117.64 E83.55818
G0 F2625 X96 Y118.139
G1 F1350 X96 Y85.252 E86.18732
G0 F2625 X98 Y86.057
G1 F1350 X98 Y118.623 E88.79081
G0 F2625 X100 Y118.233
G1 F1350 X100 Y94.852 E90.66
G0 F2625 X102 Y94.668
G1 F1350 X102 Y118.196 E92.54094
G0 F2625 X104 Y118.16
G1 F1350 X104 Y93.946 E94.47673
G0 F2625 X106 Y94.34
G1 F1350 X106 Y118.126 E96.3783
G0 F2625 X108 Y118.091
G1 F1350 X108 Y94.402 E98.27211
G0 F2625 X110 Y94.437
G1 F1350 X110 Y118.055 E100.16025
G0 F2625 X112 Y118.019
G1 F1350 X112 Y94.473 E102.04263
G0 F2625 X114 Y94.508
G1 F1350 X114 Y117.984 E103.91942
G0 F2625 X116 Y117.949
G1 F1350 X116 Y94.544 E105.79053
G0 F2625 X118 Y94.579
G1 F1350 X118 Y117.915 E107.65612
G0 F2625 X120 Y117.88
