;Generated by Cura LulzBot Edition GCodeWriter Version: 2.6.69
;FLAVOR:RepRap
;TIME:7055
;Filament used: 2.9939m
;Layer height: 0.18
;Generated with Cura_SteamEngine 2.6.69
;This G-Code has been generated specifically for the LulzBot TAZ 6 with standard extruder
G26 ; clear potential 'probe fail' condition
G21 ; set units to Millimetres
M107 ; disable fans
G90 ; absolute positioning
M82 ; set extruder to absolute mode
G92 E0 ; set extruder position to 0
M140 S110 ; start bed heating up
G28 XY ; home X and Y
G1 X-19 Y258 F1000 ; move to safe homing position
M109 R175 ; soften filament before homing Z
G28 Z ; home Z
G1 E-30 F100 ; retract filament
M109 R170 ; wait for extruder to reach wiping temp
G1 X-15 Y100 F3000 ; move above wiper pad
G1 Z1 ; push nozzle into wiper
G1 X-17 Y95 F1000 ; slow wipe
G1 X-17 Y90 F1000 ; slow wipe
G1 X-17 Y85 F1000 ; slow wipe
G1 X-15 Y90 F1000 ; slow wipe
G1 X-17 Y80 F1000 ; slow wipe
G1 X-15 Y95 F1000 ; slow wipe
G1 X-17 Y75 F2000 ; fast wipe
G1 X-15 Y65 F2000 ; fast wipe
G1 X-17 Y70 F2000 ; fast wipe
G1 X-15 Y60 F2000 ; fast wipe
G1 X-17 Y55 F2000 ; fast wipe
G1 X-15 Y50 F2000 ; fast wipe
G1 X-17 Y40 F2000 ; fast wipe
G1 X-15 Y45 F2000 ; fast wipe
G1 X-17 Y35 F2000 ; fast wipe
G1 X-15 Y40 F2000 ; fast wipe
G1 X-17 Y70 F2000 ; fast wipe
G1 X-15 Y30 Z2 F2000 ; fast wipe
G1 X-17 Y35 F2000 ; fast wipe
G1 X-15 Y25 F2000 ; fast wipe
G1 X-17 Y30 F2000 ; fast wipe
G1 X-15 Y25 Z1.5 F1000 ; slow wipe
G1 X-17 Y23 F1000 ; slow wipe
G1 Z10 ; raise extruder
M109 R170 ; wait for extruder to reach probe temp
G1 X-9 Y-9 ; move above first probe point
M204 S100 ; set probing acceleration
G29 ; start auto-leveling sequence
M204 S500 ; restore standard acceleration
G1 X0 Y0 Z15 F5000 ; move up off last probe point
G4 S1 ; pause
M400 ; wait for moves to finish
M117 Heating... ; progress indicator message on LCD
M109 R240 ; wait for extruder to reach printing temp
M190 S110 ; wait for bed to reach printing temp
G1 Z2 E0 F75 ; prime tiny bit of filament into the nozzle
M117 TAZ 6 Printing... ; progress indicator message on LCD

M221 S100
;LAYER_COUNT:98
;LAYER:-6
M107
G0 F2625 X57.232 Y103.669 Z0.51
G1 F1350 X58.3 Y103.085 E0.09731
G1 X59.433 Y102.555 E0.19731
G1 X60.566 Y102.11 E0.29462
G1 X61.742 Y101.732 E0.39338
G1 X62.931 Y101.431 E0.49143
G1 X64.16 Y101.202 E0.59137
G1 X65.366 Y101.055 E0.6885
G1 X67.144 Y100.975 E0.83079
G1 X72.975 Y100.975 E1.29694
G1 X73.337 Y100.978 E1.32588
G1 X76.028 Y101.027 E1.54105
G1 X79.799 Y101.211 E1.84288
G1 X83.037 Y101.505 E2.10281
G1 X84.227 Y101.647 E2.19862
G1 X86.125 Y101.911 E2.35181
G1 X86.746 Y102.005 E2.40203
G1 X87.258 Y102.098 E2.44363
G1 X89.201 Y102.475 E2.60186
G1 X89.288 Y102.492 E2.60894
G1 X89.389 Y102.513 E2.61719
G1 X90.027 Y102.655 E2.66944
G1 X91.035 Y102.9 E2.75237
G1 X91.778 Y103.096 E2.81381
G1 X91.778 Y103.097 E2.81389
G1 X91.796 Y103.102 E2.81538
G1 X91.796 Y103.101 E2.81546
G1 X92.026 Y103.168 E2.83461
G1 X93.581 Y103.633 E2.96436
G1 X93.587 Y103.635 E2.96487
G1 X95.059 Y104.142 E3.08933
G1 X96.949 Y104.874 E3.25137
G1 X98.047 Y105.382 E3.34808
G1 X99.168 Y105.936 E3.44805
G1 X100.287 Y106.536 E3.54956
G1 X101.339 Y107.185 E3.64837
G1 X102.341 Y107.896 E3.7466
G1 X103.294 Y108.669 E3.8447
G1 X104.199 Y109.5 E3.94292
G1 X105.064 Y110.403 E4.04289
G1 X105.847 Y111.331 E4.13996
G1 X106.591 Y112.337 E4.23999
G1 X107.655 Y113.979 E4.39641
G1 X112.626 Y114.064 E4.79387
G1 X116.327 Y114.127 E5.08979
G1 X119.667 Y114.183 E5.35684
G1 X122.643 Y114.235 E5.59479
G1 X125.969 Y114.292 E5.86073
G1 X128.256 Y114.331 E6.04359
G1 X130.14 Y114.363 E6.19423
G1 X130.145 Y114.363 E6.19463
G1 X131.177 Y114.382 E6.27715
G1 X132.42 Y114.402 E6.37653
G1 X134.439 Y114.435 E6.53796
G1 X136.152 Y114.463 E6.67492
G1 X137.54 Y114.483 E6.7859
G1 X140.254 Y114.52 E7.00289
G1 X141.244 Y114.533 E7.08204
G1 X143.73 Y114.563 E7.2808
G1 X143.746 Y114.564 E7.28208
G1 X144.603 Y114.575 E7.3506
G1 X147.052 Y114.604 E7.5464
G1 X149.268 Y114.631 E7.72357
G1 X150.979 Y114.65 E7.86036
G1 X152.438 Y114.666 E7.97701
G1 X155.269 Y114.696 E8.20335
G1 X157.896 Y114.721 E8.41337
G1 X159.462 Y114.726 E8.53856
G1 X159.465 Y114.726 E8.5388
G1 X161.182 Y114.732 E8.67607
G1 X161.197 Y114.732 E8.67727
G1 X162.982 Y114.74 E8.81997
G1 X164.644 Y114.746 E8.95284
G1 X164.658 Y114.746 E8.95396
G1 X166.397 Y114.754 E9.09299
G1 X166.416 Y114.754 E9.09451
G1 X168.106 Y114.764 E9.22961
G1 X168.114 Y114.764 E9.23025
G1 X169.59 Y114.774 E9.34826
G1 X170.603 Y114.779 E9.42924
G1 X171.376 Y114.798 E9.49106
G1 X175.031 Y114.954 E9.78352
G1 X175.391 Y114.95 E9.8123
G1 X176.572 Y114.964 E9.90672
G1 X177.218 Y114.957 E9.95837
G1 X178.017 Y114.929 E10.02229
G1 X178.357 Y114.928 E10.04947
G1 X179.97 Y114.763 E10.17909
G1 X180.969 Y114.605 E10.25995
G1 X181.426 Y114.522 E10.29708
G1 X183.054 Y114.072 E10.43211
G1 X183.318 Y113.981 E10.45444
G1 X183.904 Y113.817 E10.50309
G1 X185.199 Y113.223 E10.61699
G1 X186.393 Y112.624 E10.72378
G1 X187.581 Y111.94 E10.83337
G1 X188.586 Y111.295 E10.92884
G1 X188.872 Y111.082 E10.95735
G1 X189.511 Y110.627 E11.02006
G1 X190.279 Y110.022 E11.09822
G1 X190.311 Y109.998 E11.10142
G1 X190.766 Y109.642 E11.1476
G1 X190.861 Y109.567 E11.15728
G1 X191.721 Y108.818 E11.24845
G1 X191.756 Y108.784 E11.25235
G1 X192.866 Y107.76 E11.37308
G1 X194.1 Y106.529 E11.51243
G1 X194.999 Y105.688 E11.61084
G1 X195.949 Y104.908 E11.70911
G1 X196.947 Y104.187 E11.80754
G1 X197.994 Y103.526 E11.90653
G1 X199.083 Y102.933 E12.00566
G1 X200.323 Y102.361 E12.11483
G1 X200.477 Y102.297 E12.12816
G1 X201.649 Y101.848 E12.2285
G1 X202.804 Y101.489 E12.32519
G1 X204.026 Y101.191 E12.42575
G1 X205.226 Y100.978 E12.52318
G1 X206.459 Y100.838 E12.62238
G1 X208.044 Y100.775 E12.7492
G1 X212.727 Y100.775 E13.12358
G1 X213.958 Y100.814 E13.22204
G1 X215.177 Y100.931 E13.31994
G1 X216.403 Y101.125 E13.41917
G1 X217.614 Y101.398 E13.51842
G1 X218.795 Y101.744 E13.6168
G1 X219.948 Y102.162 E13.71485
G1 X221.086 Y102.657 E13.81406
G1 X222.173 Y103.216 E13.91178
G1 X223.239 Y103.852 E14.01101
G1 X224.255 Y104.548 E14.10947
G1 X225.224 Y105.306 E14.20782
G1 X226.144 Y106.124 E14.30624
G1 X227.014 Y107.004 E14.40516
G1 X227.829 Y107.938 E14.50426
G1 X228.579 Y108.918 E14.60292
G1 X229.265 Y109.939 E14.70126
G1 X229.885 Y111.006 E14.79991
G1 X230.428 Y112.092 E14.89698
G1 X230.714 Y112.74 E14.95361
G1 X230.943 Y113.285 E15.00087
G1 X231.383 Y114.437 E15.09945
G1 X231.748 Y115.613 E15.19789
G1 X232.046 Y116.835 E15.29845
G1 X232.257 Y118.027 E15.39522
G1 X232.398 Y119.283 E15.49626
G1 X232.456 Y120.49 E15.59287
G1 X232.436 Y121.728 E15.69185
G1 X232.341 Y122.97 E15.79143
G1 X232.171 Y124.168 E15.88817
G1 X231.916 Y125.397 E15.98851
G1 X231.594 Y126.566 E16.08545
G1 X231.186 Y127.753 E16.18579
G1 X230.716 Y128.883 E16.28363
G1 X230.173 Y129.986 E16.38192
G1 X229.556 Y131.062 E16.48108
G1 X228.886 Y132.078 E16.57837
G1 X228.127 Y133.082 E16.67899
G1 X227.336 Y134.001 E16.77593
G1 X226.861 Y134.501 E16.83106
G1 X225.39 Y135.998 E16.99885
G1 X225.34 Y136.053 E17.00479
G1 X225.324 Y136.069 E17.0066
G1 X224.992 Y136.428 E17.04569
G1 X224.832 Y136.599 E17.06441
G1 X223.935 Y137.546 E17.16869
G1 X223.832 Y137.653 E17.18057
G1 X223.357 Y138.147 E17.23535
G1 X223.321 Y138.185 E17.23954
G1 X222.736 Y138.79 E17.30682
G1 X222.707 Y138.821 E17.31021
G1 X222.095 Y139.45 E17.38037
G1 X221.923 Y139.624 E17.39993
G1 X221.081 Y140.471 E17.49541
G1 X220.786 Y140.762 E17.52854
G1 X219.941 Y141.576 E17.62234
G1 X219.585 Y141.91 E17.66136
G1 X219.584 Y141.909 E17.66147
G1 X218.959 Y142.481 E17.72921
G1 X218.304 Y143.079 E17.80011
G1 X218.131 Y143.236 E17.81879
G1 X217.75 Y143.577 E17.85966
G1 X217.175 Y144.071 E17.92027
G1 X215.763 Y145.235 E18.06656
G1 X216.923 Y146.396 E18.19777
G1 X217.251 Y146.732 E18.2353
G1 X218.007 Y147.526 E18.32295
G1 X218.134 Y147.661 E18.33777
G1 X218.464 Y148.015 E18.37646
G1 X218.714 Y148.272 E18.40512
G1 X219.951 Y149.597 E18.55004
G1 X220.243 Y149.878 E18.58243
G1 X220.827 Y150.469 E18.64886
G1 X221.664 Y151.37 E18.74717
G1 X222.43 Y152.308 E18.84399
G1 X223.171 Y153.345 E18.94588
G1 X223.818 Y154.381 E19.04353
G1 X224.405 Y155.468 E19.14229
G1 X224.912 Y156.567 E19.23905
G1 X225.36 Y157.73 E19.33868
G1 X225.734 Y158.918 E19.43825
G1 X226.027 Y160.105 E19.536
G1 X226.247 Y161.32 E19.63471
G1 X226.39 Y162.549 E19.73362
G1 X226.454 Y163.77 E19.83137
G1 X226.44 Y165.008 E19.93035
G1 X226.348 Y166.252 E20.03007
G1 X226.181 Y167.45 E20.12677
G1 X225.933 Y168.668 E20.22614
G1 X225.613 Y169.854 E20.32435
G1 X225.211 Y171.039 E20.42439
G1 X224.932 Y171.74 E20.4847
G1 X224.702 Y172.284 E20.53192
G1 X224.179 Y173.421 E20.63197
G1 X223.593 Y174.512 E20.73098
G1 X222.95 Y175.545 E20.82825
G1 X222.231 Y176.55 E20.92704
G1 X221.445 Y177.516 E21.0266
G1 X220.61 Y178.417 E21.12481
G1 X219.707 Y179.278 E21.22455
G1 X218.792 Y180.045 E21.32
G1 X217.768 Y180.798 E21.42162
G1 X216.733 Y181.463 E21.51997
G1 X215.675 Y182.05 E21.6167
G1 X214.555 Y182.584 E21.71589
G1 X213.413 Y183.042 E21.81426
G1 X212.234 Y183.431 E21.91351
G1 X211.042 Y183.741 E22.01197
G1 X209.831 Y183.976 E22.11059
G1 X208.606 Y184.134 E22.20934
G1 X207.378 Y184.213 E22.30771
G1 X206.709 Y184.225 E22.3612
G1 X202.016 Y184.225 E22.73639
G1 X200.785 Y184.186 E22.83485
G1 X199.566 Y184.069 E22.93275
G1 X198.34 Y183.875 E23.03198
G1 X197.123 Y183.601 E23.13171
G1 X195.956 Y183.26 E23.2289
G1 X194.407 Y182.68 E23.36114
G1 X194.271 Y182.622 E23.37296
G1 X193.11 Y182.088 E23.47512
G1 X192.056 Y181.521 E23.5708
G1 X190.991 Y180.858 E23.67109
G1 X189.968 Y180.126 E23.77165
G1 X189.029 Y179.359 E23.86858
G1 X188.07 Y178.468 E23.97323
G1 X187.036 Y177.439 E24.08985
G1 X186.687 Y177.071 E24.1304
G1 X185.756 Y176.222 E24.23113
G1 X185.598 Y176.071 E24.2486
G1 X184.855 Y175.441 E24.32648
G1 X184.764 Y175.364 E24.33601
G1 X184.569 Y175.198 E24.35648
G1 X183.345 Y174.245 E24.4805
G1 X182.541 Y173.676 E24.55924
G1 X182.268 Y173.501 E24.58516
G1 X182.17 Y173.438 E24.59448
G1 X181.514 Y173.007 E24.65723
G1 X181.17 Y172.815 E24.68872
G1 X180.651 Y172.514 E24.73669
G1 X180.451 Y172.391 E24.75546
G1 X179.859 Y172.097 E24.8083
G1 X179.486 Y171.899 E24.84206
G1 X178.784 Y171.584 E24.90357
G1 X177.45 Y171.049 E25.01848
G1 X176.995 Y170.916 E25.05637
G1 X176.541 Y170.768 E25.09455
G1 X176.462 Y170.742 E25.1012
G1 X176.131 Y170.653 E25.1286
G1 X175.013 Y170.419 E25.21991
G1 X175.013 Y170.418 E25.21999
G1 X174.761 Y170.363 E25.24061
G1 X173.822 Y170.213 E25.31663
G1 X172.428 Y170.07 E25.42866
G1 X171.868 Y170.067 E25.47343
G1 X171.163 Y170.042 E25.52983
G1 X170.611 Y170.035 E25.57396
G1 X169.495 Y170.05 E25.66319
G1 X168.978 Y170.045 E25.70452
G1 X167.495 Y170.108 E25.82319
G1 X165.351 Y170.2 E25.99475
G1 X164.618 Y170.219 E26.05337
G1 X162.116 Y170.237 E26.25339
G1 X162.1 Y170.238 E26.25467
G1 X160.363 Y170.249 E26.39354
G1 X160.317 Y170.249 E26.39722
G1 X158.674 Y170.255 E26.52857
G1 X156.942 Y170.262 E26.66703
G1 X156.934 Y170.262 E26.66767
G1 X153.463 Y170.274 E26.94516
G1 X153.46 Y170.274 E26.9454
G1 X151.895 Y170.279 E27.07052
G1 X149.264 Y170.304 E27.28086
G1 X146.466 Y170.334 E27.50456
G1 X144.961 Y170.351 E27.62489
G1 X143.186 Y170.37 E27.7668
G1 X140.683 Y170.398 E27.96691
G1 X139.52 Y170.413 E28.05989
G1 X137.765 Y170.435 E28.20021
G1 X136.005 Y170.458 E28.34092
G1 X134.238 Y170.481 E28.4822
G1 X132.485 Y170.504 E28.62235
G1 X130.271 Y170.535 E28.79937
G1 X128.446 Y170.564 E28.94529
G1 X128.389 Y170.565 E28.94984
G1 X124.963 Y170.623 E29.22377
G1 X121.848 Y170.677 E29.47284
G1 X120.373 Y170.702 E29.59078
G1 X116.636 Y170.766 E29.88957
G1 X113.659 Y170.817 E30.1276
G1 X110.334 Y170.873 E30.39346
G1 X106.631 Y170.937 E30.68954
G1 X101.652 Y171.022 E31.08764
G1 X100.575 Y172.683 E31.2459
G1 X99.826 Y173.692 E31.34636
G1 X99.034 Y174.627 E31.44432
G1 X98.183 Y175.513 E31.54253
G1 X97.262 Y176.358 E31.64246
G1 X96.312 Y177.123 E31.73997
G1 X95.31 Y177.833 E31.83814
G1 X94.25 Y178.486 E31.93768
G1 X93.189 Y179.052 E32.03381
G1 X92.039 Y179.622 E32.13642
G1 X90.806 Y180.182 E32.24468
G1 X89.059 Y180.858 E32.39444
G1 X87.588 Y181.365 E32.51883
G1 X86.026 Y181.832 E32.64916
G1 X85.796 Y181.899 E32.66831
G1 X85.796 Y181.898 E32.66839
G1 X85.778 Y181.903 E32.66989
G1 X85.778 Y181.904 E32.66997
G1 X85.035 Y182.1 E32.7314
G1 X84.027 Y182.345 E32.81433
G1 X83.389 Y182.487 E32.86658
G1 X83.293 Y182.507 E32.87442
G1 X83.201 Y182.525 E32.88192
G1 X81.258 Y182.902 E33.04015
G1 X80.746 Y182.995 E33.08175
G1 X80.125 Y183.089 E33.13196
G1 X78.227 Y183.353 E33.28515
G1 X77.037 Y183.495 E33.38096
G1 X73.794 Y183.79 E33.6413
G1 X69.998 Y183.973 E33.94512
G1 X67.337 Y184.022 E34.15789
G1 X66.975 Y184.025 E34.18683
G1 X61.122 Y184.025 E34.65475
G1 X59.891 Y183.986 E34.75321
G1 X58.672 Y183.869 E34.85111
G1 X57.446 Y183.675 E34.95034
G1 X56.235 Y183.402 E35.04958
G1 X55.054 Y183.056 E35.14797
G1 X53.901 Y182.638 E35.24601
G1 X52.763 Y182.143 E35.34522
G1 X51.676 Y181.584 E35.44294
G1 X50.61 Y180.948 E35.54218
G1 X49.594 Y180.252 E35.64063
G1 X48.621 Y179.491 E35.73939
G1 X47.329 Y178.309 E35.87938
G1 X47.198 Y178.178 E35.89419
G1 X47.197 Y178.179 E35.8943
G1 X46.346 Y177.273 E35.99367
G1 X45.564 Y176.325 E36.09192
G1 X44.829 Y175.313 E36.19191
G1 X44.172 Y174.273 E36.29025
G1 X43.585 Y173.2 E36.38803
G1 X43.055 Y172.067 E36.48803
G1 X42.61 Y170.934 E36.58534
G1 X42.232 Y169.758 E36.68409
G1 X41.931 Y168.569 E36.78215
G1 X41.701 Y167.337 E36.88234
G1 X41.555 Y166.134 E36.97922
G1 X41.475 Y164.356 E37.12151
G1 X41.475 Y158.956 E37.55321
G1 X41.515 Y157.738 E37.65063
G1 X41.631 Y156.496 E37.75036
G1 X41.822 Y155.293 E37.84774
G1 X41.701 Y154.64 E37.90083
G1 X41.555 Y153.436 E37.99779
G1 X41.475 Y151.656 E38.14023
G1 X41.475 Y145.621 E38.6227
G1 X41.514 Y144.391 E38.72108
G1 X41.631 Y143.172 E38.81898
G1 X41.827 Y141.936 E38.91903
G1 X42.098 Y140.735 E39.01746
G1 X42.444 Y139.554 E39.11584
G1 X42.862 Y138.401 E39.21389
G1 X43.357 Y137.263 E39.3131
G1 X43.916 Y136.176 E39.41082
G1 X44.552 Y135.11 E39.51005
G1 X45.248 Y134.094 E39.60851
G1 X46.009 Y133.121 E39.70726
G1 X47.191 Y131.829 E39.84725
G1 X47.574 Y131.445 E39.89061
G1 X47.631 Y130.867 E39.93704
G1 X47.822 Y129.657 E40.03497
G1 X47.703 Y129.022 E40.08662
G1 X47.555 Y127.801 E40.18495
G1 X47.475 Y126.021 E40.32739
G1 X47.475 Y120.621 E40.7591
G1 X47.514 Y119.391 E40.85748
G1 X47.631 Y118.172 E40.95538
G1 X47.825 Y116.946 E41.05461
G1 X48.098 Y115.735 E41.15385
G1 X48.444 Y114.554 E41.25224
G1 X48.862 Y113.401 E41.35028
G1 X49.357 Y112.263 E41.44949
G1 X49.916 Y111.176 E41.54721
G1 X50.552 Y110.11 E41.64645
G1 X51.248 Y109.094 E41.7449
G1 X52.009 Y108.121 E41.84366
G1 X53.191 Y106.829 E41.98365
G1 X53.322 Y106.698 E41.99846
G1 X53.321 Y106.697 E41.99857
G1 X54.227 Y105.846 E42.09794
G1 X55.175 Y105.064 E42.19619
G1 X56.187 Y104.329 E42.29618
G1 X57.232 Y103.669 E42.39499
G0 F2625 X58 Y103.249
G1 F1350 X58 Y183.762 E48.83159
G0 F2625 X60 Y183.989
G1 F1350 X60 Y102.332 E55.35965
G0 F2625 X62 Y101.666
G1 F1350 X62 Y184.025 E61.94383
G0 F2625 X64 Y184.025
G1 F1350 X64 Y101.231 E68.56278
G0 F2625 X66 Y101.026
G1 F1350 X66 Y184.025 E75.19813
G0 F2625 X68 Y184.01
G1 F1350 X68 Y100.975 E81.83635
G0 F2625 X70 Y100.975
G1 F1350 X70 Y183.973 E88.47161
G0 F2625 X72 Y183.877
G1 F1350 X72 Y100.975 E95.0992
G0 F2625 X74 Y100.991
G1 F1350 X74 Y183.772 E101.71712
G0 F2625 X76 Y183.59
G1 F1350 X76 Y101.027 E108.3176
G0 F2625 X78 Y101.124
G1 F1350 X78 Y183.381 E114.89363
G0 F2625 X80 Y183.107
G1 F1350 X80 Y101.23 E121.43927
G0 F2625 X82 Y101.411
G1 F1350 X82 Y182.759 E127.94263
G0 F2625 X84 Y182.352
G1 F1350 X84 Y101.62 E134.39674
G0 F2625 X86 Y101.894
G1 F1350 X86 Y181.84 E140.78801
G0 F2625 X88 Y181.223
G1 F1350 X88 Y102.242 E147.10214
G0 F2625 X90 Y102.649
G1 F1350 X90 Y180.494 E153.32544
G0 F2625 X92 Y179.64
G1 F1350 X92 Y103.161 E159.43955
G0 F2625 X94 Y103.778
G1 F1350 X94 Y178.62 E165.42278
G0 F2625 X96 Y177.345
G1 F1350 X96 Y104.507 E171.24581
G0 F2625 X98 Y105.361
G1 F1350 X98 Y175.681 E176.86753
G0 F2625 X100 Y173.458
G1 F1350 X100 Y106.383 E182.22983
G0 F2625 X102 Y107.655
G1 F1350 X102 Y171.017 E187.2953
G0 F2625 X104 Y170.982
