;Generated by Cura LulzBot Edition GCodeWriter Version: 2.6.69
;FLAVOR:RepRap
;TIME:6142
;Filament used: 2.25503m
;Layer height: 0.18
;Generated with Cura_SteamEngine 2.6.69
;This G-Code has been generated specifically for the LulzBot TAZ 6 with standard extruder
G26 ; clear potential 'probe fail' condition
G21 ; set units to Millimetres
M107 ; disable fans
G90 ; absolute positioning
M82 ; set extruder to absolute mode
G92 E0 ; set extruder position to 0
M140 S110 ; start bed heating up
G28 XY ; home X and Y
G1 X-19 Y258 F1000 ; move to safe homing position
M109 R175 ; soften filament before homing Z
G28 Z ; home Z
G1 E-30 F100 ; retract filament
M109 R170 ; wait for extruder to reach wiping temp
G1 X-15 Y100 F3000 ; move above wiper pad
G1 Z1 ; push nozzle into wiper
G1 X-17 Y95 F1000 ; slow wipe
G1 X-17 Y90 F1000 ; slow wipe
G1 X-17 Y85 F1000 ; slow wipe
G1 X-15 Y90 F1000 ; slow wipe
G1 X-17 Y80 F1000 ; slow wipe
G1 X-15 Y95 F1000 ; slow wipe
G1 X-17 Y75 F2000 ; fast wipe
G1 X-15 Y65 F2000 ; fast wipe
G1 X-17 Y70 F2000 ; fast wipe
G1 X-15 Y60 F2000 ; fast wipe
G1 X-17 Y55 F2000 ; fast wipe
G1 X-15 Y50 F2000 ; fast wipe
G1 X-17 Y40 F2000 ; fast wipe
G1 X-15 Y45 F2000 ; fast wipe
G1 X-17 Y35 F2000 ; fast wipe
G1 X-15 Y40 F2000 ; fast wipe
G1 X-17 Y70 F2000 ; fast wipe
G1 X-15 Y30 Z2 F2000 ; fast wipe
G1 X-17 Y35 F2000 ; fast wipe
G1 X-15 Y25 F2000 ; fast wipe
G1 X-17 Y30 F2000 ; fast wipe
G1 X-15 Y25 Z1.5 F1000 ; slow wipe
G1 X-17 Y23 F1000 ; slow wipe
G1 Z10 ; raise extruder
M109 R170 ; wait for extruder to reach probe temp
G1 X-9 Y-9 ; move above first probe point
M204 S100 ; set probing acceleration
G29 ; start auto-leveling sequence
M204 S500 ; restore standard acceleration
G1 X0 Y0 Z15 F5000 ; move up off last probe point
G4 S1 ; pause
M400 ; wait for moves to finish
M117 Heating... ; progress indicator message on LCD
M109 R240 ; wait for extruder to reach printing temp
M190 S110 ; wait for bed to reach printing temp
G1 Z2 E0 F75 ; prime tiny bit of filament into the nozzle
M117 TAZ 6 Printing... ; progress indicator message on LCD

M221 S100
;LAYER_COUNT:105
;LAYER:-6
M107
G0 F2625 X64.756 Y137.827 Z0.51
G1 F1350 X65.717 Y137.455 E0.08238
G1 X66.757 Y137.135 E0.16937
G1 X67.772 Y136.904 E0.25259
G1 X68.83 Y136.743 E0.33815
G1 X69.876 Y136.661 E0.42202
G1 X70.829 Y136.652 E0.49822
G1 X79.745 Y136.866 E1.21121
G1 X88.576 Y136.739 E1.91728
G1 X97.845 Y136.297 E2.65913
G1 X108.41 Y135.478 E3.50628
G1 X120.194 Y134.258 E4.45338
G1 X137.443 Y132.103 E5.84307
G1 X156.019 Y129.618 E7.34136
G1 X170.34 Y127.829 E8.49515
G1 X174.7 Y127.339 E8.8459
G1 X174.73 Y127.335 E8.84832
G1 X174.78 Y127.33 E8.85234
G1 X176.063 Y127.197 E8.95546
G1 X176.063 Y127.223 E8.95754
G1 X177.816 Y127.016 E9.09865
G1 X179.81 Y126.819 E9.25884
G1 X180.148 Y126.727 E9.28684
G1 X181.207 Y126.518 E9.37314
G1 X182.121 Y126.401 E9.4468
G1 X183.502 Y126.27 E9.5577
G1 X183.613 Y126.26 E9.56661
G1 X184.312 Y126.198 E9.62271
G1 X184.312 Y126.199 E9.62279
G1 X184.393 Y126.192 E9.62929
G1 X186.186 Y126.044 E9.77312
G1 X186.21 Y126.042 E9.77505
G1 X187.092 Y125.971 E9.84579
G1 X187.117 Y125.969 E9.84779
G1 X189.326 Y125.795 E10.02494
G1 X189.326 Y125.796 E10.02502
G1 X189.485 Y125.784 E10.03776
G1 X191.226 Y125.666 E10.17727
G1 X192.795 Y125.56 E10.30299
G1 X192.87 Y125.555 E10.309
G1 X193.39 Y125.523 E10.35065
G1 X193.746 Y125.504 E10.37915
G1 X193.746 Y125.505 E10.37923
G1 X194.19 Y125.487 E10.41475
G1 X195.893 Y125.38 E10.55117
G1 X196.081 Y125.369 E10.56622
G1 X198.021 Y125.272 E10.72151
G1 X198.083 Y125.269 E10.72647
G1 X198.654 Y125.243 E10.77217
G1 X198.654 Y125.244 E10.77225
G1 X198.96 Y125.232 E10.79673
G1 X199.065 Y125.23 E10.80512
G1 X200.803 Y125.15 E10.94422
G1 X200.803 Y125.151 E10.94429
G1 X201.105 Y125.14 E10.96845
G1 X203.04 Y125.097 E11.12319
G1 X203.04 Y125.077 E11.12478
G1 X204.889 Y125.021 E11.27267
G1 X205.358 Y125.014 E11.31017
G1 X209.944 Y125.014 E11.6768
G1 X211.009 Y125.052 E11.76199
G1 X212.067 Y125.17 E11.8471
G1 X213.104 Y125.361 E11.93139
G1 X214.13 Y125.629 E12.01617
G1 X215.14 Y125.973 E12.10147
G1 X216.102 Y126.382 E12.18504
G1 X217.033 Y126.86 E12.2687
G1 X217.958 Y127.425 E12.35536
G1 X218.811 Y128.034 E12.43915
G1 X219.628 Y128.713 E12.52407
G1 X220.19 Y129.244 E12.58589
G1 X220.601 Y129.653 E12.63224
G1 X221.336 Y130.437 E12.71815
G1 X221.994 Y131.252 E12.80189
G1 X222.607 Y132.136 E12.88789
G1 X223.144 Y133.046 E12.97236
G1 X223.606 Y133.981 E13.05574
G1 X224.013 Y134.98 E13.14198
G1 X224.335 Y135.969 E13.22513
G1 X224.591 Y137.01 E13.31083
G1 X224.765 Y138.04 E13.39434
G1 X224.868 Y139.12 E13.48107
G1 X224.888 Y139.705 E13.52787
G1 X224.943 Y140.013 E13.55288
G1 X225.047 Y141.078 E13.63843
G1 X225.075 Y141.87 E13.70178
G1 X225.087 Y143.55 E13.83609
G1 X225.053 Y144.656 E13.92455
G1 X224.947 Y145.697 E14.00821
G1 X224.763 Y146.735 E14.09248
G1 X224.499 Y147.773 E14.17811
G1 X224.167 Y148.77 E14.26212
G1 X223.759 Y149.75 E14.34698
G1 X223.287 Y150.685 E14.43071
G1 X222.733 Y151.607 E14.51671
G1 X222.126 Y152.468 E14.60092
G1 X221.176 Y153.594 E14.7187
G1 X220.939 Y153.847 E14.74642
G1 X220.188 Y154.593 E14.83104
G1 X219.373 Y155.293 E14.91693
G1 X218.528 Y155.918 E15.00095
G1 X217.626 Y156.487 E15.08621
G1 X216.705 Y156.978 E15.16965
G1 X215.73 Y157.411 E15.25494
G1 X214.738 Y157.767 E15.3392
G1 X213.701 Y158.055 E15.42524
G1 X211.409 Y158.517 E15.61216
G1 X211.456 Y161.018 E15.81213
G1 X213.205 Y161.304 E15.95381
G1 X214.232 Y161.551 E16.03826
G1 X215.242 Y161.873 E16.12301
G1 X216.225 Y162.267 E16.20767
G1 X217.165 Y162.726 E16.2913
G1 X218.091 Y163.265 E16.37695
G1 X218.967 Y163.866 E16.46188
G1 X219.787 Y164.52 E16.54574
G1 X220.839 Y165.517 E16.66161
G1 X221.036 Y165.723 E16.68439
G1 X221.765 Y166.542 E16.77205
G1 X222.403 Y167.377 E16.85606
G1 X222.991 Y168.272 E16.94167
G1 X223.502 Y169.191 E17.02573
G1 X223.945 Y170.145 E17.10982
G1 X224.326 Y171.155 E17.19612
G1 X224.623 Y172.155 E17.27952
G1 X224.851 Y173.191 E17.36432
G1 X224.999 Y174.231 E17.4483
G1 X225.074 Y175.31 E17.53477
G1 X225.082 Y175.863 E17.57898
G1 X225.07 Y177.587 E17.71681
G1 X225.022 Y178.666 E17.80316
G1 X224.9 Y179.718 E17.88782
G1 X224.868 Y179.882 E17.90118
G1 X224.833 Y180.668 E17.96408
G1 X224.709 Y181.733 E18.0498
G1 X224.508 Y182.775 E18.13464
G1 X224.233 Y183.793 E18.21894
G1 X223.882 Y184.795 E18.30381
G1 X223.463 Y185.762 E18.38807
G1 X222.97 Y186.705 E18.47313
G1 X222.409 Y187.607 E18.55805
G1 X221.786 Y188.462 E18.64263
G1 X221.111 Y189.264 E18.72643
G1 X220.602 Y189.795 E18.78523
G1 X220.172 Y190.224 E18.83379
G1 X219.398 Y190.939 E18.91803
G1 X218.559 Y191.608 E19.00382
G1 X217.699 Y192.199 E19.08724
G1 X216.775 Y192.737 E19.17272
G1 X215.836 Y193.195 E19.25624
G1 X214.842 Y193.595 E19.3419
G1 X213.835 Y193.915 E19.42637
G1 X212.796 Y194.164 E19.51178
G1 X211.763 Y194.333 E19.59547
G1 X210.711 Y194.427 E19.6799
G1 X209.932 Y194.448 E19.7422
G1 X205.599 Y194.453 E20.0886
G1 X205.127 Y194.446 E20.12634
G1 X205.05 Y194.444 E20.1325
G1 X203.05 Y194.385 E20.29246
G1 X201.604 Y194.341 E20.40811
G1 X200.826 Y194.317 E20.47034
G1 X200.758 Y194.314 E20.47578
G1 X199.728 Y194.27 E20.5582
G1 X198.479 Y194.221 E20.65813
G1 X198.479 Y194.222 E20.65821
G1 X198.254 Y194.211 E20.67622
G1 X197.587 Y194.175 E20.72962
G1 X195.341 Y194.06 E20.90941
G1 X195.206 Y194.051 E20.92022
G1 X192.867 Y193.902 E21.10759
G1 X192.415 Y193.88 E21.14377
G1 X192.053 Y193.858 E21.17277
G1 X190.803 Y193.768 E21.27296
G1 X189.255 Y193.66 E21.39701
G1 X189.214 Y193.657 E21.4003
G1 X186.394 Y193.437 E21.62643
G1 X186.291 Y193.429 E21.63469
G1 X186.291 Y193.43 E21.63477
G1 X183.671 Y193.207 E21.84498
G1 X183.431 Y193.186 E21.86424
G1 X182.829 Y193.127 E21.9126
G1 X182.148 Y193.064 E21.96727
G1 X181.098 Y192.931 E22.05188
G1 X180.051 Y192.717 E22.13732
G1 X179.788 Y192.643 E22.15916
G1 X177.925 Y192.459 E22.30882
G1 X174.768 Y192.132 E22.56256
G1 X174.757 Y192.13 E22.56345
G1 X174.729 Y192.127 E22.5657
G1 X174.694 Y192.123 E22.56852
G1 X170.237 Y191.623 E22.92707
G1 X155.969 Y189.841 E24.07658
G1 X137.402 Y187.355 E25.57417
G1 X120.186 Y185.206 E26.96118
G1 X108.381 Y183.983 E27.90998
G1 X98.294 Y183.196 E28.71883
G1 X97.921 Y183.17 E28.74872
G1 X88.559 Y182.723 E29.49802
G1 X79.732 Y182.597 E30.20377
G1 X70.819 Y182.81 E30.91652
G1 X69.751 Y182.795 E31.00191
G1 X68.719 Y182.707 E31.08471
G1 X67.648 Y182.536 E31.17142
G1 X66.633 Y182.297 E31.25478
G1 X65.609 Y181.975 E31.34059
G1 X64.639 Y181.59 E31.42403
G1 X63.674 Y181.122 E31.50977
G1 X62.766 Y180.599 E31.59354
G1 X61.892 Y180.002 E31.67815
G1 X61.059 Y179.343 E31.76307
G1 X60.353 Y178.7 E31.83941
G1 X60.219 Y178.57 E31.85433
G1 X59.477 Y177.792 E31.94028
G1 X58.798 Y176.97 E32.02552
G1 X58.193 Y176.113 E32.10938
G1 X57.644 Y175.205 E32.19421
G1 X57.161 Y174.257 E32.27927
G1 X56.753 Y173.283 E32.36369
G1 X56.414 Y172.276 E32.44863
G1 X56.152 Y171.253 E32.53306
G1 X55.966 Y170.219 E32.61705
G1 X55.854 Y169.153 E32.70274
G1 X55.82 Y168.167 E32.78161
G1 X55.82 Y162.133 E33.264
G1 X55.859 Y161.069 E33.34911
G1 X55.976 Y160.014 E33.43397
G1 X56.035 Y159.703 E33.45928
G1 X55.911 Y158.826 E33.53009
G1 X55.833 Y157.323 E33.65041
G1 X55.833 Y151.295 E34.13231
G1 X55.871 Y150.239 E34.21679
G1 X55.989 Y149.181 E34.3019
G1 X56.18 Y148.144 E34.38619
G1 X56.448 Y147.118 E34.47097
G1 X56.792 Y146.108 E34.55627
G1 X57.201 Y145.146 E34.63984
G1 X57.679 Y144.215 E34.7235
G1 X58.244 Y143.29 E34.81016
G1 X58.859 Y142.429 E34.89475
G1 X59.526 Y141.627 E34.97814
G1 X60.233 Y140.89 E35.05978
G1 X60.362 Y140.766 E35.07409
G1 X61.158 Y140.045 E35.15995
G1 X61.985 Y139.4 E35.24379
G1 X62.864 Y138.812 E35.32834
G1 X63.801 Y138.28 E35.41448
G1 X64.756 Y137.827 E35.49898
G0 F2625 X64 Y138.185
G1 F1350 X64 Y181.28 E38.9442
G0 F2625 X66 Y182.097
G1 F1350 X66 Y137.367 E42.52014
G0 F2625 X68 Y136.869
G1 F1350 X68 Y182.592 E46.17546
G0 F2625 X70 Y182.798
G1 F1350 X70 Y136.659 E49.86403
G0 F2625 X72 Y136.681
G1 F1350 X72 Y182.782 E53.54957
G0 F2625 X74 Y182.734
G1 F1350 X74 Y136.729 E57.22743
G0 F2625 X76 Y136.777
G1 F1350 X76 Y182.687 E60.8977
G0 F2625 X78 Y182.639
G1 F1350 X78 Y136.825 E64.5603
G0 F2625 X80 Y136.862
G1 F1350 X80 Y182.6 E68.21681
G0 F2625 X82 Y182.629
G1 F1350 X82 Y136.833 E71.87797
G0 F2625 X84 Y136.804
G1 F1350 X84 Y182.657 E75.54368
G0 F2625 X86 Y182.686
G1 F1350 X86 Y136.776 E79.21395
G0 F2625 X88 Y136.747
G1 F1350 X88 Y182.715 E82.88886
G0 F2625 X90 Y182.791
G1 F1350 X90 Y136.671 E86.57591
G0 F2625 X92 Y136.575
G1 F1350 X92 Y182.887 E90.27832
G0 F2625 X94 Y182.982
G1 F1350 X94 Y136.48 E93.99592
G0 F2625 X96 Y136.384
G1 F1350 X96 Y183.078 E97.72886
G0 F2625 X98 Y183.175
G1 F1350 X98 Y136.284 E101.47756
G0 F2625 X100 Y136.129
G1 F1350 X100 Y183.329 E105.25095
G0 F2625 X102 Y183.485
G1 F1350 X102 Y135.974 E109.04921
G0 F2625 X104 Y135.819
G1 F1350 X104 Y183.641 E112.87234
G0 F2625 X106 Y183.797
G1 F1350 X106 Y135.664 E116.72032
G0 F2625 X108 Y135.509
G1 F1350 X108 Y183.953 E120.59317
G0 F2625 X110 Y184.15
G1 F1350 X110 Y135.313 E124.49744
G0 F2625 X112 Y135.106
G1 F1350 X112 Y184.357 E128.43481
G0 F2625 X114 Y184.565
G1 F1350 X114 Y134.899 E132.40535
G0 F2625 X116 Y134.692
G1 F1350 X116 Y184.772 E136.40899
G0 F2625 X118 Y184.979
G1 F1350 X118 Y134.485 E140.44572
G0 F2625 X120 Y134.278
G1 F1350 X120 Y185.186 E144.51555
G0 F2625 X122 Y185.432
G1 F1350 X122 Y134.032 E148.62472
G0 F2625 X124 Y133.782
G1 F1350 X124 Y185.682 E152.77386
G0 F2625 X126 Y185.931
G1 F1350 X126 Y133.532 E156.96289
G0 F2625 X128 Y133.282
G1 F1350 X128 Y186.181 E161.19189
G0 F2625 X130 Y186.431
G1 F1350 X130 Y133.032 E165.46087
G0 F2625 X132 Y132.783
G1 F1350 X132 Y186.68 E169.76966
G0 F2625 X134 Y186.93
G1 F1350 X134 Y132.533 E174.11842
G0 F2625 X136 Y132.283
G1 F1350 X136 Y187.179 E178.50707
G0 F2625 X138 Y187.435
G1 F1350 X138 Y132.028 E182.93658
G0 F2625 X140 Y131.76
G1 F1350 X140 Y187.702 E187.40885
G0 F2625 X142 Y187.97
G1 F1350 X142 Y131.493 E191.9239
G0 F2625 X144 Y131.225
G1 F1350 X144 Y188.238 E196.4818
G0 F2625 X146 Y188.506
G1 F1350 X146 Y130.958 E201.08246
G0 F2625 X148 Y130.69
G1 F1350 X148 Y188.774 E205.72598
G0 F2625 X150 Y189.041
G1 F1350 X150 Y130.423 E210.41219
G0 F2625 X152 Y130.155
G1 F1350 X152 Y189.309 E215.14125
G0 F2625 X154 Y189.577
G1 F1350 X154 Y129.888 E219.91308
G0 F2625 X156 Y129.62
G1 F1350 X156 Y189.844 E224.72768
G0 F2625 X158 Y190.094
G1 F1350 X158 Y129.37 E229.58225
G0 F2625 X160 Y129.12
G1 F1350 X160 Y190.344 E234.47679
G0 F2625 X162 Y190.594
G1 F1350 X162 Y128.87 E239.41131
G0 F2625 X164 Y128.621
G1 F1350 X164 Y190.844 E244.38572
G0 F2625 X166 Y191.093
G1 F1350 X166 Y128.371 E249.40002
G0 F2625 X168 Y128.121
G1 F1350 X168 Y191.343 E254.45429
G0 F2625 X170 Y191.593
G1 F1350 X170 Y127.871 E259.54854
G0 F2625 X172 Y127.642
G1 F1350 X172 Y191.82 E264.67924
G0 F2625 X174 Y192.045
G1 F1350 X174 Y127.417 E269.84592
G0 F2625 X176 Y127.203
G1 F1350 X176 Y192.259 E275.04681
G0 F2625 X178 Y192.466
G1 F1350 X178 Y126.997 E280.28072
G0 F2625 X180 Y126.767
G1 F1350 X180 Y192.702 E285.55189
G0 F2625 X182 Y193.045
G1 F1350 X182 Y126.416 E290.87853
G0 F2625 X184 Y126.225
G1 F1350 X184 Y193.235 E296.23564
G0 F2625 X186 Y193.405
G1 F1350 X186 Y126.059 E301.61961
G0 F2625 X188 Y125.899
G1 F1350 X188 Y193.562 E307.02892
G0 F2625 X190 Y193.711
G1 F1350 X190 Y125.749 E312.46213
G0 F2625 X192 Y125.613
G1 F1350 X192 Y193.854 E317.91765
G0 F2625 X194 Y193.974
G1 F1350 X194 Y125.494 E323.39227
G0 F2625 X196 Y125.373
G1 F1350 X196 Y194.093 E328.88608
G0 F2625 X198 Y194.197
G1 F1350 X198 Y125.273 E334.3962
G0 F2625 X200 Y125.186
G1 F1350 X200 Y194.281 E339.91999
G0 F2625 X202 Y194.353
G1 F1350 X202 Y125.12 E345.45482
G0 F2625 X204 Y125.047
G1 F1350 X204 Y194.413 E351.00027
G0 F2625 X206 Y194.453
G1 F1350 X206 Y125.014 E356.55156
G0 F2625 X208 Y125.014
G1 F1350 X208 Y194.451 E362.10269
G0 F2625 X210 Y194.447
G1 F1350 X210 Y125.016 E367.65335
G0 F2625 X212 Y125.163
G1 F1350 X212 Y158.398 E370.31031
G0 F2625 X214 Y157.972
G1 F1350 X214 Y125.596 E372.89861
G0 F2625 X216 Y126.339
G1 F1350 X216 Y157.292 E375.37314
G0 F2625 X218 Y156.252
G1 F1350 X218 Y127.455 E377.67531
G0 F2625 X220 Y129.065
G1 F1350 X220 Y154.755 E379.7291
G0 F2625 X222 Y152.618
G1 F1350 X222 Y131.261 E381.43648
G0 F2625 X224 Y134.949
G1 F1350 X224 Y149.172 E382.57354
G0 F2625 X211.988 Y158.982
G0 X212.016 Y160.533
G0 X216 Y162.177
G1 F1350 X216 Y193.116 E385.04695
G0 F2625 X214 Y193.863
G1 F1350 X214 Y161.496 E387.63453
G0 F2625 X212 Y161.107
G1 F1350 X212 Y194.295 E390.28774
G0 F2625 X218 Y191.993
G1 F1350 X218 Y163.213 E392.58855
G0 F2625 X220 Y164.722
G1 F1350 X220 Y190.383 E394.64001
G0 F2625 X222 Y188.169
G1 F1350 X222 Y166.85 E396.34436
G0 F2625 X224 Y170.291
G1 F1350 X224 Y184.459 E397.47702
G0 F2625 X62 Y180.075
G1 F1350 X62 Y139.389 E400.72965
G0 F2625 X60 Y141.132
G1 F1350 X60 Y178.34 E403.70424
G0 F2625 X58 Y175.793
G1 F1350 X58 Y143.689 E406.27079
G0 F2625 X56 Y149.121
M104 S240
G1 F1350 X56 Y159.455 E407.09694
G0 F2625 X56 Y159.887
G1 F1350 X56 Y170.408 E407.93804
G0 F2625 X64.756 Y137.825
;TIME_ELAPSED:244.373454
;LAYER:-5
M140 S110
M221 S100
G0 X64.756 Y137.825 Z0.78
;TYPE:SUPPORT
G1 F1350 X63.8 Y138.278 E407.98282
G1 X63.718 Y138.326 E407.98684
G1 X109.488 Y184.096 E410.72639
G1 X108.381 Y183.982 E410.77349
G1 X107.618 Y183.922 E410.80589
G1 X62.65 Y138.954 E413.49744
G1 X61.984 Y139.399 E413.53134
G1 X61.656 Y139.656 E413.54898
G1 X105.778 Y183.778 E416.18989
G1 X103.94 Y183.635 E416.26792
G1 X60.734 Y140.429 E418.854
G1 X60.361 Y140.765 E418.87525
G1 X60.232 Y140.889 E418.88282
G1 X59.872 Y141.263 E418.90479
G1 X102.101 Y183.492 E421.4324
G1 X100.262 Y183.348 E421.51048
G1 X59.078 Y142.164 E423.97554
G1 X58.859 Y142.428 E423.99005
G1 X58.353 Y143.136 E424.02689
G1 X98.422 Y183.205 E426.42521
G1 X98.294 Y183.195 E426.43064
G1 X97.92 Y183.169 E426.44651
G1 X96.629 Y183.107 E426.50121
G1 X57.7 Y144.178 E428.8313
G1 X57.678 Y144.214 E428.83309
G1 X57.2 Y145.144 E428.87734
G1 X57.132 Y145.305 E428.88474
G1 X94.849 Y183.022 E431.14228
G1 X93.068 Y182.937 E431.21775
G1 X56.65 Y146.519 E433.39754
G1 X56.447 Y147.117 E433.42427
