;Generated by Cura LulzBot Edition GCodeWriter Version: 2.6.69
;FLAVOR:RepRap
;TIME:9718
;Filament used: 2.02031m
;Layer height: 0.18
;Generated with Cura_SteamEngine 2.6.69
;This G-Code has been generated specifically for the LulzBot TAZ 6 with standard extruder
G26 ; clear potential 'probe fail' condition
G21 ; set units to Millimetres
M107 ; disable fans
G90 ; absolute positioning
M82 ; set extruder to absolute mode
G92 E0 ; set extruder position to 0
M140 S110 ; start bed heating up
G28 XY ; home X and Y
G1 X-19 Y258 F1000 ; move to safe homing position
M109 R175 ; soften filament before homing Z
G28 Z ; home Z
G1 E-30 F100 ; retract filament
M109 R170 ; wait for extruder to reach wiping temp
G1 X-15 Y100 F3000 ; move above wiper pad
G1 Z1 ; push nozzle into wiper
G1 X-17 Y95 F1000 ; slow wipe
G1 X-17 Y90 F1000 ; slow wipe
G1 X-17 Y85 F1000 ; slow wipe
G1 X-15 Y90 F1000 ; slow wipe
G1 X-17 Y80 F1000 ; slow wipe
G1 X-15 Y95 F1000 ; slow wipe
G1 X-17 Y75 F2000 ; fast wipe
G1 X-15 Y65 F2000 ; fast wipe
G1 X-17 Y70 F2000 ; fast wipe
G1 X-15 Y60 F2000 ; fast wipe
G1 X-17 Y55 F2000 ; fast wipe
G1 X-15 Y50 F2000 ; fast wipe
G1 X-17 Y40 F2000 ; fast wipe
G1 X-15 Y45 F2000 ; fast wipe
G1 X-17 Y35 F2000 ; fast wipe
G1 X-15 Y40 F2000 ; fast wipe
G1 X-17 Y70 F2000 ; fast wipe
G1 X-15 Y30 Z2 F2000 ; fast wipe
G1 X-17 Y35 F2000 ; fast wipe
G1 X-15 Y25 F2000 ; fast wipe
G1 X-17 Y30 F2000 ; fast wipe
G1 X-15 Y25 Z1.5 F1000 ; slow wipe
G1 X-17 Y23 F1000 ; slow wipe
G1 Z10 ; raise extruder
M109 R170 ; wait for extruder to reach probe temp
G1 X-9 Y-9 ; move above first probe point
M204 S100 ; set probing acceleration
G29 ; start auto-leveling sequence
M204 S500 ; restore standard acceleration
G1 X0 Y0 Z15 F5000 ; move up off last probe point
G4 S1 ; pause
M400 ; wait for moves to finish
M117 Heating... ; progress indicator message on LCD
M109 R240 ; wait for extruder to reach printing temp
M190 S110 ; wait for bed to reach printing temp
G1 Z2 E0 F75 ; prime tiny bit of filament into the nozzle
M117 TAZ 6 Printing... ; progress indicator message on LCD

M221 S100
;LAYER_COUNT:105
;LAYER:0
M107
G0 F2625 X65.141 Y116.127 Z0.424
G0 X66.048 Y115.911
;TYPE:SKIRT
G1 F900 X77.508 Y116.326 E0.38199
G1 X77.553 Y116.328 E0.38349
G1 X92.493 Y117.256 E0.8821
G1 X92.524 Y117.259 E0.88314
G1 X115.848 Y119.123 E1.66255
G1 X135.826 Y120.596 E2.32983
G1 X156.89 Y121.827 E3.03268
G1 X173.069 Y122.648 E3.5723
G1 X179.248 Y122.774 E3.77817
G1 X179.301 Y122.776 E3.77993
G1 X194.914 Y123.574 E4.30069
G1 X194.925 Y123.575 E4.30105
G1 X201.009 Y123.924 E4.50405
G1 X201.014 Y123.924 E4.50421
G1 X206.104 Y124.23 E4.67407
G1 X206.472 Y124.292 E4.6865
G1 X206.819 Y124.431 E4.69895
G1 X207.225 Y124.728 E4.71571
G1 X207.281 Y124.783 E4.71832
G1 X207.346 Y124.85 E4.72143
G1 X207.52 Y125.04 E4.73001
G1 X207.741 Y125.341 E4.74245
G1 X207.894 Y125.682 E4.7549
G1 X207.974 Y126.086 E4.76862
G1 X208.162 Y128.5 E4.84928
G1 X208.953 Y135.671 E5.08959
G1 X208.964 Y135.861 E5.09593
G1 X208.972 Y142.305 E5.31059
G1 X209.243 Y147.87 E5.49618
G1 X209.826 Y153.387 E5.68097
G1 X210.721 Y158.871 E5.86606
G1 X211.696 Y163.394 E6.02019
G1 X211.735 Y163.764 E6.03258
G1 X211.734 Y166.758 E6.13231
G1 X211.709 Y167.049 E6.14204
G1 X211.311 Y169.399 E6.22144
G1 X210.636 Y174.508 E6.3931
G1 X210.548 Y174.871 E6.40554
G1 X210.385 Y175.207 E6.41798
G1 X210.125 Y175.53 E6.43179
G1 X209.849 Y175.8 E6.44465
G1 X209.555 Y176.031 E6.45711
G1 X209.219 Y176.195 E6.46956
G1 X208.722 Y176.296 E6.48645
G1 X193.383 Y177.147 E6.99819
G1 X186.563 Y177.599 E7.22586
G1 X182.091 Y177.9 E7.37516
G1 X182.05 Y177.902 E7.37653
G1 X175.737 Y178.182 E7.58703
G1 X151.064 Y180.288 E8.41188
G1 X127.027 Y182.723 E9.21666
G1 X101.628 Y185.634 E10.06825
G1 X68.876 Y189.771 E11.1679
G1 X68.503 Y189.778 E11.18033
G1 X68.136 Y189.706 E11.19278
G1 X67.793 Y189.557 E11.20524
G1 X67.49 Y189.339 E11.21767
G1 X67.24 Y189.062 E11.2301
G1 X67.054 Y188.737 E11.24258
G1 X66.942 Y188.381 E11.25501
G1 X66.907 Y188.035 E11.26659
G1 X66.908 Y181.705 E11.47745
G1 X66.917 Y181.53 E11.48328
G1 X67.51 Y175.641 E11.68044
G1 X67.746 Y170.104 E11.86505
G1 X67.669 Y164.539 E12.05044
G1 X67.276 Y158.989 E12.23577
G1 X66.573 Y153.49 E12.42044
G1 X65.267 Y146.69 E12.65109
G1 X65.236 Y146.359 E12.66216
G1 X65.24 Y136.815 E12.98008
G1 X65.003 Y131.263 E13.16518
G1 X64.765 Y128.465 E13.25872
G1 X64.26 Y124.294 E13.39867
G1 X64.247 Y124.087 E13.40558
G1 X64.235 Y117.663 E13.61957
G1 X64.274 Y117.292 E13.632
G1 X64.391 Y116.937 E13.64445
G1 X64.581 Y116.615 E13.6569
G1 X64.835 Y116.341 E13.66935
G1 X65.141 Y116.127 E13.68178
G1 X65.486 Y115.983 E13.69424
G1 X65.853 Y115.915 E13.70667
G1 X66.048 Y115.911 E13.71317
G1 F600 E12.71317
G0 F2625 X177.983 Y123.986
G0 X179.853 Y124.793
;TYPE:SUPPORT
G1 F600 E13.71317
G1 F900 X180.773 Y124.84 E13.74385
G1 X180.773 Y124.839 E13.74389
G1 X181.27 Y124.877 E13.76049
G1 X182.471 Y124.926 E13.80053
G1 X182.689 Y124.935 E13.8078
G1 X182.931 Y124.945 E13.81586
G1 X183.259 Y124.963 E13.82681
G1 X184.784 Y125.043 E13.87767
G1 X186.155 Y125.113 E13.9234
G1 X187.017 Y125.159 E13.95216
G1 X190.179 Y125.323 E14.05763
G1 X190.465 Y125.338 E14.06717
G1 X190.977 Y125.365 E14.08424
G1 X194.846 Y125.572 E14.21331
G1 X195.28 Y125.596 E14.22778
G1 X195.549 Y125.611 E14.23676
G1 X196.496 Y125.663 E14.26835
G1 X196.837 Y125.682 E14.27973
G1 X198.094 Y125.753 E14.32167
G1 X200.352 Y125.884 E14.39701
G1 X200.352 Y125.883 E14.39704
G1 X202.114 Y126.006 E14.45588
G1 X202.471 Y126.014 E14.46777
G1 X203.781 Y126.075 E14.51146
G1 X205.878 Y126.199 E14.58143
G1 X205.987 Y126.316 E14.58676
G1 X205.975 Y127.95 E14.64119
G1 X205.791 Y128.414 E14.65781
G1 X205.781 Y130.013 E14.71108
G1 X205.491 Y130.3 E14.72467
G1 X200.65 Y130.306 E14.88592
G1 X198.965 Y130.235 E14.9421
G1 X196.765 Y130.114 E15.01549
G1 X194.125 Y129.972 E15.10356
G1 X192.981 Y129.908 E15.14173
G1 X192.787 Y129.897 E15.1482
G1 X192.748 Y129.895 E15.1495
G1 X192.748 Y129.896 E15.14953
G1 X192.252 Y129.856 E15.16611
G1 X190.398 Y129.763 E15.22795
G1 X189.401 Y129.7 E15.26122
G1 X188.876 Y129.668 E15.27874
G1 X188.017 Y129.616 E15.30741
G1 X187.463 Y129.582 E15.3259
G1 X186.973 Y129.552 E15.34225
G1 X185.579 Y129.466 E15.38877
G1 X184.752 Y129.414 E15.41637
G1 X183.294 Y129.323 E15.46504
G1 X182.114 Y129.248 E15.50442
G1 X180.875 Y129.168 E15.54578
G1 X179.727 Y129.091 E15.5841
G1 X179.73 Y129.088 E15.58425
G1 X179.853 Y124.793 E15.72737
G0 F2625 X181.594 Y125.09
G1 F900 X181.594 Y129.014 E15.85808
G0 F2625 X183.26 Y129.121
G1 F900 X183.26 Y125.163 E15.98993
G0 F2625 X184.926 Y125.25
G1 F900 X184.926 Y129.225 E16.12233
G0 F2625 X186.592 Y129.328
G1 F900 X186.592 Y125.336 E16.25531
G0 F2625 X188.258 Y125.423
G1 F900 X188.258 Y129.43 E16.38878
G0 F2625 X189.924 Y129.533
G1 F900 X189.924 Y125.51 E16.52279
G0 F2625 X191.59 Y125.598
G1 F900 X191.59 Y129.623 E16.65687
G0 F2625 X193.256 Y129.723
G1 F900 X193.256 Y125.687 E16.79131
G0 F2625 X194.922 Y125.776
G1 F900 X194.922 Y129.815 E16.92585
G0 F2625 X196.588 Y129.904
G1 F900 X196.588 Y125.868 E17.06029
G0 F2625 X198.254 Y125.963
G1 F900 X198.254 Y129.996 E17.19463
G0 F2625 X197.391 Y129.948
G1 F900 X205.56 Y129.948 E17.46674
G0 F2625 X204.918 Y130.101
G1 F900 X204.918 Y126.342 E17.59195
G0 F2625 X205.784 Y126.616
G1 F900 X180.001 Y126.616 E18.45079
G0 F2625 X179.954 Y128.282
G1 F900 X205.627 Y128.282 E19.30597
G0 F2625 X203.252 Y130.103
G1 F900 X203.252 Y126.251 E19.43428
G0 F2625 X201.586 Y126.17
G1 F900 X201.586 Y130.105 E19.56536
G0 F2625 X199.92 Y130.074
G1 F900 X199.92 Y126.059 E19.6991
G0 F2625 X199.569 Y133.792
G1 F900 X201.574 Y133.7 E19.76596
G1 X206.492 Y133.7 E19.92978
G1 X206.785 Y133.991 E19.94353
G1 X206.795 Y135.452 E19.9922
G1 X206.975 Y135.92 E20.0089
G1 X206.986 Y137.681 E20.06756
G1 X206.86 Y137.821 E20.07384
G1 X205.593 Y137.895 E20.11611
G1 X205.172 Y137.916 E20.13016
G1 X204.483 Y137.918 E20.15311
G1 X202.757 Y138.042 E20.21075
G1 X202.757 Y138.041 E20.21078
G1 X201.502 Y138.116 E20.25266
G1 X199.813 Y138.208 E20.30901
G1 X197.804 Y138.32 E20.37603
G1 X196.147 Y138.414 E20.43131
G1 X195.886 Y138.43 E20.44002
G1 X195.424 Y138.454 E20.45543
G1 X191.98 Y138.636 E20.57032
G1 X191.465 Y138.663 E20.58749
G1 X190.946 Y138.69 E20.60481
G1 X190.401 Y138.719 E20.62299
G1 X189.796 Y138.743 E20.64315
G1 X189.295 Y138.779 E20.65989
G1 X189.295 Y138.778 E20.65992
G1 X187.357 Y138.876 E20.72456
G1 X186.571 Y138.917 E20.75077
G1 X185.761 Y138.96 E20.77779
G1 X183.725 Y139.064 E20.8457
G1 X183.646 Y139.068 E20.84834
G1 X181.586 Y139.169 E20.91704
G1 X180.853 Y139.207 E20.94149
G1 X180.73 Y134.91 E21.08468
G1 X180.727 Y134.908 E21.0848
G1 X182.255 Y134.806 E21.13581
G1 X182.936 Y134.763 E21.15854
G1 X184.001 Y134.694 E21.19409
G1 X184.001 Y134.695 E21.19413
G1 X184.498 Y134.672 E21.2107
G1 X184.962 Y134.635 E21.2262
G1 X187.225 Y134.489 E21.30174
G1 X187.225 Y134.49 E21.30177
G1 X187.791 Y134.464 E21.32065
G1 X189.645 Y134.345 E21.38253
G1 X189.645 Y134.346 E21.38257
G1 X190.257 Y134.31 E21.40299
G1 X190.531 Y134.3 E21.41212
G1 X192.949 Y134.144 E21.49283
G1 X192.949 Y134.145 E21.49287
G1 X195.237 Y134.059 E21.56913
G1 X195.728 Y134.003 E21.5856
G1 X198.112 Y133.869 E21.66513
G1 X198.153 Y133.862 E21.66652
G1 X199.569 Y133.792 E21.71374
G0 F2625 X199.92 Y133.975
G1 F900 X199.92 Y138.003 E21.84792
G0 F2625 X201.586 Y137.912
G1 F900 X201.586 Y133.9 E21.98156
G0 F2625 X203.252 Y133.9
G1 F900 X203.252 Y137.806 E22.11167
G0 F2625 X204.918 Y137.717
G1 F900 X204.918 Y133.9 E22.23881
G0 F2625 X206.584 Y134.075
G1 F900 X206.584 Y137.637 E22.35747
G0 F2625 X206.78 Y136.612
G1 F900 X180.978 Y136.612 E23.21694
G0 F2625 X181.025 Y138.278
G1 F900 X194.979 Y138.278 E23.68175
G0 F2625 X194.922 Y138.282
G1 F900 X194.922 Y134.271 E23.81536
G0 F2625 X193.256 Y134.333
G1 F900 X193.256 Y138.37 E23.94983
G0 F2625 X191.59 Y138.457
G1 F900 X191.59 Y134.432 E24.08391
G0 F2625 X189.924 Y134.529
G1 F900 X189.924 Y138.539 E24.21748
G0 F2625 X188.258 Y138.632
G1 F900 X188.258 Y134.633 E24.35069
G0 F2625 X186.592 Y134.73
G1 F900 X186.592 Y138.717 E24.4835
G0 F2625 X184.926 Y138.804
G1 F900 X184.926 Y134.838 E24.61561
G0 F2625 X183.26 Y134.942
G1 F900 X183.26 Y138.888 E24.74705
G0 F2625 X181.594 Y138.97
G1 F900 X181.594 Y135.05 E24.87763
G0 F2625 X183.212 Y134.946
G1 F900 X206.593 Y134.946 E25.65646
G0 F2625 X198.254 Y134.056
G1 F900 X198.254 Y138.096 E25.79103
G0 F2625 X196.588 Y138.19
G1 F900 X196.588 Y134.154 E25.92547
G0 F2625 X192.514 Y162.828
G1 F900 X192.514 Y162.827 E25.9255
G1 X194.487 Y162.966 E25.99139
G1 X194.961 Y162.98 E26.00719
G1 X195.394 Y163.008 E26.02164
G1 X195.555 Y163.016 E26.02701
G1 X196.11 Y163.047 E26.04552
G1 X198.251 Y163.172 E26.11696
G1 X199.944 Y163.271 E26.17345
G1 X200.967 Y163.331 E26.20759
G1 X201.529 Y163.363 E26.22634
G1 X201.529 Y163.362 E26.22637
G1 X202.949 Y163.461 E26.27379
G1 X203.715 Y163.478 E26.29931
G1 X206.016 Y163.603 E26.37607
G1 X207.434 Y163.68 E26.42337
G1 X208.4 Y163.717 E26.45558
G1 X208.838 Y163.755 E26.47022
G1 X208.856 Y163.773 E26.47107
G1 X209.408 Y164.006 E26.49103
G1 X209.745 Y164.006 E26.50225
G1 X209.745 Y166.689 E26.59162
G1 X209.52 Y167.095 E26.60709
G1 X208.468 Y167.732 E26.64805
G1 X199.692 Y167.739 E26.94038
G1 X197.814 Y167.621 E27.00306
G1 X197.814 Y167.622 E27.0031
G1 X197.01 Y167.559 E27.02996
G1 X196.74 Y167.559 E27.03895
G1 X195.313 Y167.459 E27.08661
G1 X194.042 Y167.371 E27.12904
G1 X192.775 Y167.285 E27.17135
G1 X190.598 Y167.116 E27.24408
G1 X190.568 Y167.116 E27.24508
G1 X189.754 Y167.053 E27.27228
G1 X188.081 Y166.924 E27.32817
G1 X186.879 Y166.825 E27.36834
G1 X186.01 Y166.754 E27.39739
G1 X185.339 Y166.69 E27.41984
G1 X184.834 Y166.656 E27.4367
G1 X184.272 Y166.608 E27.45549
G1 X183.775 Y166.568 E27.4721
G1 X182.679 Y166.472 E27.50874
G1 X182.691 Y166.462 E27.50926
G1 X182.809 Y162.18 E27.65195
G1 X185.471 Y162.358 E27.74082
G1 X186.276 Y162.414 E27.7677
G1 X187.462 Y162.495 E27.8073
G1 X188.412 Y162.563 E27.83903
G1 X189.05 Y162.601 E27.86032
G1 X189.05 Y162.6 E27.86035
G1 X190.923 Y162.733 E27.9229
G1 X191.561 Y162.766 E27.94418
G1 X191.561 Y162.765 E27.94421
G1 X192.009 Y162.797 E27.95917
G1 X192.514 Y162.828 E27.97603
G0 F2625 X193.256 Y163.08
G1 F900 X193.256 Y167.116 E28.11047
G0 F2625 X194.922 Y167.23
G1 F900 X194.922 Y163.18 E28.24537
G0 F2625 X196.475 Y163.268
G1 F900 X182.979 Y163.268 E28.69493
G0 F2625 X183.26 Y162.413
G1 F900 X183.26 Y166.323 E28.82517
G0 F2625 X182.933 Y164.934
G1 F900 X209.545 Y164.934 E29.71163
G0 F2625 X208.25 Y163.912
G1 F900 X208.25 Y167.533 E29.83225
G0 F2625 X209.545 Y166.6
G1 F900 X186.574 Y166.6 E30.59742
G0 F2625 X186.592 Y166.601
G1 F900 X186.592 Y162.637 E30.72946
G0 F2625 X184.926 Y162.523
G1 F900 X184.926 Y166.461 E30.86064
G0 F2625 X188.258 Y166.736
G1 F900 X188.258 Y162.753 E30.99331
G0 F2625 X189.924 Y162.863
G1 F900 X189.924 Y166.864 E31.12659
G0 F2625 X191.59 Y166.992
G1 F900 X191.59 Y162.969 E31.26059
G0 F2625 X196.588 Y163.275
G1 F900 X196.588 Y167.347 E31.39623
G0 F2625 X198.254 Y167.448
G1 F900 X198.254 Y163.372 E31.53201
G0 F2625 X199.92 Y163.47
G1 F900 X199.92 Y167.539 E31.66755
G0 F2625 X201.586 Y167.538
G1 F900 X201.586 Y163.568 E31.79979
G0 F2625 X203.252 Y163.668
G1 F900 X203.252 Y167.537 E31.92867
G0 F2625 X204.918 Y167.535
G1 F900 X204.918 Y163.743 E32.05498
G0 F2625 X206.584 Y163.834
G1 F900 X206.584 Y167.534 E32.17823
G0 F2625 X208.167 Y170.316
G1 F900 X208.46 Y170.607 E32.19198
G1 X208.47 Y172.098 E32.24165
G1 X208.648 Y172.566 E32.25833
G1 X208.659 Y174.187 E32.31233
G1 X208.545 Y174.308 E32.31786
G1 X208.1 Y174.322 E32.33269
G1 X206.312 Y174.419 E32.39234
G1 X205.382 Y174.47 E32.42337
G1 X205.308 Y174.47 E32.42583
G1 X205.099 Y174.481 E32.4328
G1 X204.875 Y174.493 E32.44028
G1 X204.519 Y174.512 E32.45215
G1 X203.15 Y174.586 E32.49782
G1 X202.135 Y174.641 E32.53168
G1 X199.071 Y174.809 E32.63389
G1 X199.03 Y174.809 E32.63526
G1 X198.334 Y174.859 E32.6585
G1 X198.334 Y174.858 E32.65854
G1 X197.35 Y174.907 E32.69136
G1 X196.686 Y174.95 E32.71352
G1 X195.941 Y174.998 E32.73839
G1 X195.941 Y174.997 E32.73842
G1 X195.562 Y175.016 E32.75106
G1 X195.239 Y175.038 E32.76185
G1 X195.054 Y175.05 E32.76802
G1 X194.518 Y175.059 E32.78588
G1 X192.818 Y175.183 E32.84266
G1 X191.787 Y175.253 E32.87708
G1 X191.787 Y175.252 E32.87711
G1 X191.647 Y175.26 E32.88178
G1 X191.183 Y175.279 E32.89725
G1 X188.005 Y175.499 E33.00337
G1 X188.005 Y175.498 E33.0034
G1 X187.187 Y175.549 E33.0307
G1 X186.372 Y175.608 E33.05792
G1 X186.372 Y175.607 E33.05795
G1 X186.212 Y175.615 E33.06329
G1 X184.624 Y175.725 E33.11631
G1 X183.516 Y175.804 E33.15331
G1 X182.533 Y175.874 E33.18614
G1 X182.415 Y171.586 E33.32903
G1 X182.405 Y171.577 E33.32948
G1 X183.504 Y171.485 E33.36621
G1 X189.111 Y171.026 E33.55361
G1 X189.111 Y171.027 E33.55364
G1 X190.74 Y170.93 E33.608
G1 X191.306 Y170.854 E33.62702
G1 X191.845 Y170.814 E33.64503
G1 X191.845 Y170.815 E33.64506
G1 X192.068 Y170.801 E33.6525
G1 X195.556 Y170.551 E33.76899
G1 X195.556 Y170.552 E33.76902
G1 X196.086 Y170.52 E33.78671
G1 X196.249 Y170.51 E33.79215
G1 X199.217 Y170.322 E33.89121
G1 X199.268 Y170.316 E33.89292
G1 X208.167 Y170.316 E34.18935
G0 F2625 X208.25 Y170.682
G1 F900 X208.25 Y174.117 E34.30377
G0 F2625 X208.453 Y173.264
G1 F900 X182.661 Y173.264 E35.16291
G0 F2625 X182.706 Y174.93
G1 F900 X193.533 Y174.93 E35.52356
G0 F2625 X193.256 Y174.951
G1 F900 X193.256 Y170.916 E35.65797
G0 F2625 X191.59 Y171.034
G1 F900 X191.59 Y175.063 E35.79218
G0 F2625 X189.924 Y175.166
G1 F900 X189.924 Y171.178 E35.92502
G0 F2625 X188.258 Y171.296
G1 F900 X188.258 Y175.281 E36.05776
G0 F2625 X186.592 Y175.392
G1 F900 X186.592 Y171.432 E36.18967
G0 F2625 X184.926 Y171.569
G1 F900 X184.926 Y175.504 E36.32075
G0 F2625 X183.26 Y175.622
G1 F900 X183.26 Y171.706 E36.45119
G0 F2625 X184.573 Y171.598
G1 F900 X208.268 Y171.598 E37.24048
G0 F2625 X206.584 Y170.516
G1 F900 X206.584 Y174.205 E37.36336
G0 F2625 X204.918 Y174.292
G1 F900 X204.918 Y170.516 E37.48914
G0 F2625 X203.252 Y170.516
G1 F900 X203.252 Y174.381 E37.61789
G0 F2625 X201.586 Y174.472
G1 F900 X201.586 Y170.516 E37.74966
